; generated by Slic3r 0.9.9 on 2014-04-06 at 00:27:13

; layer_height = 0.2
; perimeters = 3
; top_solid_layers = 3
; bottom_solid_layers = 3
; fill_density = 0.2
; perimeter_speed = 36
; infill_speed = 60
; travel_speed = 130
; nozzle_diameter = 0.35
; filament_diameter = 1.75
; extrusion_multiplier = 1
; perimeters extrusion width = 0.52mm
; infill extrusion width = 0.52mm
; solid infill extrusion width = 0.52mm
; top infill extrusion width = 0.52mm
; support material extrusion width = 0.52mm
; first layer extrusion width = 0.60mm

G21 ; set units to millimeters
M107 ; disable fan
M190 S95 ; wait for bed temperature to be reached
M104 S225 ; set temperature
G28 ; home all axes
G1 Z5 F5000 ; lift nozzle
M109 S225 ; wait for temperature to be reached
G90 ; use absolute coordinates
G92 E0 ; reset extrusion distance
M82 ; use absolute distances for extrusion
G1 F1800.000 E-1.00000 ; retract
G92 E0 ; reset extrusion distance
G1 Z0.300 F7800.000 ; move to next layer (0)
G1 X68.868 Y73.517 ; move to first skirt point
G1 F1800.000 E1.00000 ; compensate retraction
G1 X69.168 Y73.247 F756.000 E1.02750 ; skirt
G1 X69.498 Y73.007 E1.05531 ; skirt
G1 X70.028 Y72.727 E1.09616 ; skirt
G1 X70.608 Y72.547 E1.13754 ; skirt
G1 X71.208 Y72.457 E1.17888 ; skirt
G1 X84.298 Y72.447 E2.07088 ; skirt
G1 X116.598 Y72.657 E4.27197 ; skirt
G1 X117.208 Y72.717 E4.31374 ; skirt
G1 X117.598 Y72.807 E4.34102 ; skirt
G1 X117.978 Y72.947 E4.36861 ; skirt
G1 X118.338 Y73.127 E4.39604 ; skirt
G1 X118.678 Y73.347 E4.42363 ; skirt
G1 X119.128 Y73.747 E4.46466 ; skirt
G1 X119.518 Y74.217 E4.50628 ; skirt
G1 X120.388 Y75.847 E4.63219 ; skirt
G1 X120.538 Y76.247 E4.66130 ; skirt
G1 X120.638 Y76.657 E4.69006 ; skirt
G1 X120.698 Y77.297 E4.73386 ; skirt
G1 X120.698 Y121.007 E7.71242 ; skirt
G1 X120.668 Y121.447 E7.74247 ; skirt
G1 X120.588 Y121.877 E7.77228 ; skirt
G1 X120.448 Y122.297 E7.80245 ; skirt
G1 X120.268 Y122.687 E7.83172 ; skirt
G1 X120.038 Y123.067 E7.86198 ; skirt
G1 X119.908 Y123.237 E7.87657 ; skirt
G1 X118.618 Y124.647 E8.00680 ; skirt
G1 X118.128 Y125.037 E8.04947 ; skirt
G1 X117.948 Y125.157 E8.06421 ; skirt
G1 X117.578 Y125.347 E8.09256 ; skirt
G1 X117.378 Y125.427 E8.10723 ; skirt
G1 X116.978 Y125.547 E8.13569 ; skirt
G1 X116.358 Y125.637 E8.17838 ; skirt
G1 X104.128 Y125.647 E9.01178 ; skirt
G1 X71.818 Y125.437 E11.21355 ; skirt
G1 X71.198 Y125.377 E11.25600 ; skirt
G1 X70.788 Y125.277 E11.28476 ; skirt
G1 X70.588 Y125.207 E11.29920 ; skirt
G1 X70.028 Y124.937 E11.34156 ; skirt
G1 X69.688 Y124.707 E11.36953 ; skirt
G1 X69.368 Y124.437 E11.39806 ; skirt
G1 X68.208 Y123.177 E11.51477 ; skirt
G1 X60.318 Y114.437 E12.31713 ; skirt
G1 X58.378 Y112.187 E12.51958 ; skirt
G1 X57.988 Y111.647 E12.56497 ; skirt
G1 X57.788 Y111.247 E12.59544 ; skirt
G1 X57.328 Y110.157 E12.67606 ; skirt
G1 X57.118 Y109.477 E12.72456 ; skirt
G1 X57.058 Y109.017 E12.75617 ; skirt
G1 X57.048 Y108.777 E12.77254 ; skirt
G1 X57.048 Y89.107 E14.11293 ; skirt
G1 X57.078 Y88.647 E14.14434 ; skirt
G1 X57.168 Y88.187 E14.17628 ; skirt
G1 X57.238 Y87.967 E14.19201 ; skirt
G1 X57.688 Y86.667 E14.28576 ; skirt
G1 X57.888 Y86.257 E14.31684 ; skirt
G1 X58.138 Y85.877 E14.34784 ; skirt
G1 X60.178 Y83.497 E14.56145 ; skirt
G1 X68.812 Y73.577 E15.45762 ; skirt
G1 F1800.000 E14.45762 ; retract
G92 E0 ; reset extrusion distance
G1 X92.380 Y87.411 F7800.000 ; move to first brim point
G1 F1800.000 E1.00000 ; compensate retraction
G1 X92.708 Y87.179 F756.000 E1.02739 ; brim
G1 X94.532 Y85.072 E1.21729 ; brim
G1 X94.856 Y84.924 E1.24160 ; brim
G1 X101.434 Y84.924 E1.68984 ; brim
G1 X101.434 Y84.311 E1.73159 ; brim
G1 X101.914 Y83.831 E1.77785 ; brim
G1 X102.034 Y83.831 E1.78603 ; brim
G1 X102.034 Y78.150 E2.17317 ; brim
G1 X101.721 Y77.634 E2.21434 ; brim
G1 X102.917 Y75.328 E2.39133 ; brim
G1 X103.309 Y75.090 E2.42261 ; brim
G1 X117.825 Y75.090 E3.41178 ; brim
G1 X118.305 Y75.570 E3.45804 ; brim
G1 X118.305 Y76.849 E3.54519 ; brim
G1 X118.271 Y76.882 E3.54840 ; brim
G1 X118.271 Y78.398 E3.65170 ; brim
G1 X118.699 Y78.768 E3.69020 ; brim
G1 X118.839 Y79.739 E3.75710 ; brim
G1 X118.509 Y80.254 E3.79873 ; brim
G1 X118.271 Y80.324 E3.81563 ; brim
G1 X118.271 Y121.649 E6.63170 ; brim
G1 X117.872 Y122.049 E6.67017 ; brim
G1 X117.872 Y122.742 E6.71743 ; brim
G1 X117.392 Y123.222 E6.76369 ; brim
G1 X103.848 Y123.222 E7.68661 ; brim
G1 X103.533 Y123.083 E7.71012 ; brim
G1 X101.508 Y120.869 E7.91461 ; brim
G1 X101.938 Y119.890 E7.98745 ; brim
G1 X102.034 Y119.890 E7.99399 ; brim
G1 X102.034 Y116.666 E8.21371 ; brim
G1 X101.914 Y116.666 E8.22188 ; brim
G1 X101.434 Y116.186 E8.26815 ; brim
G1 X101.434 Y114.907 E8.35530 ; brim
G1 X101.914 Y114.427 E8.40156 ; brim
G1 X102.034 Y114.427 E8.40973 ; brim
G1 X102.034 Y113.388 E8.48054 ; brim
G1 X94.023 Y113.388 E9.02647 ; brim
G1 X93.543 Y112.908 E9.07273 ; brim
G1 X93.543 Y111.993 E9.13507 ; brim
G1 X91.749 Y109.921 E9.32182 ; brim
G1 X91.849 Y109.702 E9.33821 ; brim
G1 X91.776 Y109.630 E9.34523 ; brim
G1 X91.776 Y90.056 E10.67902 ; brim
G1 X91.559 Y89.750 E10.70463 ; brim
G1 X92.353 Y87.489 E10.86794 ; brim
G1 F1800.000 E9.86794 ; retract
G92 E0 ; reset extrusion distance
G1 X86.566 Y85.383 F7800.000 ; move to first brim point
G1 F1800.000 E1.00000 ; compensate retraction
G1 X86.085 Y85.863 F756.000 E1.04626 ; brim
G1 X85.966 Y85.863 E1.05444 ; brim
G1 X85.966 Y108.756 E2.61445 ; brim
G1 X86.085 Y108.756 E2.62263 ; brim
G1 X86.566 Y109.236 E2.66889 ; brim
G1 X86.566 Y110.515 E2.75604 ; brim
G1 X86.085 Y110.995 E2.80230 ; brim
G1 X85.966 Y110.995 E2.81048 ; brim
G1 X85.966 Y121.442 E3.52237 ; brim
G1 X85.566 Y121.841 E3.56084 ; brim
G1 X85.566 Y122.535 E3.60810 ; brim
G1 X85.086 Y123.015 E3.65436 ; brim
G1 X71.543 Y123.015 E4.57728 ; brim
G1 X71.227 Y122.876 E4.60080 ; brim
G1 X69.202 Y120.661 E4.80528 ; brim
G1 X69.633 Y119.683 E4.87812 ; brim
G1 X69.728 Y119.683 E4.88466 ; brim
G1 X69.728 Y116.459 E5.10438 ; brim
G1 X69.608 Y116.459 E5.11256 ; brim
G1 X69.128 Y115.979 E5.15882 ; brim
G1 X69.128 Y114.700 E5.24597 ; brim
G1 X69.608 Y114.220 E5.29223 ; brim
G1 X69.728 Y114.220 E5.30041 ; brim
G1 X69.728 Y113.181 E5.37121 ; brim
G1 X62.641 Y113.181 E5.85417 ; brim
G1 X62.317 Y113.032 E5.87847 ; brim
G1 X60.461 Y110.889 E6.07167 ; brim
G1 X60.213 Y110.727 E6.09188 ; brim
G1 X59.204 Y108.403 E6.26446 ; brim
G1 X59.470 Y107.999 E6.29745 ; brim
G1 X59.481 Y88.464 E7.62858 ; brim
G1 X59.352 Y88.183 E7.64964 ; brim
G1 X61.146 Y86.112 E7.83638 ; brim
G1 X61.146 Y85.197 E7.89873 ; brim
G1 X61.626 Y84.717 E7.94499 ; brim
G1 X69.128 Y84.717 E8.45621 ; brim
G1 X69.128 Y84.104 E8.49795 ; brim
G1 X69.608 Y83.624 E8.54422 ; brim
G1 X69.728 Y83.624 E8.55239 ; brim
G1 X69.728 Y77.943 E8.93954 ; brim
G1 X69.415 Y77.427 E8.98070 ; brim
G1 X70.611 Y75.121 E9.15770 ; brim
G1 X71.003 Y74.883 E9.18898 ; brim
G1 X85.519 Y74.883 E10.17814 ; brim
G1 X85.999 Y75.363 E10.22441 ; brim
G1 X85.999 Y76.642 E10.31156 ; brim
G1 X85.966 Y76.675 E10.31476 ; brim
G1 X85.966 Y80.346 E10.56493 ; brim
G1 X86.085 Y80.346 E10.57311 ; brim
G1 X86.566 Y80.826 E10.61937 ; brim
G1 X86.566 Y82.105 E10.70652 ; brim
G1 X86.085 Y82.585 E10.75278 ; brim
G1 X85.966 Y82.585 E10.76096 ; brim
G1 X85.966 Y83.624 E10.83176 ; brim
G1 X86.085 Y83.624 E10.83993 ; brim
G1 X86.566 Y84.104 E10.88620 ; brim
G1 X86.566 Y85.301 E10.96776 ; brim
G1 F1800.000 E9.96776 ; retract
G92 E0 ; reset extrusion distance
G1 X109.594 Y114.480 F7800.000 ; move to first brim point
G1 F1800.000 E1.00000 ; compensate retraction
G1 X110.707 Y114.480 F756.000 E1.07581 ; brim
G1 X110.445 Y115.520 E1.14883 ; brim
G1 X109.852 Y115.520 E1.18924 ; brim
G1 X109.614 Y114.560 E1.25660 ; brim
G1 F1800.000 E0.25660 ; retract
G92 E0 ; reset extrusion distance
G1 X78.401 Y114.273 F7800.000 ; move to first brim point
G1 F1800.000 E1.00000 ; compensate retraction
G1 X78.139 Y115.312 F756.000 E1.07302 ; brim
G1 X77.546 Y115.312 E1.11343 ; brim
G1 X77.288 Y114.273 E1.18637 ; brim
G1 X78.319 Y114.273 E1.25660 ; brim
G1 F1800.000 E0.25660 ; retract
G92 E0 ; reset extrusion distance
G1 X110.156 Y84.574 F7800.000 ; move to first brim point
G1 F1800.000 E1.00000 ; compensate retraction
G1 X109.757 Y83.885 F756.000 E1.05423 ; brim
G1 X109.883 Y83.885 E1.06279 ; brim
G1 X110.152 Y83.616 E1.08868 ; brim
G1 X110.420 Y83.885 E1.11457 ; brim
G1 X110.550 Y83.885 E1.12343 ; brim
G1 X110.197 Y84.502 E1.17192 ; brim
G1 F1800.000 E0.17192 ; retract
G92 E0 ; reset extrusion distance
G1 X78.244 Y83.678 F7800.000 ; move to first brim point
G1 F1800.000 E1.00000 ; compensate retraction
G1 X77.850 Y84.366 F756.000 E1.05407 ; brim
G1 X77.452 Y83.678 E1.10830 ; brim
G1 X77.577 Y83.678 E1.11685 ; brim
G1 X77.846 Y83.409 E1.14274 ; brim
G1 X78.114 Y83.678 E1.16864 ; brim
G1 X78.162 Y83.678 E1.17192 ; brim
G1 F1800.000 E0.17192 ; retract
G92 E0 ; reset extrusion distance
G1 X92.168 Y89.664 F7800.000 ; move to first brim point
G1 F1800.000 E1.00000 ; compensate retraction
G1 X92.838 Y87.756 F756.000 E1.13780 ; brim
G1 X92.979 Y87.656 E1.14965 ; brim
G1 X93.369 Y87.656 E1.17618 ; brim
G1 X93.247 Y87.390 E1.19608 ; brim
G1 X94.867 Y85.520 E1.36469 ; brim
G1 X94.975 Y85.470 E1.37279 ; brim
G1 X102.087 Y85.470 E1.85741 ; brim
G1 X101.981 Y85.364 E1.86766 ; brim
G1 X101.981 Y84.538 E1.92397 ; brim
G1 X102.141 Y84.378 E1.93939 ; brim
G1 X102.687 Y84.378 E1.97662 ; brim
G1 X102.581 Y84.271 E1.98687 ; brim
G1 X102.581 Y82.352 E2.11764 ; brim
G1 X102.714 Y82.219 E2.13048 ; brim
G1 X102.581 Y82.086 E2.14331 ; brim
G1 X102.581 Y80.167 E2.27408 ; brim
G1 X102.714 Y80.034 E2.28692 ; brim
G1 X102.581 Y79.900 E2.29975 ; brim
G1 X102.581 Y77.981 E2.43052 ; brim
G1 X102.687 Y77.875 E2.44077 ; brim
G1 X102.507 Y77.875 E2.45307 ; brim
G1 X102.347 Y77.612 E2.47401 ; brim
G1 X103.331 Y75.715 E2.61963 ; brim
G1 X103.462 Y75.636 E2.63006 ; brim
G1 X117.598 Y75.636 E3.59337 ; brim
G1 X117.758 Y75.796 E3.60880 ; brim
G1 X117.758 Y76.622 E3.66510 ; brim
G1 X117.609 Y76.772 E3.67954 ; brim
G1 X117.725 Y76.889 E3.69077 ; brim
G1 X117.725 Y78.808 E3.82154 ; brim
G1 X117.619 Y78.914 E3.83179 ; brim
G1 X118.033 Y78.914 E3.86002 ; brim
G1 X118.187 Y79.047 E3.87390 ; brim
G1 X118.269 Y79.616 E3.91305 ; brim
G1 X118.159 Y79.787 E3.92692 ; brim
G1 X117.416 Y80.007 E3.97970 ; brim
G1 X117.565 Y80.007 E3.98983 ; brim
G1 X117.725 Y80.167 E4.00525 ; brim
G1 X117.725 Y82.086 E4.13602 ; brim
G1 X117.592 Y82.219 E4.14886 ; brim
G1 X117.725 Y82.352 E4.16169 ; brim
G1 X117.725 Y84.271 E4.29246 ; brim
G1 X117.592 Y84.404 E4.30530 ; brim
G1 X117.725 Y84.538 E4.31813 ; brim
G1 X117.725 Y86.457 E4.44890 ; brim
G1 X117.592 Y86.590 E4.46174 ; brim
G1 X117.725 Y86.723 E4.47457 ; brim
G1 X117.725 Y88.642 E4.60534 ; brim
G1 X117.592 Y88.775 E4.61818 ; brim
G1 X117.725 Y88.908 E4.63101 ; brim
G1 X117.725 Y90.827 E4.76178 ; brim
G1 X117.592 Y90.961 E4.77462 ; brim
G1 X117.725 Y91.094 E4.78745 ; brim
G1 X117.725 Y93.013 E4.91822 ; brim
G1 X117.592 Y93.146 E4.93106 ; brim
G1 X117.725 Y93.279 E4.94389 ; brim
G1 X117.725 Y95.198 E5.07466 ; brim
G1 X117.592 Y95.331 E5.08750 ; brim
G1 X117.725 Y95.465 E5.10034 ; brim
G1 X117.725 Y97.384 E5.23110 ; brim
G1 X117.592 Y97.517 E5.24394 ; brim
G1 X117.725 Y97.650 E5.25678 ; brim
G1 X117.725 Y99.569 E5.38754 ; brim
G1 X117.592 Y99.702 E5.40038 ; brim
G1 X117.725 Y99.835 E5.41322 ; brim
G1 X117.725 Y101.754 E5.54398 ; brim
G1 X117.592 Y101.888 E5.55682 ; brim
G1 X117.725 Y102.021 E5.56966 ; brim
G1 X117.725 Y103.940 E5.70042 ; brim
G1 X117.592 Y104.073 E5.71326 ; brim
G1 X117.725 Y104.206 E5.72610 ; brim
G1 X117.725 Y106.125 E5.85686 ; brim
G1 X117.592 Y106.258 E5.86970 ; brim
G1 X117.725 Y106.392 E5.88254 ; brim
G1 X117.725 Y108.311 E6.01331 ; brim
G1 X117.592 Y108.444 E6.02614 ; brim
G1 X117.725 Y108.577 E6.03898 ; brim
G1 X117.725 Y110.496 E6.16975 ; brim
G1 X117.592 Y110.629 E6.18258 ; brim
G1 X117.725 Y110.762 E6.19542 ; brim
G1 X117.725 Y112.681 E6.32619 ; brim
G1 X117.592 Y112.815 E6.33902 ; brim
G1 X117.725 Y112.948 E6.35186 ; brim
G1 X117.725 Y114.867 E6.48263 ; brim
G1 X117.592 Y115.000 E6.49546 ; brim
G1 X117.725 Y115.133 E6.50830 ; brim
G1 X117.725 Y117.052 E6.63907 ; brim
G1 X117.592 Y117.185 E6.65190 ; brim
G1 X117.725 Y117.319 E6.66474 ; brim
G1 X117.725 Y119.238 E6.79551 ; brim
G1 X117.592 Y119.371 E6.80834 ; brim
G1 X117.725 Y119.504 E6.82118 ; brim
G1 X117.725 Y121.423 E6.95195 ; brim
G1 X117.565 Y121.583 E6.96737 ; brim
G1 X117.220 Y121.583 E6.99092 ; brim
G1 X117.326 Y121.689 E7.00117 ; brim
G1 X117.326 Y122.516 E7.05748 ; brim
G1 X117.166 Y122.676 E7.07290 ; brim
G1 X103.964 Y122.676 E7.97256 ; brim
G1 X103.858 Y122.629 E7.98040 ; brim
G1 X102.151 Y120.763 E8.15277 ; brim
G1 X102.295 Y120.437 E8.17705 ; brim
G1 X102.687 Y120.437 E8.20378 ; brim
G1 X102.581 Y120.330 E8.21403 ; brim
G1 X102.581 Y118.411 E8.34480 ; brim
G1 X102.714 Y118.278 E8.35763 ; brim
G1 X102.581 Y118.145 E8.37047 ; brim
G1 X102.581 Y116.226 E8.50124 ; brim
G1 X102.687 Y116.120 E8.51149 ; brim
G1 X102.141 Y116.120 E8.54872 ; brim
G1 X101.981 Y115.959 E8.56414 ; brim
G1 X101.981 Y115.133 E8.62045 ; brim
G1 X102.141 Y114.973 E8.63587 ; brim
G1 X102.687 Y114.973 E8.67310 ; brim
G1 X102.581 Y114.867 E8.68335 ; brim
G1 X102.581 Y112.948 E8.81412 ; brim
G1 X102.687 Y112.841 E8.82437 ; brim
G1 X94.249 Y112.841 E9.39935 ; brim
G1 X94.089 Y112.681 E9.41477 ; brim
G1 X94.089 Y111.855 E9.47108 ; brim
G1 X94.196 Y111.749 E9.48133 ; brim
G1 X94.120 Y111.749 E9.48651 ; brim
G1 X94.011 Y111.699 E9.49461 ; brim
G1 X92.392 Y109.829 E9.66322 ; brim
G1 X92.513 Y109.563 E9.68312 ; brim
G1 X92.482 Y109.563 E9.68521 ; brim
G1 X92.322 Y109.403 E9.70063 ; brim
G1 X92.322 Y107.484 E9.83140 ; brim
G1 X92.456 Y107.351 E9.84423 ; brim
G1 X92.322 Y107.218 E9.85707 ; brim
G1 X92.322 Y105.299 E9.98784 ; brim
G1 X92.456 Y105.166 E10.00067 ; brim
G1 X92.322 Y105.033 E10.01351 ; brim
G1 X92.322 Y103.114 E10.14428 ; brim
G1 X92.456 Y102.980 E10.15711 ; brim
G1 X92.322 Y102.847 E10.16995 ; brim
G1 X92.322 Y100.928 E10.30072 ; brim
G1 X92.456 Y100.795 E10.31355 ; brim
G1 X92.322 Y100.662 E10.32639 ; brim
G1 X92.322 Y98.743 E10.45716 ; brim
G1 X92.456 Y98.610 E10.47000 ; brim
G1 X92.322 Y98.476 E10.48283 ; brim
G1 X92.322 Y96.557 E10.61360 ; brim
G1 X92.456 Y96.424 E10.62644 ; brim
G1 X92.322 Y96.291 E10.63927 ; brim
G1 X92.322 Y94.372 E10.77004 ; brim
G1 X92.456 Y94.239 E10.78288 ; brim
G1 X92.322 Y94.106 E10.79571 ; brim
G1 X92.322 Y92.187 E10.92648 ; brim
G1 X92.456 Y92.053 E10.93932 ; brim
G1 X92.322 Y91.920 E10.95215 ; brim
G1 X92.322 Y90.001 E11.08292 ; brim
G1 X92.429 Y89.895 E11.09317 ; brim
G1 X92.331 Y89.895 E11.09983 ; brim
G1 X92.215 Y89.731 E11.11349 ; brim
G1 F1800.000 E10.11349 ; retract
G92 E0 ; reset extrusion distance
G1 X85.419 Y89.794 F7800.000 ; move to first brim point
G1 F1800.000 E1.00000 ; compensate retraction
G1 X85.419 Y91.713 F756.000 E1.13077 ; brim
G1 X85.286 Y91.846 E1.14360 ; brim
G1 X85.419 Y91.979 E1.15644 ; brim
G1 X85.419 Y93.898 E1.28721 ; brim
G1 X85.286 Y94.032 E1.30004 ; brim
G1 X85.419 Y94.165 E1.31288 ; brim
G1 X85.419 Y96.084 E1.44365 ; brim
G1 X85.286 Y96.217 E1.45649 ; brim
G1 X85.419 Y96.350 E1.46932 ; brim
G1 X85.419 Y98.269 E1.60009 ; brim
G1 X85.286 Y98.402 E1.61293 ; brim
G1 X85.419 Y98.536 E1.62576 ; brim
G1 X85.419 Y100.455 E1.75653 ; brim
G1 X85.286 Y100.588 E1.76937 ; brim
G1 X85.419 Y100.721 E1.78220 ; brim
G1 X85.419 Y102.640 E1.91297 ; brim
G1 X85.286 Y102.773 E1.92581 ; brim
G1 X85.419 Y102.906 E1.93864 ; brim
G1 X85.419 Y104.825 E2.06941 ; brim
G1 X85.286 Y104.959 E2.08225 ; brim
G1 X85.419 Y105.092 E2.09508 ; brim
G1 X85.419 Y107.011 E2.22585 ; brim
G1 X85.286 Y107.144 E2.23869 ; brim
G1 X85.419 Y107.277 E2.25152 ; brim
G1 X85.419 Y109.196 E2.38229 ; brim
G1 X85.313 Y109.303 E2.39254 ; brim
G1 X85.859 Y109.303 E2.42977 ; brim
G1 X86.019 Y109.463 E2.44519 ; brim
G1 X86.019 Y110.289 E2.50150 ; brim
G1 X85.859 Y110.449 E2.51692 ; brim
G1 X85.313 Y110.449 E2.55415 ; brim
G1 X85.419 Y110.555 E2.56440 ; brim
G1 X85.419 Y112.474 E2.69517 ; brim
G1 X85.286 Y112.608 E2.70801 ; brim
G1 X85.419 Y112.741 E2.72084 ; brim
G1 X85.419 Y114.660 E2.85161 ; brim
