; generated by Slic3r 0.9.9 on 2014-04-05 at 23:56:29

; layer_height = 0.2
; perimeters = 3
; top_solid_layers = 3
; bottom_solid_layers = 3
; fill_density = 0.2
; perimeter_speed = 36
; infill_speed = 60
; travel_speed = 130
; nozzle_diameter = 0.35
; filament_diameter = 1.75
; extrusion_multiplier = 1
; perimeters extrusion width = 0.52mm
; infill extrusion width = 0.52mm
; solid infill extrusion width = 0.52mm
; top infill extrusion width = 0.52mm
; support material extrusion width = 0.52mm
; first layer extrusion width = 0.60mm

G21 ; set units to millimeters
M107 ; disable fan
M190 S95 ; wait for bed temperature to be reached
M104 S225 ; set temperature
G28 ; home all axes
G1 Z5 F5000 ; lift nozzle
M109 S225 ; wait for temperature to be reached
G90 ; use absolute coordinates
G92 E0 ; reset extrusion distance
M82 ; use absolute distances for extrusion
G1 F1800.000 E-1.00000 ; retract
G92 E0 ; reset extrusion distance
G1 Z0.300 F7800.000 ; move to next layer (0)
G1 X102.689 Y68.864 ; move to first skirt point
G1 F1800.000 E1.00000 ; compensate retraction
G1 X102.989 Y68.564 F756.000 E1.02891 ; skirt
G1 X103.329 Y68.304 E1.05808 ; skirt
G1 X103.689 Y68.084 E1.08683 ; skirt
G1 X103.879 Y67.994 E1.10115 ; skirt
G1 X104.279 Y67.844 E1.13026 ; skirt
G1 X104.699 Y67.744 E1.15969 ; skirt
G1 X105.329 Y67.684 E1.20281 ; skirt
G1 X126.429 Y68.034 E2.64084 ; skirt
G1 X126.839 Y68.064 E2.66885 ; skirt
G1 X127.239 Y68.144 E2.69665 ; skirt
G1 X127.629 Y68.264 E2.72446 ; skirt
G1 X128.179 Y68.534 E2.76621 ; skirt
G1 X128.669 Y68.884 E2.80724 ; skirt
G1 X128.969 Y69.174 E2.83568 ; skirt
G1 X129.229 Y69.484 E2.86325 ; skirt
G1 X129.549 Y70.004 E2.90485 ; skirt
G1 X129.709 Y70.384 E2.93295 ; skirt
G1 X130.169 Y71.694 E3.02756 ; skirt
G1 X130.269 Y72.174 E3.06097 ; skirt
G1 X130.309 Y72.664 E3.09447 ; skirt
G1 X130.299 Y127.504 E6.83148 ; skirt
G1 X130.269 Y127.914 E6.85949 ; skirt
G1 X130.199 Y128.324 E6.88783 ; skirt
G1 X130.079 Y128.714 E6.91564 ; skirt
G1 X129.919 Y129.094 E6.94373 ; skirt
G1 X129.719 Y129.444 E6.97120 ; skirt
G1 X129.599 Y129.614 E6.98538 ; skirt
G1 X129.339 Y129.934 E7.01348 ; skirt
G1 X129.039 Y130.214 E7.04144 ; skirt
G1 X127.349 Y131.474 E7.18509 ; skirt
G1 X126.979 Y131.704 E7.21478 ; skirt
G1 X126.369 Y131.974 E7.26024 ; skirt
G1 X125.949 Y132.084 E7.28982 ; skirt
G1 X125.509 Y132.144 E7.32008 ; skirt
G1 X108.259 Y132.304 E8.49561 ; skirt
G1 X74.129 Y132.344 E10.82136 ; skirt
G1 X73.529 Y132.294 E10.86239 ; skirt
G1 X73.329 Y132.254 E10.87629 ; skirt
G1 X72.949 Y132.134 E10.90344 ; skirt
G1 X72.569 Y131.984 E10.93128 ; skirt
G1 X72.049 Y131.674 E10.97253 ; skirt
G1 X71.739 Y131.414 E11.00011 ; skirt
G1 X71.459 Y131.124 E11.02757 ; skirt
G1 X70.359 Y129.864 E11.14155 ; skirt
G1 X70.019 Y129.324 E11.18504 ; skirt
G1 X69.849 Y128.924 E11.21465 ; skirt
G1 X69.719 Y128.524 E11.24331 ; skirt
G1 X69.629 Y127.884 E11.28736 ; skirt
G1 X69.749 Y107.574 E12.67138 ; skirt
G1 X69.789 Y107.064 E12.70624 ; skirt
G1 X69.899 Y106.574 E12.74046 ; skirt
G1 X70.509 Y104.994 E12.85587 ; skirt
G1 X70.759 Y104.534 E12.89155 ; skirt
G1 X71.079 Y104.124 E12.92699 ; skirt
G1 X102.634 Y68.925 E16.14833 ; skirt
G1 F1800.000 E15.14833 ; retract
G92 E0 ; reset extrusion distance
G1 X104.581 Y70.314 F7800.000 ; move to first brim point
G1 F1800.000 E1.00000 ; compensate retraction
G1 X104.952 Y70.108 F756.000 E1.02895 ; brim
G1 X106.757 Y70.108 E1.15191 ; brim
G1 X107.237 Y70.588 E1.19818 ; brim
G1 X107.237 Y71.200 E1.23993 ; brim
G1 X123.947 Y71.200 E2.37864 ; brim
G1 X123.947 Y70.935 E2.39670 ; brim
G1 X124.427 Y70.455 E2.44296 ; brim
G1 X126.842 Y70.455 E2.60750 ; brim
G1 X127.267 Y70.755 E2.64293 ; brim
G1 X127.549 Y71.548 E2.70029 ; brim
G1 X127.999 Y71.548 E2.73095 ; brim
G1 X128.479 Y72.028 E2.77722 ; brim
G1 X128.479 Y73.307 E2.86437 ; brim
G1 X127.999 Y73.787 E2.91063 ; brim
G1 X127.401 Y73.787 E2.95136 ; brim
G1 X127.410 Y126.021 E6.51075 ; brim
G1 X127.618 Y126.393 E6.53982 ; brim
G1 X127.997 Y126.393 E6.56561 ; brim
G1 X128.477 Y126.873 E6.61187 ; brim
G1 X128.477 Y128.152 E6.69902 ; brim
G1 X127.997 Y128.632 E6.74529 ; brim
G1 X127.752 Y128.632 E6.76200 ; brim
G1 X127.752 Y128.687 E6.76576 ; brim
G1 X127.272 Y129.167 E6.81203 ; brim
G1 X126.987 Y129.167 E6.83140 ; brim
G1 X126.987 Y129.244 E6.83667 ; brim
G1 X126.507 Y129.725 E6.88294 ; brim
G1 X124.367 Y129.725 E7.02878 ; brim
G1 X123.941 Y129.422 E7.06438 ; brim
G1 X123.721 Y128.793 E7.10983 ; brim
G1 X123.865 Y128.291 E7.14543 ; brim
G1 X124.137 Y128.074 E7.16906 ; brim
G1 X109.910 Y128.074 E8.13854 ; brim
G1 X109.952 Y128.116 E8.14259 ; brim
G1 X109.952 Y129.395 E8.22974 ; brim
G1 X109.472 Y129.875 E8.27601 ; brim
G1 X106.992 Y129.875 E8.44495 ; brim
G1 X106.512 Y129.395 E8.49121 ; brim
G1 X106.512 Y128.116 E8.57836 ; brim
G1 X106.554 Y128.074 E8.58242 ; brim
G1 X75.769 Y128.074 E10.68028 ; brim
G1 X75.850 Y128.156 E10.68816 ; brim
G1 X75.850 Y129.435 E10.77531 ; brim
G1 X75.370 Y129.915 E10.82157 ; brim
G1 X73.692 Y129.915 E10.93597 ; brim
G1 X73.284 Y129.649 E10.96915 ; brim
G1 X72.919 Y128.823 E11.03074 ; brim
G1 X71.929 Y128.823 E11.09819 ; brim
G1 X71.449 Y128.342 E11.14445 ; brim
G1 X71.449 Y127.064 E11.23160 ; brim
G1 X71.929 Y126.583 E11.27786 ; brim
G1 X72.588 Y126.583 E11.32277 ; brim
G1 X72.589 Y119.333 E11.81686 ; brim
G1 X72.469 Y119.333 E11.82502 ; brim
G1 X71.989 Y118.853 E11.87129 ; brim
G1 X71.989 Y117.574 E11.95844 ; brim
G1 X71.989 Y116.481 E12.03290 ; brim
G1 X72.469 Y116.001 E12.07916 ; brim
G1 X72.589 Y116.001 E12.08734 ; brim
G1 X72.590 Y108.714 E12.58390 ; brim
G1 X72.425 Y108.714 E12.59513 ; brim
G1 X71.937 Y107.998 E12.65418 ; brim
G1 X71.990 Y107.863 E12.66404 ; brim
G1 X71.990 Y106.647 E12.74694 ; brim
G1 X72.470 Y106.167 E12.79321 ; brim
G1 X72.656 Y106.167 E12.80591 ; brim
G1 X72.853 Y105.667 E12.84250 ; brim
G1 X73.270 Y105.382 E12.87694 ; brim
G1 X75.568 Y105.382 E13.03352 ; brim
G1 X76.048 Y105.862 E13.07979 ; brim
G1 X76.048 Y106.167 E13.10052 ; brim
G1 X103.486 Y106.167 E14.97023 ; brim
G1 X103.486 Y105.554 E15.01198 ; brim
G1 X103.966 Y105.074 E15.05824 ; brim
G1 X104.086 Y105.074 E15.06643 ; brim
G1 X104.090 Y73.439 E17.22213 ; brim
G1 X103.630 Y73.439 E17.25343 ; brim
G1 X103.162 Y72.597 E17.31914 ; brim
G1 X104.537 Y70.384 E17.49670 ; brim
G1 F1800.000 E16.49670 ; retract
G92 E0 ; reset extrusion distance
G1 X81.567 Y117.147 F7800.000 ; move to first brim point
G1 F1800.000 E1.00000 ; compensate retraction
G1 X81.284 Y118.186 F756.000 E1.07338 ; brim
G1 X80.704 Y118.186 E1.11296 ; brim
G1 X80.428 Y117.147 E1.18622 ; brim
G1 X81.485 Y117.147 E1.25827 ; brim
G1 F1800.000 E0.25827 ; retract
G92 E0 ; reset extrusion distance
G1 X115.428 Y117.147 F7800.000 ; move to first brim point
G1 F1800.000 E1.00000 ; compensate retraction
G1 X116.567 Y117.147 F756.000 E1.07764 ; brim
G1 X116.284 Y118.186 E1.15103 ; brim
G1 X115.704 Y118.186 E1.19061 ; brim
G1 X115.449 Y117.227 E1.25827 ; brim
G1 F1800.000 E0.25827 ; retract
G92 E0 ; reset extrusion distance
G1 X99.000 Y117.094 F7800.000 ; move to first brim point
G1 F1800.000 E1.00000 ; compensate retraction
G1 X98.698 Y117.094 F756.000 E1.02056 ; brim
G1 X98.663 Y117.129 E1.02395 ; brim
G1 X98.628 Y117.094 E1.02734 ; brim
G1 X98.005 Y117.094 E1.06978 ; brim
G1 X98.478 Y116.055 E1.14757 ; brim
G1 X98.542 Y116.055 E1.15193 ; brim
G1 X98.967 Y117.019 E1.22373 ; brim
G1 F1800.000 E0.22373 ; retract
G92 E0 ; reset extrusion distance
G1 X104.139 Y106.713 F7800.000 ; move to first brim point
G1 F1800.000 E1.00000 ; compensate retraction
G1 X104.032 Y106.607 F756.000 E1.01025 ; brim
G1 X104.032 Y105.780 E1.06656 ; brim
G1 X104.192 Y105.620 E1.08198 ; brim
G1 X104.739 Y105.620 E1.11922 ; brim
G1 X104.632 Y105.514 E1.12947 ; brim
G1 X104.633 Y103.595 E1.26024 ; brim
G1 X104.766 Y103.462 E1.27307 ; brim
G1 X104.633 Y103.329 E1.28591 ; brim
G1 X104.633 Y101.410 E1.41668 ; brim
G1 X104.766 Y101.276 E1.42951 ; brim
G1 X104.633 Y101.143 E1.44235 ; brim
G1 X104.633 Y99.224 E1.57312 ; brim
G1 X104.766 Y99.091 E1.58595 ; brim
G1 X104.633 Y98.958 E1.59879 ; brim
G1 X104.633 Y97.039 E1.72956 ; brim
G1 X104.766 Y96.906 E1.74239 ; brim
G1 X104.633 Y96.772 E1.75523 ; brim
G1 X104.634 Y94.853 E1.88600 ; brim
G1 X104.767 Y94.720 E1.89884 ; brim
G1 X104.634 Y94.587 E1.91167 ; brim
G1 X104.634 Y92.668 E2.04244 ; brim
G1 X104.767 Y92.535 E2.05528 ; brim
G1 X104.634 Y92.402 E2.06811 ; brim
G1 X104.634 Y90.483 E2.19888 ; brim
G1 X104.767 Y90.349 E2.21172 ; brim
G1 X104.634 Y90.216 E2.22455 ; brim
G1 X104.634 Y88.297 E2.35532 ; brim
G1 X104.767 Y88.164 E2.36816 ; brim
G1 X104.634 Y88.031 E2.38099 ; brim
G1 X104.635 Y86.112 E2.51176 ; brim
G1 X104.768 Y85.979 E2.52460 ; brim
G1 X104.635 Y85.845 E2.53743 ; brim
G1 X104.635 Y83.926 E2.66820 ; brim
G1 X104.768 Y83.793 E2.68104 ; brim
G1 X104.635 Y83.660 E2.69387 ; brim
G1 X104.635 Y81.741 E2.82464 ; brim
G1 X104.768 Y81.608 E2.83748 ; brim
G1 X104.635 Y81.475 E2.85031 ; brim
G1 X104.635 Y79.556 E2.98108 ; brim
G1 X104.768 Y79.422 E2.99392 ; brim
G1 X104.635 Y79.289 E3.00675 ; brim
G1 X104.636 Y77.370 E3.13752 ; brim
G1 X104.769 Y77.237 E3.15036 ; brim
G1 X104.636 Y77.104 E3.16319 ; brim
G1 X104.636 Y75.185 E3.29396 ; brim
G1 X104.769 Y75.052 E3.30680 ; brim
G1 X104.636 Y74.918 E3.31963 ; brim
G1 X104.636 Y72.999 E3.45040 ; brim
G1 X104.742 Y72.893 E3.46065 ; brim
G1 X103.952 Y72.893 E3.51454 ; brim
G1 X103.795 Y72.612 E3.53644 ; brim
G1 X104.970 Y70.723 E3.68803 ; brim
G1 X105.094 Y70.654 E3.69768 ; brim
G1 X106.530 Y70.654 E3.79557 ; brim
G1 X106.690 Y70.814 E3.81099 ; brim
G1 X106.690 Y71.640 E3.86730 ; brim
G1 X106.584 Y71.747 E3.87755 ; brim
G1 X124.493 Y71.747 E5.09797 ; brim
G1 X124.493 Y71.162 E5.13784 ; brim
G1 X124.653 Y71.002 E5.15326 ; brim
G1 X126.669 Y71.002 E5.29057 ; brim
G1 X126.810 Y71.102 E5.30238 ; brim
G1 X127.164 Y72.094 E5.37419 ; brim
G1 X127.773 Y72.094 E5.41570 ; brim
G1 X127.933 Y72.254 E5.43112 ; brim
G1 X127.933 Y73.081 E5.48743 ; brim
G1 X127.773 Y73.241 E5.50285 ; brim
G1 X126.855 Y73.241 E5.56539 ; brim
G1 X126.855 Y73.826 E5.60525 ; brim
G1 X126.722 Y73.959 E5.61809 ; brim
G1 X126.855 Y74.092 E5.63093 ; brim
G1 X126.855 Y76.011 E5.76170 ; brim
G1 X126.722 Y76.144 E5.77453 ; brim
G1 X126.855 Y76.278 E5.78737 ; brim
G1 X126.856 Y78.197 E5.91814 ; brim
G1 X126.722 Y78.330 E5.93097 ; brim
G1 X126.856 Y78.463 E5.94381 ; brim
G1 X126.856 Y80.382 E6.07458 ; brim
G1 X126.723 Y80.515 E6.08741 ; brim
G1 X126.856 Y80.648 E6.10025 ; brim
G1 X126.856 Y82.567 E6.23102 ; brim
G1 X126.723 Y82.701 E6.24385 ; brim
G1 X126.856 Y82.834 E6.25669 ; brim
G1 X126.857 Y84.753 E6.38746 ; brim
G1 X126.724 Y84.886 E6.40029 ; brim
G1 X126.857 Y85.019 E6.41313 ; brim
G1 X126.857 Y86.938 E6.54390 ; brim
G1 X126.724 Y87.071 E6.55673 ; brim
G1 X126.857 Y87.205 E6.56957 ; brim
G1 X126.857 Y89.124 E6.70034 ; brim
G1 X126.724 Y89.257 E6.71317 ; brim
G1 X126.858 Y89.390 E6.72601 ; brim
G1 X126.858 Y91.309 E6.85678 ; brim
G1 X126.725 Y91.442 E6.86961 ; brim
G1 X126.858 Y91.575 E6.88245 ; brim
G1 X126.858 Y93.494 E7.01322 ; brim
G1 X126.725 Y93.628 E7.02605 ; brim
G1 X126.858 Y93.761 E7.03889 ; brim
G1 X126.859 Y95.680 E7.16966 ; brim
G1 X126.725 Y95.813 E7.18249 ; brim
G1 X126.859 Y95.946 E7.19533 ; brim
G1 X126.859 Y97.865 E7.32610 ; brim
G1 X126.726 Y97.998 E7.33893 ; brim
G1 X126.859 Y98.132 E7.35177 ; brim
G1 X126.859 Y100.051 E7.48254 ; brim
G1 X126.726 Y100.184 E7.49537 ; brim
G1 X126.859 Y100.317 E7.50821 ; brim
G1 X126.860 Y102.236 E7.63898 ; brim
G1 X126.726 Y102.369 E7.65182 ; brim
G1 X126.860 Y102.502 E7.66465 ; brim
G1 X126.860 Y104.421 E7.79542 ; brim
G1 X126.727 Y104.555 E7.80826 ; brim
G1 X126.860 Y104.688 E7.82109 ; brim
G1 X126.860 Y106.607 E7.95186 ; brim
G1 X126.727 Y106.740 E7.96470 ; brim
G1 X126.860 Y106.873 E7.97753 ; brim
G1 X126.861 Y108.792 E8.10830 ; brim
G1 X126.728 Y108.925 E8.12114 ; brim
G1 X126.861 Y109.059 E8.13397 ; brim
G1 X126.861 Y110.978 E8.26474 ; brim
G1 X126.728 Y111.111 E8.27758 ; brim
G1 X126.861 Y111.244 E8.29041 ; brim
G1 X126.861 Y113.163 E8.42118 ; brim
G1 X126.728 Y113.296 E8.43402 ; brim
G1 X126.861 Y113.429 E8.44685 ; brim
G1 X126.862 Y115.348 E8.57762 ; brim
G1 X126.729 Y115.482 E8.59046 ; brim
G1 X126.862 Y115.615 E8.60330 ; brim
G1 X126.862 Y117.534 E8.73406 ; brim
G1 X126.729 Y117.667 E8.74690 ; brim
G1 X126.862 Y117.800 E8.75974 ; brim
G1 X126.863 Y119.719 E8.89050 ; brim
G1 X126.729 Y119.852 E8.90334 ; brim
G1 X126.863 Y119.986 E8.91618 ; brim
G1 X126.863 Y121.905 E9.04694 ; brim
G1 X126.730 Y122.038 E9.05978 ; brim
G1 X126.863 Y122.171 E9.07262 ; brim
G1 X126.863 Y124.090 E9.20338 ; brim
G1 X126.730 Y124.223 E9.21622 ; brim
G1 X126.863 Y124.356 E9.22906 ; brim
G1 X126.864 Y126.275 E9.35982 ; brim
G1 X126.757 Y126.382 E9.37008 ; brim
G1 X126.986 Y126.382 E9.38567 ; brim
G1 X127.142 Y126.661 E9.40748 ; brim
G1 X126.972 Y126.939 E9.42970 ; brim
G1 X127.771 Y126.939 E9.48411 ; brim
G1 X127.931 Y127.099 E9.49953 ; brim
G1 X127.931 Y127.925 E9.55584 ; brim
G1 X127.771 Y128.085 E9.57126 ; brim
G1 X127.205 Y128.085 E9.60978 ; brim
G1 X127.205 Y128.461 E9.63536 ; brim
G1 X127.045 Y128.621 E9.65078 ; brim
G1 X126.441 Y128.621 E9.69196 ; brim
G1 X126.441 Y129.018 E9.71904 ; brim
G1 X126.281 Y129.178 E9.73446 ; brim
G1 X124.541 Y129.178 E9.85301 ; brim
G1 X124.399 Y129.077 E9.86488 ; brim
G1 X124.294 Y128.777 E9.88660 ; brim
G1 X124.342 Y128.609 E9.89846 ; brim
G1 X124.857 Y128.198 E9.94337 ; brim
G1 X125.268 Y127.528 E9.99693 ; brim
G1 X74.198 Y127.528 E13.47704 ; brim
G1 X74.504 Y128.223 E13.52876 ; brim
G1 X75.144 Y128.223 E13.57237 ; brim
G1 X75.304 Y128.383 E13.58779 ; brim
G1 X75.304 Y129.209 E13.64410 ; brim
G1 X75.144 Y129.369 E13.65952 ; brim
G1 X73.854 Y129.369 E13.74743 ; brim
G1 X73.718 Y129.280 E13.75849 ; brim
G1 X73.275 Y128.276 E13.83328 ; brim
G1 X72.155 Y128.276 E13.90957 ; brim
G1 X71.995 Y128.116 E13.92499 ; brim
G1 X71.995 Y127.290 E13.98130 ; brim
G1 X72.155 Y127.130 E13.99672 ; brim
G1 X73.134 Y127.130 E14.06344 ; brim
G1 X73.134 Y125.449 E14.17797 ; brim
G1 X73.268 Y125.316 E14.19081 ; brim
G1 X73.134 Y125.183 E14.20364 ; brim
G1 X73.135 Y123.264 E14.33441 ; brim
G1 X73.268 Y123.130 E14.34725 ; brim
G1 X73.135 Y122.997 E14.36008 ; brim
G1 X73.135 Y121.078 E14.49085 ; brim
G1 X73.268 Y120.945 E14.50369 ; brim
G1 X73.135 Y120.812 E14.51652 ; brim
G1 X73.135 Y118.893 E14.64729 ; brim
G1 X73.241 Y118.786 E14.65754 ; brim
G1 X72.695 Y118.786 E14.69477 ; brim
G1 X72.535 Y118.626 E14.71019 ; brim
G1 X72.535 Y117.800 E14.76650 ; brim
G1 X72.668 Y117.667 E14.77934 ; brim
G1 X72.535 Y117.534 E14.79217 ; brim
G1 X72.535 Y116.707 E14.84848 ; brim
G1 X72.695 Y116.547 E14.86390 ; brim
G1 X73.242 Y116.547 E14.90113 ; brim
G1 X73.135 Y116.441 E14.91138 ; brim
G1 X73.135 Y114.522 E15.04215 ; brim
G1 X73.269 Y114.389 E15.05499 ; brim
G1 X73.135 Y114.256 E15.06782 ; brim
G1 X73.136 Y112.337 E15.19859 ; brim
G1 X73.269 Y112.203 E15.21143 ; brim
G1 X73.136 Y112.070 E15.22427 ; brim
G1 X73.136 Y110.151 E15.35503 ; brim
G1 X73.269 Y110.018 E15.36787 ; brim
G1 X73.136 Y109.885 E15.38071 ; brim
G1 X73.136 Y108.168 E15.49771 ; brim
G1 X72.714 Y108.168 E15.52650 ; brim
G1 X72.551 Y107.929 E15.54618 ; brim
G1 X72.612 Y107.775 E15.55747 ; brim
G1 X72.536 Y107.699 E15.56474 ; brim
G1 X72.536 Y106.873 E15.62105 ; brim
G1 X72.696 Y106.713 E15.63647 ; brim
G1 X73.029 Y106.713 E15.65913 ; brim
G1 X73.300 Y106.024 E15.70961 ; brim
G1 X73.439 Y105.929 E15.72109 ; brim
G1 X75.342 Y105.929 E15.85077 ; brim
G1 X75.502 Y106.089 E15.86619 ; brim
G1 X75.502 Y106.713 E15.90874 ; brim
G1 X104.057 Y106.713 E17.85457 ; brim
G1 F1800.000 E16.85457 ; retract
G92 E0 ; reset extrusion distance
G1 X107.219 Y128.183 F7800.000 ; move to first brim point
G1 F1800.000 E1.00000 ; compensate retraction
G1 X109.245 Y128.183 F756.000 E1.13810 ; brim
G1 X109.405 Y128.343 E1.15352 ; brim
G1 X109.405 Y129.169 E1.20983 ; brim
G1 X109.245 Y129.329 E1.22525 ; brim
G1 X107.219 Y129.329 E1.36335 ; brim
G1 X107.059 Y129.169 E1.37877 ; brim
G1 X107.059 Y128.343 E1.43508 ; brim
G1 X107.161 Y128.241 E1.44492 ; brim
G1 F1800.000 E0.44492 ; retract
