; generated by Slic3r 0.9.9 on 2014-04-06 at 00:19:29

; layer_height = 0.2
; perimeters = 3
; top_solid_layers = 3
; bottom_solid_layers = 3
; fill_density = 0.2
; perimeter_speed = 36
; infill_speed = 60
; travel_speed = 130
; nozzle_diameter = 0.35
; filament_diameter = 1.75
; extrusion_multiplier = 1
; perimeters extrusion width = 0.52mm
; infill extrusion width = 0.52mm
; solid infill extrusion width = 0.52mm
; top infill extrusion width = 0.52mm
; support material extrusion width = 0.52mm
; first layer extrusion width = 0.60mm

G21 ; set units to millimeters
M107 ; disable fan
M190 S95 ; wait for bed temperature to be reached
M104 S225 ; set temperature
G28 ; home all axes
G1 Z5 F5000 ; lift nozzle
M109 S225 ; wait for temperature to be reached
G90 ; use absolute coordinates
G92 E0 ; reset extrusion distance
M82 ; use absolute distances for extrusion
G1 F1800.000 E-1.00000 ; retract
G92 E0 ; reset extrusion distance
G1 Z0.300 F7800.000 ; move to next layer (0)
G1 X71.050 Y87.929 ; move to first skirt point
G1 F1800.000 E1.00000 ; compensate retraction
G1 X102.090 Y53.029 F756.000 E4.18275 ; skirt
G1 X102.390 Y52.729 E4.21166 ; skirt
G1 X102.900 Y52.359 E4.25460 ; skirt
G1 X103.280 Y52.159 E4.28386 ; skirt
G1 X103.880 Y51.949 E4.32718 ; skirt
G1 X104.300 Y51.869 E4.35631 ; skirt
G1 X104.720 Y51.839 E4.38501 ; skirt
G1 X126.290 Y51.749 E5.85488 ; skirt
G1 X126.700 Y51.779 E5.88289 ; skirt
G1 X127.300 Y51.899 E5.92459 ; skirt
G1 X127.680 Y52.039 E5.95218 ; skirt
G1 X128.050 Y52.219 E5.98022 ; skirt
G1 X128.390 Y52.439 E6.00782 ; skirt
G1 X128.850 Y52.839 E6.04936 ; skirt
G1 X129.110 Y53.149 E6.07693 ; skirt
G1 X129.340 Y53.489 E6.10490 ; skirt
G1 X129.610 Y54.039 E6.14665 ; skirt
G1 X130.100 Y55.359 E6.24260 ; skirt
G1 X130.210 Y55.859 E6.27749 ; skirt
G1 X130.250 Y56.369 E6.31235 ; skirt
G1 X130.410 Y107.619 E9.80473 ; skirt
G1 X130.400 Y107.909 E9.82450 ; skirt
G1 X130.360 Y108.199 E9.84445 ; skirt
G1 X129.800 Y110.919 E10.03369 ; skirt
G1 X129.680 Y111.349 E10.06411 ; skirt
G1 X129.510 Y111.769 E10.09499 ; skirt
G1 X129.400 Y111.969 E10.11054 ; skirt
G1 X110.030 Y145.659 E12.75871 ; skirt
G1 X109.180 Y146.949 E12.86398 ; skirt
G1 X108.940 Y147.269 E12.89124 ; skirt
G1 X108.530 Y147.679 E12.93075 ; skirt
G1 X108.220 Y147.919 E12.95746 ; skirt
G1 X107.880 Y148.119 E12.98434 ; skirt
G1 X107.340 Y148.349 E13.02434 ; skirt
G1 X106.970 Y148.449 E13.05046 ; skirt
G1 X106.580 Y148.509 E13.07735 ; skirt
G1 X106.190 Y148.529 E13.10396 ; skirt
G1 X105.610 Y148.469 E13.14369 ; skirt
G1 X105.040 Y148.319 E13.18386 ; skirt
G1 X104.680 Y148.169 E13.21043 ; skirt
G1 X89.020 Y139.479 E14.43086 ; skirt
G1 X88.640 Y139.239 E14.46148 ; skirt
G1 X88.300 Y138.949 E14.49193 ; skirt
G1 X87.990 Y138.619 E14.52279 ; skirt
G1 X87.730 Y138.259 E14.55305 ; skirt
G1 X69.970 Y109.809 E16.83848 ; skirt
G1 X69.760 Y109.409 E16.86926 ; skirt
G1 X69.590 Y108.979 E16.90077 ; skirt
G1 X69.530 Y108.759 E16.91631 ; skirt
G1 X69.450 Y108.309 E16.94745 ; skirt
G1 X69.430 Y107.859 E16.97815 ; skirt
G1 X69.760 Y91.309 E18.10615 ; skirt
G1 X69.800 Y90.849 E18.13762 ; skirt
G1 X69.900 Y90.399 E18.16903 ; skirt
G1 X70.440 Y88.879 E18.27895 ; skirt
G1 X70.770 Y88.289 E18.32502 ; skirt
G1 X71.000 Y87.994 E18.35051 ; skirt
G1 F1800.000 E17.35051 ; retract
G92 E0 ; reset extrusion distance
G1 X72.810 Y89.473 F7800.000 ; move to first brim point
G1 F1800.000 E1.00000 ; compensate retraction
G1 X73.234 Y89.176 F756.000 E1.03524 ; brim
G1 X75.572 Y89.176 E1.19457 ; brim
G1 X76.052 Y89.656 E1.24083 ; brim
G1 X76.052 Y90.326 E1.28646 ; brim
G1 X103.485 Y90.326 E3.15586 ; brim
G1 X103.485 Y89.713 E3.19761 ; brim
G1 X103.965 Y89.233 E3.24387 ; brim
G1 X104.085 Y89.233 E3.25208 ; brim
G1 X104.098 Y57.598 E5.40778 ; brim
G1 X103.720 Y57.598 E5.43357 ; brim
G1 X103.228 Y56.981 E5.48738 ; brim
G1 X103.767 Y54.624 E5.65214 ; brim
G1 X104.216 Y54.266 E5.69121 ; brim
G1 X107.228 Y54.266 E5.89646 ; brim
G1 X107.708 Y54.747 E5.94272 ; brim
G1 X107.708 Y55.359 E5.98447 ; brim
G1 X123.922 Y55.359 E7.08938 ; brim
G1 X123.922 Y54.654 E7.13743 ; brim
G1 X124.402 Y54.174 E7.18369 ; brim
G1 X126.763 Y54.174 E7.34457 ; brim
G1 X127.185 Y54.468 E7.37962 ; brim
G1 X127.481 Y55.267 E7.43767 ; brim
G1 X127.942 Y55.267 E7.46905 ; brim
G1 X128.422 Y55.747 E7.51531 ; brim
G1 X128.422 Y57.026 E7.60246 ; brim
G1 X127.942 Y57.506 E7.64873 ; brim
G1 X127.410 Y57.506 E7.68493 ; brim
G1 X127.410 Y88.140 E9.77247 ; brim
G1 X127.530 Y88.140 E9.78065 ; brim
G1 X128.010 Y88.620 E9.82691 ; brim
G1 X128.010 Y89.899 E9.91406 ; brim
G1 X127.530 Y90.379 E9.96032 ; brim
G1 X127.410 Y90.379 E9.96850 ; brim
G1 X127.410 Y106.518 E11.06829 ; brim
G1 X128.102 Y106.518 E11.11541 ; brim
G1 X128.582 Y106.999 E11.16168 ; brim
G1 X128.582 Y108.277 E11.24883 ; brim
G1 X128.137 Y108.722 E11.29171 ; brim
G1 X128.137 Y109.747 E11.36150 ; brim
G1 X128.050 Y109.834 E11.36988 ; brim
G1 X128.050 Y110.839 E11.43842 ; brim
G1 X127.570 Y111.319 E11.48468 ; brim
G1 X126.438 Y111.319 E11.56180 ; brim
G1 X123.158 Y116.994 E12.00846 ; brim
G1 X123.194 Y117.030 E12.01193 ; brim
G1 X123.194 Y118.309 E12.09908 ; brim
G1 X122.714 Y118.789 E12.14535 ; brim
G1 X122.562 Y118.789 E12.15567 ; brim
G1 X122.562 Y119.402 E12.19742 ; brim
G1 X122.082 Y119.882 E12.24369 ; brim
G1 X121.489 Y119.882 E12.28413 ; brim
G1 X115.579 Y130.107 E13.08890 ; brim
G1 X115.615 Y130.143 E13.09237 ; brim
G1 X115.615 Y131.422 E13.17952 ; brim
G1 X115.135 Y131.902 E13.22578 ; brim
G1 X114.541 Y131.902 E13.26622 ; brim
G1 X113.684 Y133.385 E13.38295 ; brim
G1 X113.720 Y133.421 E13.38642 ; brim
G1 X113.720 Y134.700 E13.47357 ; brim
G1 X113.240 Y135.180 E13.51984 ; brim
G1 X112.647 Y135.180 E13.56028 ; brim
G1 X108.128 Y142.997 E14.17554 ; brim
G1 X108.473 Y143.638 E14.22517 ; brim
G1 X107.957 Y144.417 E14.28883 ; brim
G1 X107.957 Y145.627 E14.37124 ; brim
G1 X107.477 Y146.107 E14.41751 ; brim
G1 X105.189 Y146.107 E14.57343 ; brim
G1 X104.725 Y145.244 E14.64021 ; brim
G1 X104.880 Y145.009 E14.65935 ; brim
G1 X104.674 Y144.950 E14.67396 ; brim
G1 X101.962 Y143.243 E14.89232 ; brim
G1 X101.805 Y142.829 E14.92251 ; brim
G1 X101.276 Y142.829 E14.95855 ; brim
G1 X101.068 Y142.773 E14.97320 ; brim
G1 X98.165 Y141.104 E15.20142 ; brim
G1 X97.973 Y140.643 E15.23539 ; brim
G1 X97.476 Y140.643 E15.26930 ; brim
G1 X97.268 Y140.588 E15.28396 ; brim
G1 X94.365 Y138.918 E15.51218 ; brim
G1 X94.173 Y138.458 E15.54615 ; brim
G1 X93.676 Y138.458 E15.58006 ; brim
G1 X93.468 Y138.402 E15.59472 ; brim
G1 X91.902 Y137.502 E15.71782 ; brim
G1 X90.034 Y137.502 E15.84508 ; brim
G1 X89.545 Y136.946 E15.89557 ; brim
G1 X89.614 Y136.409 E15.93243 ; brim
G1 X89.163 Y136.409 E15.96312 ; brim
G1 X88.683 Y135.929 E16.00939 ; brim
G1 X88.683 Y134.650 E16.09654 ; brim
G1 X89.163 Y134.170 E16.14280 ; brim
G1 X90.302 Y134.170 E16.22037 ; brim
G1 X95.964 Y124.418 E16.98884 ; brim
G1 X96.029 Y124.380 E16.99393 ; brim
G1 X97.132 Y122.252 E17.15728 ; brim
G1 X97.214 Y122.203 E17.16377 ; brim
G1 X97.804 Y120.158 E17.30882 ; brim
G1 X97.841 Y120.130 E17.31197 ; brim
G1 X97.944 Y118.094 E17.45087 ; brim
G1 X97.966 Y118.073 E17.45298 ; brim
G1 X97.617 Y116.040 E17.59351 ; brim
G1 X97.629 Y116.027 E17.59472 ; brim
G1 X96.796 Y114.049 E17.74093 ; brim
G1 X95.445 Y112.185 E17.89784 ; brim
G1 X95.319 Y112.140 E17.90694 ; brim
G1 X93.064 Y110.332 E18.10390 ; brim
G1 X92.983 Y110.048 E18.12406 ; brim
G1 X90.978 Y110.048 E18.26069 ; brim
G1 X90.498 Y109.568 E18.30696 ; brim
G1 X90.498 Y108.955 E18.34870 ; brim
G1 X75.795 Y108.955 E19.35058 ; brim
G1 X75.795 Y109.667 E19.39909 ; brim
G1 X75.315 Y110.147 E19.44535 ; brim
G1 X73.639 Y110.147 E19.55954 ; brim
G1 X73.233 Y109.884 E19.59250 ; brim
G1 X72.860 Y109.054 E19.65452 ; brim
G1 X71.738 Y109.054 E19.73099 ; brim
G1 X71.258 Y108.574 E19.77726 ; brim
G1 X71.258 Y107.295 E19.86441 ; brim
G1 X71.738 Y106.815 E19.91067 ; brim
G1 X72.590 Y106.815 E19.96872 ; brim
G1 X72.592 Y102.399 E20.26967 ; brim
G1 X72.473 Y102.399 E20.27779 ; brim
G1 X71.993 Y101.919 E20.32406 ; brim
G1 X71.993 Y100.640 E20.41121 ; brim
G1 X72.473 Y100.160 E20.45747 ; brim
G1 X72.594 Y100.160 E20.46569 ; brim
G1 X72.594 Y99.121 E20.53649 ; brim
G1 X72.475 Y99.121 E20.54462 ; brim
G1 X71.995 Y98.641 E20.59088 ; brim
G1 X71.995 Y97.362 E20.67803 ; brim
G1 X72.475 Y96.882 E20.72430 ; brim
G1 X72.596 Y96.882 E20.73252 ; brim
G1 X72.598 Y92.508 E21.03058 ; brim
G1 X72.451 Y92.508 E21.04059 ; brim
G1 X71.962 Y91.809 E21.09870 ; brim
G1 X72.782 Y89.550 E21.26250 ; brim
G1 F1800.000 E20.26250 ; retract
G92 E0 ; reset extrusion distance
G1 X100.231 Y132.994 F7800.000 ; move to first brim point
G1 F1800.000 E1.00000 ; compensate retraction
G1 X100.581 Y132.994 F756.000 E1.02390 ; brim
G1 X100.748 Y132.828 E1.03999 ; brim
G1 X100.915 Y132.994 E1.05608 ; brim
G1 X101.268 Y132.994 E1.08012 ; brim
G1 X100.840 Y134.034 E1.15670 ; brim
G1 X100.657 Y134.034 E1.16919 ; brim
G1 X100.262 Y133.070 E1.24013 ; brim
G1 F1800.000 E0.24013 ; retract
G92 E0 ; reset extrusion distance
G1 X108.748 Y118.736 F7800.000 ; move to first brim point
G1 F1800.000 E1.00000 ; compensate retraction
G1 X108.690 Y117.697 F756.000 E1.07092 ; brim
G1 X109.808 Y117.697 E1.14714 ; brim
G1 X109.750 Y118.736 E1.21806 ; brim
G1 X108.830 Y118.736 E1.28078 ; brim
G1 F1800.000 E0.28078 ; retract
G92 E0 ; reset extrusion distance
G1 X80.988 Y102.031 F7800.000 ; move to first brim point
G1 F1800.000 E1.00000 ; compensate retraction
G1 X80.576 Y101.306 F756.000 E1.05682 ; brim
G1 X80.714 Y101.306 E1.06619 ; brim
G1 X81.005 Y101.015 E1.09427 ; brim
G1 X81.297 Y101.306 E1.12236 ; brim
G1 X81.407 Y101.306 E1.12989 ; brim
G1 X81.029 Y101.961 E1.18141 ; brim
G1 F1800.000 E0.18141 ; retract
G92 E0 ; reset extrusion distance
G1 X97.917 Y101.253 F7800.000 ; move to first brim point
G1 F1800.000 E1.00000 ; compensate retraction
G1 X98.108 Y100.213 F756.000 E1.07198 ; brim
G1 X98.317 Y100.213 E1.08622 ; brim
G1 X98.317 Y100.826 E1.12797 ; brim
G1 X98.797 Y101.306 E1.17424 ; brim
G1 X98.907 Y101.306 E1.18177 ; brim
G1 X98.827 Y101.446 E1.19276 ; brim
G1 X98.633 Y101.253 E1.21139 ; brim
G1 X97.999 Y101.253 E1.25459 ; brim
G1 F1800.000 E0.25459 ; retract
G92 E0 ; reset extrusion distance
G1 X115.417 Y101.253 F7800.000 ; move to first brim point
G1 F1800.000 E1.00000 ; compensate retraction
G1 X115.608 Y100.213 F756.000 E1.07198 ; brim
G1 X116.406 Y100.213 E1.12638 ; brim
G1 X116.577 Y101.253 E1.19814 ; brim
G1 X115.499 Y101.253 E1.27160 ; brim
G1 F1800.000 E0.27160 ; retract
G92 E0 ; reset extrusion distance
G1 X126.731 Y100.733 F7800.000 ; move to first brim point
G1 F1800.000 E1.00000 ; compensate retraction
G1 X126.864 Y100.866 F756.000 E1.01284 ; brim
G1 X126.864 Y102.785 E1.14360 ; brim
G1 X126.731 Y102.918 E1.15644 ; brim
G1 X126.864 Y103.052 E1.16928 ; brim
G1 X126.864 Y104.971 E1.30004 ; brim
G1 X126.731 Y105.104 E1.31288 ; brim
G1 X126.864 Y105.237 E1.32572 ; brim
G1 X126.864 Y107.065 E1.45027 ; brim
G1 X127.876 Y107.065 E1.51921 ; brim
G1 X128.036 Y107.225 E1.53463 ; brim
G1 X128.036 Y108.051 E1.59093 ; brim
G1 X127.876 Y108.211 E1.60636 ; brim
G1 X127.464 Y108.211 E1.63440 ; brim
G1 X127.464 Y108.249 E1.63696 ; brim
G1 X127.430 Y108.283 E1.64027 ; brim
G1 X127.464 Y108.318 E1.64359 ; brim
G1 X127.464 Y108.568 E1.66063 ; brim
G1 X127.591 Y108.694 E1.67282 ; brim
G1 X127.591 Y109.520 E1.72912 ; brim
G1 X127.431 Y109.680 E1.74455 ; brim
G1 X127.397 Y109.680 E1.74681 ; brim
G1 X127.504 Y109.787 E1.75706 ; brim
G1 X127.504 Y110.613 E1.81337 ; brim
G1 X127.344 Y110.773 E1.82879 ; brim
G1 X126.076 Y110.773 E1.91518 ; brim
G1 X126.099 Y110.814 E1.91838 ; brim
G1 X125.005 Y112.706 E2.06734 ; brim
G1 X124.879 Y112.780 E2.07731 ; brim
G1 X124.710 Y112.780 E2.08885 ; brim
G1 X124.836 Y112.999 E2.10613 ; brim
G1 X123.742 Y114.892 E2.25509 ; brim
G1 X123.616 Y114.965 E2.26506 ; brim
G1 X123.446 Y114.965 E2.27659 ; brim
G1 X123.573 Y115.185 E2.29387 ; brim
G1 X122.479 Y117.077 E2.44284 ; brim
G1 X122.445 Y117.097 E2.44550 ; brim
G1 X122.488 Y117.097 E2.44838 ; brim
G1 X122.648 Y117.257 E2.46380 ; brim
G1 X122.648 Y118.083 E2.52011 ; brim
G1 X122.488 Y118.243 E2.53553 ; brim
G1 X121.910 Y118.243 E2.57491 ; brim
G1 X122.016 Y118.349 E2.58516 ; brim
G1 X122.016 Y119.176 E2.64147 ; brim
G1 X121.856 Y119.336 E2.65689 ; brim
G1 X120.920 Y119.336 E2.72068 ; brim
G1 X121.047 Y119.555 E2.73796 ; brim
G1 X119.953 Y121.448 E2.88693 ; brim
G1 X119.826 Y121.521 E2.89690 ; brim
G1 X119.657 Y121.521 E2.90843 ; brim
G1 X119.783 Y121.741 E2.92571 ; brim
G1 X118.690 Y123.633 E3.07468 ; brim
G1 X118.563 Y123.707 E3.08465 ; brim
G1 X118.394 Y123.707 E3.09618 ; brim
G1 X118.520 Y123.926 E3.11346 ; brim
G1 X117.426 Y125.819 E3.26243 ; brim
G1 X117.300 Y125.892 E3.27240 ; brim
G1 X117.130 Y125.892 E3.28393 ; brim
G1 X117.257 Y126.112 E3.30121 ; brim
G1 X116.163 Y128.004 E3.45017 ; brim
G1 X116.036 Y128.077 E3.46014 ; brim
G1 X115.867 Y128.077 E3.47168 ; brim
G1 X115.994 Y128.297 E3.48896 ; brim
G1 X114.900 Y130.190 E3.63792 ; brim
G1 X114.866 Y130.209 E3.64058 ; brim
G1 X114.908 Y130.209 E3.64346 ; brim
G1 X115.069 Y130.369 E3.65888 ; brim
G1 X115.069 Y131.195 E3.71519 ; brim
G1 X114.908 Y131.355 E3.73061 ; brim
G1 X113.972 Y131.355 E3.79440 ; brim
G1 X114.099 Y131.575 E3.81168 ; brim
G1 X113.005 Y133.468 E3.96065 ; brim
G1 X112.971 Y133.487 E3.96330 ; brim
G1 X113.014 Y133.487 E3.96619 ; brim
G1 X113.174 Y133.647 E3.98161 ; brim
G1 X113.174 Y134.473 E4.03791 ; brim
G1 X113.014 Y134.634 E4.05334 ; brim
G1 X112.078 Y134.634 E4.11713 ; brim
G1 X112.204 Y134.853 E4.13441 ; brim
G1 X111.110 Y136.746 E4.28337 ; brim
G1 X110.984 Y136.819 E4.29334 ; brim
G1 X110.814 Y136.819 E4.30487 ; brim
G1 X110.941 Y137.039 E4.32216 ; brim
G1 X109.847 Y138.931 E4.47112 ; brim
G1 X109.720 Y139.004 E4.48109 ; brim
G1 X109.551 Y139.004 E4.49262 ; brim
G1 X109.678 Y139.224 E4.50990 ; brim
G1 X108.584 Y141.117 E4.65887 ; brim
G1 X108.457 Y141.190 E4.66884 ; brim
G1 X108.288 Y141.190 E4.68037 ; brim
G1 X108.415 Y141.409 E4.69765 ; brim
G1 X107.321 Y143.302 E4.84662 ; brim
G1 X107.287 Y143.321 E4.84927 ; brim
G1 X107.682 Y143.321 E4.87621 ; brim
G1 X107.837 Y143.609 E4.89847 ; brim
G1 X107.283 Y144.446 E4.96688 ; brim
G1 X107.411 Y144.574 E4.97920 ; brim
G1 X107.411 Y145.400 E5.03551 ; brim
G1 X107.251 Y145.560 E5.05093 ; brim
G1 X105.516 Y145.560 E5.16917 ; brim
G1 X105.361 Y145.273 E5.19144 ; brim
G1 X105.894 Y144.468 E5.25722 ; brim
G1 X104.974 Y144.468 E5.31989 ; brim
G1 X104.900 Y144.446 E5.32515 ; brim
G1 X102.408 Y142.878 E5.52581 ; brim
G1 X102.343 Y142.707 E5.53825 ; brim
G1 X102.449 Y142.338 E5.56439 ; brim
G1 X102.524 Y142.282 E5.57075 ; brim
G1 X101.348 Y142.282 E5.65091 ; brim
G1 X101.278 Y142.264 E5.65580 ; brim
G1 X98.598 Y140.723 E5.86648 ; brim
G1 X98.527 Y140.551 E5.87913 ; brim
G1 X98.632 Y140.156 E5.90697 ; brim
G1 X98.710 Y140.097 E5.91362 ; brim
G1 X97.547 Y140.097 E5.99281 ; brim
G1 X97.478 Y140.079 E5.99770 ; brim
G1 X94.798 Y138.537 E6.20838 ; brim
G1 X94.727 Y138.366 E6.22103 ; brim
G1 X94.832 Y137.971 E6.24887 ; brim
G1 X94.910 Y137.912 E6.25552 ; brim
G1 X93.747 Y137.912 E6.33471 ; brim
G1 X93.678 Y137.893 E6.33960 ; brim
G1 X91.865 Y136.850 E6.48215 ; brim
G1 X91.759 Y136.956 E6.49230 ; brim
G1 X90.281 Y136.956 E6.59302 ; brim
G1 X90.118 Y136.770 E6.60985 ; brim
G1 X90.235 Y135.863 E6.67218 ; brim
G1 X89.390 Y135.863 E6.72976 ; brim
G1 X89.229 Y135.703 E6.74518 ; brim
G1 X89.229 Y134.877 E6.80149 ; brim
G1 X89.390 Y134.717 E6.81691 ; brim
G1 X90.616 Y134.717 E6.90050 ; brim
G1 X91.288 Y133.560 E6.99162 ; brim
G1 X91.414 Y133.487 E7.00157 ; brim
G1 X91.584 Y133.487 E7.01318 ; brim
G1 X91.458 Y133.267 E7.03048 ; brim
G1 X92.557 Y131.375 E7.17960 ; brim
G1 X92.683 Y131.302 E7.18955 ; brim
G1 X92.853 Y131.302 E7.20116 ; brim
G1 X92.727 Y131.082 E7.21846 ; brim
G1 X93.825 Y129.189 E7.36758 ; brim
G1 X93.952 Y129.116 E7.37753 ; brim
G1 X94.122 Y129.116 E7.38914 ; brim
G1 X93.996 Y128.896 E7.40644 ; brim
G1 X95.094 Y127.004 E7.55556 ; brim
G1 X95.221 Y126.931 E7.56551 ; brim
G1 X95.391 Y126.931 E7.57712 ; brim
G1 X95.264 Y126.711 E7.59442 ; brim
