; generated by Slic3r 0.9.9 on 2014-04-05 at 23:59:14

; layer_height = 0.2
; perimeters = 3
; top_solid_layers = 3
; bottom_solid_layers = 3
; fill_density = 0.2
; perimeter_speed = 36
; infill_speed = 60
; travel_speed = 130
; nozzle_diameter = 0.35
; filament_diameter = 1.75
; extrusion_multiplier = 1
; perimeters extrusion width = 0.52mm
; infill extrusion width = 0.52mm
; solid infill extrusion width = 0.52mm
; top infill extrusion width = 0.52mm
; support material extrusion width = 0.52mm
; first layer extrusion width = 0.60mm

G21 ; set units to millimeters
M107 ; disable fan
M190 S95 ; wait for bed temperature to be reached
M104 S225 ; set temperature
G28 ; home all axes
G1 Z5 F5000 ; lift nozzle
M109 S225 ; wait for temperature to be reached
G90 ; use absolute coordinates
G92 E0 ; reset extrusion distance
M82 ; use absolute distances for extrusion
G1 F1800.000 E-1.00000 ; retract
G92 E0 ; reset extrusion distance
G1 Z0.300 F7800.000 ; move to next layer (0)
G1 X61.501 Y66.889 ; move to first skirt point
G1 F1800.000 E1.00000 ; compensate retraction
G1 X61.651 Y66.759 F756.000 E1.01353 ; skirt
G1 X61.971 Y66.539 E1.03999 ; skirt
G1 X62.501 Y66.269 E1.08052 ; skirt
G1 X62.871 Y66.149 E1.10703 ; skirt
G1 X63.251 Y66.059 E1.13364 ; skirt
G1 X63.831 Y66.009 E1.17331 ; skirt
G1 X136.061 Y66.299 E6.09537 ; skirt
G1 X136.661 Y66.359 E6.13646 ; skirt
G1 X137.041 Y66.449 E6.16307 ; skirt
G1 X137.421 Y66.579 E6.19044 ; skirt
G1 X137.941 Y66.849 E6.23036 ; skirt
G1 X138.111 Y66.959 E6.24416 ; skirt
G1 X138.421 Y67.209 E6.27130 ; skirt
G1 X138.831 Y67.639 E6.31179 ; skirt
G1 X139.061 Y67.969 E6.33920 ; skirt
G1 X139.251 Y68.309 E6.36574 ; skirt
G1 X139.401 Y68.679 E6.39295 ; skirt
G1 X139.511 Y69.059 E6.41990 ; skirt
G1 X139.551 Y69.259 E6.43380 ; skirt
G1 X139.601 Y69.849 E6.47415 ; skirt
G1 X139.601 Y129.949 E10.56959 ; skirt
G1 X139.571 Y130.399 E10.60032 ; skirt
G1 X139.481 Y130.839 E10.63092 ; skirt
G1 X139.341 Y131.269 E10.66174 ; skirt
G1 X139.251 Y131.469 E10.67669 ; skirt
G1 X139.041 Y131.859 E10.70687 ; skirt
G1 X138.911 Y132.049 E10.72256 ; skirt
G1 X137.981 Y133.299 E10.82873 ; skirt
G1 X137.701 Y133.609 E10.85719 ; skirt
G1 X137.381 Y133.869 E10.88529 ; skirt
G1 X137.031 Y134.099 E10.91383 ; skirt
G1 X136.661 Y134.289 E10.94217 ; skirt
G1 X136.271 Y134.439 E10.97064 ; skirt
G1 X136.071 Y134.489 E10.98469 ; skirt
G1 X135.661 Y134.559 E11.01304 ; skirt
G1 X135.251 Y134.589 E11.04105 ; skirt
G1 X100.161 Y134.589 E13.43221 ; skirt
G1 X98.221 Y134.509 E13.56452 ; skirt
G1 X98.021 Y134.489 E13.57822 ; skirt
G1 X97.631 Y134.409 E13.60535 ; skirt
G1 X97.251 Y134.279 E13.63272 ; skirt
G1 X96.721 Y134.019 E13.67295 ; skirt
G1 X96.241 Y133.669 E13.71343 ; skirt
G1 X95.821 Y133.239 E13.75439 ; skirt
G1 X95.691 Y133.079 E13.76844 ; skirt
G1 X95.481 Y132.749 E13.79509 ; skirt
G1 X60.621 Y72.229 E18.55438 ; skirt
G1 X60.531 Y72.029 E18.56932 ; skirt
G1 X60.391 Y71.619 E18.59884 ; skirt
G1 X60.271 Y70.989 E18.64255 ; skirt
G1 X60.251 Y70.549 E18.67256 ; skirt
G1 X60.281 Y69.459 E18.74687 ; skirt
G1 X60.321 Y69.069 E18.77358 ; skirt
G1 X60.391 Y68.689 E18.79991 ; skirt
G1 X60.511 Y68.319 E18.82642 ; skirt
G1 X60.671 Y67.959 E18.85326 ; skirt
G1 X60.971 Y67.459 E18.89300 ; skirt
G1 X61.221 Y67.159 E18.91961 ; skirt
G1 X61.441 Y66.945 E18.94053 ; skirt
G1 F1800.000 E17.94053 ; retract
G92 E0 ; reset extrusion distance
G1 X63.217 Y68.440 F7800.000 ; move to first brim point
G1 F1800.000 E1.00000 ; compensate retraction
G1 X65.163 Y68.440 F756.000 E1.13258 ; brim
G1 X65.456 Y68.734 E1.16087 ; brim
G1 X137.293 Y68.734 E6.05607 ; brim
G1 X137.773 Y69.214 E6.10234 ; brim
G1 X137.773 Y70.493 E6.18949 ; brim
G1 X137.293 Y70.973 E6.23575 ; brim
G1 X137.173 Y70.973 E6.24392 ; brim
G1 X137.173 Y113.534 E9.14423 ; brim
G1 X137.293 Y113.534 E9.15240 ; brim
G1 X137.773 Y114.014 E9.19867 ; brim
G1 X137.773 Y115.293 E9.28582 ; brim
G1 X137.293 Y115.773 E9.33208 ; brim
G1 X137.173 Y115.773 E9.34025 ; brim
G1 X137.173 Y116.812 E9.41106 ; brim
G1 X137.293 Y116.812 E9.41923 ; brim
G1 X137.773 Y117.293 E9.46549 ; brim
G1 X137.773 Y118.571 E9.55264 ; brim
G1 X137.293 Y119.051 E9.59891 ; brim
G1 X137.173 Y119.051 E9.60708 ; brim
G1 X137.173 Y128.881 E10.27693 ; brim
G1 X137.573 Y129.220 E10.31263 ; brim
G1 X137.729 Y130.146 E10.37663 ; brim
G1 X137.422 Y130.662 E10.41752 ; brim
G1 X136.979 Y130.816 E10.44948 ; brim
G1 X136.979 Y131.684 E10.50865 ; brim
G1 X136.499 Y132.164 E10.55491 ; brim
G1 X131.838 Y132.164 E10.87256 ; brim
G1 X131.380 Y131.776 E10.91346 ; brim
G1 X131.261 Y131.071 E10.96218 ; brim
G1 X103.631 Y131.071 E12.84499 ; brim
G1 X103.631 Y131.684 E12.88674 ; brim
G1 X103.151 Y132.164 E12.93300 ; brim
G1 X98.927 Y132.164 E13.22084 ; brim
G1 X98.869 Y132.106 E13.22638 ; brim
G1 X97.987 Y132.106 E13.28651 ; brim
G1 X97.523 Y131.698 E13.32862 ; brim
G1 X97.434 Y131.014 E13.37567 ; brim
G1 X97.132 Y131.014 E13.39630 ; brim
G1 X96.652 Y130.534 E13.44256 ; brim
G1 X96.652 Y129.255 E13.52971 ; brim
G1 X96.749 Y129.157 E13.53915 ; brim
G1 X92.817 Y122.330 E14.07603 ; brim
G1 X92.225 Y122.330 E14.11640 ; brim
G1 X91.745 Y121.850 E14.16266 ; brim
G1 X91.745 Y120.571 E14.24981 ; brim
G1 X91.782 Y120.533 E14.25344 ; brim
G1 X90.929 Y119.051 E14.36994 ; brim
G1 X90.337 Y119.051 E14.41030 ; brim
G1 X89.857 Y118.571 E14.45657 ; brim
G1 X89.857 Y117.293 E14.54372 ; brim
G1 X89.894 Y117.255 E14.54734 ; brim
G1 X63.739 Y71.846 E18.11829 ; brim
G1 X63.702 Y71.823 E18.12127 ; brim
G1 X63.676 Y71.772 E18.12515 ; brim
G1 X63.151 Y71.772 E18.16093 ; brim
G1 X62.668 Y71.274 E18.20820 ; brim
G1 X62.711 Y69.865 E18.30426 ; brim
G1 X62.534 Y69.514 E18.33103 ; brim
G1 X62.731 Y69.193 E18.35678 ; brim
G1 X62.740 Y68.903 E18.37654 ; brim
G1 X63.158 Y68.497 E18.41623 ; brim
G1 F1800.000 E17.41623 ; retract
G92 E0 ; reset extrusion distance
G1 X124.939 Y120.144 F7800.000 ; move to first brim point
G1 F1800.000 E1.00000 ; compensate retraction
G1 X126.081 Y120.144 F756.000 E1.07784 ; brim
G1 X125.970 Y121.183 E1.14905 ; brim
G1 X125.050 Y121.183 E1.21176 ; brim
G1 X124.948 Y120.226 E1.27739 ; brim
G1 F1800.000 E0.27739 ; retract
G92 E0 ; reset extrusion distance
G1 X103.829 Y116.866 F7800.000 ; move to first brim point
G1 F1800.000 E1.00000 ; compensate retraction
G1 X103.554 Y117.905 F756.000 E1.07324 ; brim
G1 X102.966 Y117.905 E1.11334 ; brim
G1 X102.692 Y116.866 E1.18656 ; brim
G1 X103.747 Y116.866 E1.25844 ; brim
G1 F1800.000 E0.25844 ; retract
G92 E0 ; reset extrusion distance
G1 X125.506 Y100.422 F7800.000 ; move to first brim point
G1 F1800.000 E1.00000 ; compensate retraction
G1 X125.510 Y100.215 F756.000 E1.01412 ; brim
G1 X125.771 Y100.476 E1.03927 ; brim
G1 X125.963 Y100.476 E1.05235 ; brim
G1 X125.853 Y100.691 E1.06885 ; brim
G1 X125.587 Y100.425 E1.09449 ; brim
G1 F1800.000 E0.09449 ; retract
G92 E0 ; reset extrusion distance
G1 X93.072 Y98.290 F7800.000 ; move to first brim point
G1 F1800.000 E1.00000 ; compensate retraction
G1 X92.821 Y99.114 F756.000 E1.05869 ; brim
G1 X92.821 Y98.717 E1.08578 ; brim
G1 X92.491 Y98.386 E1.11767 ; brim
G1 X92.491 Y98.262 E1.12612 ; brim
G1 X92.510 Y98.242 E1.12799 ; brim
G1 X92.558 Y98.290 E1.13260 ; brim
G1 X92.990 Y98.290 E1.16207 ; brim
G1 F1800.000 E0.16207 ; retract
G92 E0 ; reset extrusion distance
G1 X81.954 Y80.753 F7800.000 ; move to first brim point
G1 F1800.000 E1.00000 ; compensate retraction
G1 X81.565 Y80.753 F756.000 E1.02654 ; brim
G1 X81.208 Y79.714 E1.10141 ; brim
G1 X81.674 Y79.714 E1.13315 ; brim
G1 X81.760 Y79.628 E1.14147 ; brim
G1 X81.846 Y79.714 E1.14979 ; brim
G1 X82.313 Y79.714 E1.18161 ; brim
G1 X81.981 Y80.676 E1.25093 ; brim
G1 F1800.000 E0.25093 ; retract
G92 E0 ; reset extrusion distance
G1 X124.936 Y79.661 F7800.000 ; move to first brim point
G1 F1800.000 E1.00000 ; compensate retraction
G1 X125.157 Y78.622 F756.000 E1.07240 ; brim
G1 X125.863 Y78.622 E1.12046 ; brim
G1 X126.084 Y79.661 E1.19286 ; brim
G1 X125.018 Y79.661 E1.26556 ; brim
G1 F1800.000 E0.26556 ; retract
G92 E0 ; reset extrusion distance
G1 X136.493 Y79.141 F7800.000 ; move to first brim point
G1 F1800.000 E1.00000 ; compensate retraction
G1 X136.626 Y79.274 F756.000 E1.01284 ; brim
G1 X136.626 Y81.193 E1.14360 ; brim
G1 X136.493 Y81.327 E1.15644 ; brim
G1 X136.626 Y81.460 E1.16928 ; brim
G1 X136.626 Y83.379 E1.30004 ; brim
G1 X136.493 Y83.512 E1.31288 ; brim
G1 X136.626 Y83.645 E1.32572 ; brim
G1 X136.626 Y85.564 E1.45649 ; brim
G1 X136.493 Y85.697 E1.46932 ; brim
G1 X136.626 Y85.831 E1.48216 ; brim
G1 X136.626 Y87.750 E1.61293 ; brim
G1 X136.493 Y87.883 E1.62576 ; brim
G1 X136.626 Y88.016 E1.63860 ; brim
G1 X136.626 Y89.935 E1.76937 ; brim
G1 X136.493 Y90.068 E1.78220 ; brim
G1 X136.626 Y90.201 E1.79504 ; brim
G1 X136.626 Y92.120 E1.92581 ; brim
G1 X136.493 Y92.254 E1.93864 ; brim
G1 X136.626 Y92.387 E1.95148 ; brim
G1 X136.626 Y94.306 E2.08225 ; brim
G1 X136.493 Y94.439 E2.09508 ; brim
G1 X136.626 Y94.572 E2.10792 ; brim
G1 X136.626 Y96.491 E2.23869 ; brim
G1 X136.493 Y96.624 E2.25152 ; brim
G1 X136.626 Y96.758 E2.26436 ; brim
G1 X136.626 Y98.677 E2.39513 ; brim
G1 X136.493 Y98.810 E2.40796 ; brim
G1 X136.626 Y98.943 E2.42080 ; brim
G1 X136.626 Y100.862 E2.55157 ; brim
G1 X136.493 Y100.995 E2.56440 ; brim
G1 X136.626 Y101.128 E2.57724 ; brim
G1 X136.626 Y103.047 E2.70801 ; brim
G1 X136.493 Y103.181 E2.72084 ; brim
G1 X136.626 Y103.314 E2.73368 ; brim
G1 X136.626 Y105.233 E2.86445 ; brim
G1 X136.493 Y105.366 E2.87729 ; brim
G1 X136.626 Y105.499 E2.89012 ; brim
G1 X136.626 Y107.418 E3.02089 ; brim
G1 X136.493 Y107.551 E3.03373 ; brim
G1 X136.626 Y107.685 E3.04656 ; brim
G1 X136.626 Y109.604 E3.17733 ; brim
G1 X136.493 Y109.737 E3.19017 ; brim
G1 X136.626 Y109.870 E3.20300 ; brim
G1 X136.626 Y111.789 E3.33377 ; brim
G1 X136.493 Y111.922 E3.34661 ; brim
G1 X136.626 Y112.055 E3.35944 ; brim
G1 X136.626 Y113.974 E3.49021 ; brim
G1 X136.520 Y114.081 E3.50046 ; brim
G1 X137.066 Y114.081 E3.53769 ; brim
G1 X137.226 Y114.241 E3.55311 ; brim
G1 X137.226 Y115.067 E3.60942 ; brim
G1 X137.066 Y115.227 E3.62484 ; brim
G1 X136.520 Y115.227 E3.66207 ; brim
G1 X136.626 Y115.333 E3.67232 ; brim
G1 X136.626 Y117.252 E3.80309 ; brim
G1 X136.520 Y117.359 E3.81334 ; brim
G1 X137.066 Y117.359 E3.85057 ; brim
G1 X137.226 Y117.519 E3.86599 ; brim
G1 X137.226 Y118.345 E3.92230 ; brim
G1 X137.066 Y118.505 E3.93772 ; brim
G1 X136.520 Y118.505 E3.97495 ; brim
G1 X136.626 Y118.612 E3.98520 ; brim
G1 X136.626 Y120.531 E4.11597 ; brim
G1 X136.493 Y120.664 E4.12881 ; brim
G1 X136.626 Y120.797 E4.14164 ; brim
G1 X136.626 Y122.716 E4.27241 ; brim
G1 X136.493 Y122.849 E4.28525 ; brim
G1 X136.626 Y122.982 E4.29808 ; brim
G1 X136.626 Y124.901 E4.42885 ; brim
G1 X136.493 Y125.035 E4.44169 ; brim
G1 X136.626 Y125.168 E4.45453 ; brim
G1 X136.626 Y127.087 E4.58529 ; brim
G1 X136.493 Y127.220 E4.59813 ; brim
G1 X136.626 Y127.353 E4.61097 ; brim
G1 X136.626 Y129.272 E4.74173 ; brim
G1 X136.520 Y129.378 E4.75198 ; brim
G1 X136.914 Y129.378 E4.77886 ; brim
G1 X137.067 Y129.508 E4.79249 ; brim
G1 X137.157 Y130.039 E4.82923 ; brim
G1 X137.055 Y130.211 E4.84286 ; brim
G1 X136.281 Y130.479 E4.89865 ; brim
G1 X136.433 Y130.631 E4.91328 ; brim
G1 X136.433 Y131.458 E4.96959 ; brim
G1 X136.273 Y131.618 E4.98501 ; brim
G1 X132.038 Y131.618 E5.27361 ; brim
G1 X131.885 Y131.488 E5.28724 ; brim
G1 X131.796 Y130.957 E5.32397 ; brim
G1 X131.898 Y130.785 E5.33761 ; brim
G1 X132.648 Y130.525 E5.39170 ; brim
G1 X102.978 Y130.525 E7.41349 ; brim
G1 X103.085 Y130.631 E7.42374 ; brim
G1 X103.085 Y131.458 E7.48005 ; brim
G1 X102.925 Y131.618 E7.49547 ; brim
G1 X99.153 Y131.618 E7.75247 ; brim
G1 X99.096 Y131.560 E7.75801 ; brim
G1 X98.193 Y131.560 E7.81952 ; brim
G1 X98.038 Y131.424 E7.83356 ; brim
G1 X97.915 Y130.467 E7.89929 ; brim
G1 X97.358 Y130.467 E7.93723 ; brim
G1 X97.198 Y130.307 E7.95265 ; brim
G1 X97.198 Y129.481 E8.00896 ; brim
G1 X97.358 Y129.321 E8.02438 ; brim
G1 X97.475 Y129.321 E8.03233 ; brim
G1 X97.035 Y128.559 E8.09227 ; brim
G1 X97.162 Y128.339 E8.10953 ; brim
G1 X96.994 Y128.339 E8.12101 ; brim
G1 X96.867 Y128.266 E8.13100 ; brim
G1 X95.777 Y126.373 E8.27984 ; brim
G1 X95.903 Y126.154 E8.29710 ; brim
G1 X95.735 Y126.154 E8.30858 ; brim
G1 X95.608 Y126.081 E8.31856 ; brim
G1 X94.518 Y124.188 E8.46741 ; brim
G1 X94.645 Y123.969 E8.48467 ; brim
G1 X94.476 Y123.969 E8.49615 ; brim
G1 X94.349 Y123.895 E8.50613 ; brim
G1 X93.259 Y122.003 E8.65498 ; brim
G1 X93.386 Y121.783 E8.67224 ; brim
G1 X92.451 Y121.783 E8.73595 ; brim
G1 X92.291 Y121.623 E8.75137 ; brim
G1 X92.291 Y120.797 E8.80768 ; brim
G1 X92.451 Y120.637 E8.82310 ; brim
G1 X92.495 Y120.637 E8.82611 ; brim
G1 X92.461 Y120.617 E8.82879 ; brim
G1 X91.371 Y118.724 E8.97764 ; brim
G1 X91.498 Y118.505 E8.99490 ; brim
G1 X90.563 Y118.505 E9.05861 ; brim
G1 X90.403 Y118.345 E9.07403 ; brim
G1 X90.403 Y117.519 E9.13034 ; brim
G1 X90.563 Y117.359 E9.14576 ; brim
G1 X90.607 Y117.359 E9.14877 ; brim
G1 X90.573 Y117.339 E9.15146 ; brim
G1 X89.483 Y115.446 E9.30030 ; brim
G1 X89.610 Y115.227 E9.31756 ; brim
G1 X89.441 Y115.227 E9.32904 ; brim
G1 X89.314 Y115.154 E9.33902 ; brim
G1 X88.224 Y113.261 E9.48787 ; brim
G1 X88.351 Y113.042 E9.50513 ; brim
G1 X88.182 Y113.042 E9.51661 ; brim
G1 X88.056 Y112.968 E9.52659 ; brim
G1 X86.965 Y111.076 E9.67544 ; brim
G1 X87.092 Y110.856 E9.69270 ; brim
G1 X86.924 Y110.856 E9.70418 ; brim
G1 X86.797 Y110.783 E9.71416 ; brim
G1 X85.707 Y108.890 E9.86301 ; brim
G1 X85.833 Y108.671 E9.88027 ; brim
G1 X85.665 Y108.671 E9.89175 ; brim
G1 X85.538 Y108.598 E9.90173 ; brim
G1 X84.448 Y106.705 E10.05058 ; brim
G1 X84.575 Y106.485 E10.06784 ; brim
G1 X84.406 Y106.485 E10.07931 ; brim
G1 X84.279 Y106.412 E10.08930 ; brim
G1 X83.189 Y104.519 E10.23815 ; brim
G1 X83.316 Y104.300 E10.25541 ; brim
G1 X83.147 Y104.300 E10.26688 ; brim
G1 X83.021 Y104.227 E10.27687 ; brim
G1 X81.930 Y102.334 E10.42572 ; brim
G1 X82.057 Y102.115 E10.44298 ; brim
G1 X81.889 Y102.115 E10.45445 ; brim
G1 X81.762 Y102.041 E10.46444 ; brim
G1 X80.672 Y100.149 E10.61328 ; brim
G1 X80.798 Y99.929 E10.63054 ; brim
G1 X80.630 Y99.929 E10.64202 ; brim
G1 X80.503 Y99.856 E10.65201 ; brim
G1 X79.413 Y97.963 E10.80085 ; brim
G1 X79.540 Y97.744 E10.81811 ; brim
G1 X79.371 Y97.744 E10.82959 ; brim
G1 X79.244 Y97.671 E10.83958 ; brim
G1 X78.154 Y95.778 E10.98842 ; brim
G1 X78.281 Y95.558 E11.00568 ; brim
G1 X78.112 Y95.558 E11.01716 ; brim
G1 X77.986 Y95.485 E11.02715 ; brim
G1 X76.895 Y93.592 E11.17599 ; brim
G1 X77.022 Y93.373 E11.19325 ; brim
G1 X76.854 Y93.373 E11.20473 ; brim
G1 X76.727 Y93.300 E11.21471 ; brim
G1 X75.637 Y91.407 E11.36356 ; brim
G1 X75.763 Y91.188 E11.38082 ; brim
G1 X75.595 Y91.188 E11.39230 ; brim
G1 X75.468 Y91.114 E11.40228 ; brim
G1 X74.378 Y89.222 E11.55113 ; brim
G1 X74.505 Y89.002 E11.56839 ; brim
G1 X74.336 Y89.002 E11.57987 ; brim
G1 X74.209 Y88.929 E11.58985 ; brim
G1 X73.119 Y87.036 E11.73870 ; brim
G1 X73.246 Y86.817 E11.75596 ; brim
G1 X73.077 Y86.817 E11.76744 ; brim
G1 X72.950 Y86.744 E11.77742 ; brim
G1 X71.860 Y84.851 E11.92627 ; brim
G1 X71.987 Y84.631 E11.94353 ; brim
G1 X71.819 Y84.631 E11.95500 ; brim
G1 X71.692 Y84.558 E11.96499 ; brim
G1 X70.602 Y82.665 E12.11384 ; brim
G1 X70.728 Y82.446 E12.13110 ; brim
G1 X70.560 Y82.446 E12.14257 ; brim
G1 X70.433 Y82.373 E12.15256 ; brim
G1 X69.343 Y80.480 E12.30141 ; brim
G1 X69.470 Y80.261 E12.31867 ; brim
G1 X69.301 Y80.261 E12.33014 ; brim
G1 X69.174 Y80.187 E12.34013 ; brim
G1 X68.084 Y78.295 E12.48898 ; brim
G1 X68.211 Y78.075 E12.50623 ; brim
G1 X68.042 Y78.075 E12.51771 ; brim
G1 X67.915 Y78.002 E12.52770 ; brim
G1 X66.825 Y76.109 E12.67654 ; brim
G1 X66.952 Y75.890 E12.69380 ; brim
G1 X66.784 Y75.890 E12.70528 ; brim
G1 X66.657 Y75.817 E12.71527 ; brim
G1 X65.566 Y73.924 E12.86411 ; brim
G1 X65.693 Y73.704 E12.88137 ; brim
G1 X65.525 Y73.704 E12.89285 ; brim
G1 X65.398 Y73.631 E12.90284 ; brim
G1 X64.308 Y71.738 E13.05168 ; brim
G1 X64.434 Y71.519 E13.06894 ; brim
G1 X64.251 Y71.519 E13.08144 ; brim
G1 X64.119 Y71.438 E13.09197 ; brim
G1 X64.012 Y71.226 E13.10821 ; brim
G1 X63.382 Y71.226 E13.15112 ; brim
