; generated by Slic3r 0.9.9 on 2014-04-06 at 00:05:09

; layer_height = 0.2
; perimeters = 3
; top_solid_layers = 3
; bottom_solid_layers = 3
; fill_density = 0.2
; perimeter_speed = 36
; infill_speed = 60
; travel_speed = 130
; nozzle_diameter = 0.35
; filament_diameter = 1.75
; extrusion_multiplier = 1
; perimeters extrusion width = 0.52mm
; infill extrusion width = 0.52mm
; solid infill extrusion width = 0.52mm
; top infill extrusion width = 0.52mm
; support material extrusion width = 0.52mm
; first layer extrusion width = 0.60mm

G21 ; set units to millimeters
M107 ; disable fan
M190 S95 ; wait for bed temperature to be reached
M104 S225 ; set temperature
G28 ; home all axes
G1 Z5 F5000 ; lift nozzle
M109 S225 ; wait for temperature to be reached
G90 ; use absolute coordinates
G92 E0 ; reset extrusion distance
M82 ; use absolute distances for extrusion
G1 F1800.000 E-1.00000 ; retract
G92 E0 ; reset extrusion distance
G1 Z0.300 F7800.000 ; move to next layer (0)
G1 X56.260 Y80.070 ; move to first skirt point
G1 F1800.000 E1.00000 ; compensate retraction
G1 X56.590 Y79.860 F756.000 E1.02665 ; skirt
G1 X56.950 Y79.680 E1.05408 ; skirt
G1 X57.140 Y79.610 E1.06788 ; skirt
G1 X57.710 Y79.460 E1.10804 ; skirt
G1 X58.310 Y79.410 E1.14907 ; skirt
G1 X80.460 Y79.400 E2.65846 ; skirt
G1 X134.200 Y79.770 E6.32059 ; skirt
G1 X134.830 Y79.830 E6.36371 ; skirt
G1 X135.230 Y79.930 E6.39181 ; skirt
G1 X135.620 Y80.080 E6.42028 ; skirt
G1 X135.990 Y80.270 E6.44862 ; skirt
G1 X136.340 Y80.500 E6.47716 ; skirt
G1 X141.700 Y85.130 E6.95981 ; skirt
G1 X142.010 Y85.430 E6.98921 ; skirt
G1 X142.290 Y85.780 E7.01975 ; skirt
G1 X142.410 Y85.960 E7.03450 ; skirt
G1 X142.700 Y86.550 E7.07929 ; skirt
G1 X143.900 Y89.710 E7.30963 ; skirt
G1 X144.000 Y90.030 E7.33248 ; skirt
G1 X144.370 Y91.420 E7.43050 ; skirt
G1 X144.900 Y94.300 E7.63005 ; skirt
G1 X144.950 Y94.750 E7.66090 ; skirt
G1 X144.950 Y95.200 E7.69156 ; skirt
G1 X144.890 Y95.640 E7.72182 ; skirt
G1 X144.670 Y96.730 E7.79760 ; skirt
G1 X144.580 Y97.080 E7.82223 ; skirt
G1 X138.180 Y117.810 E9.30063 ; skirt
G1 X138.000 Y118.260 E9.33366 ; skirt
G1 X137.770 Y118.690 E9.36689 ; skirt
G1 X137.480 Y119.080 E9.40001 ; skirt
G1 X136.540 Y120.170 E9.49809 ; skirt
G1 X136.250 Y120.460 E9.52604 ; skirt
G1 X135.770 Y120.830 E9.56734 ; skirt
G1 X135.420 Y121.030 E9.59481 ; skirt
G1 X135.050 Y121.190 E9.62228 ; skirt
G1 X134.460 Y121.340 E9.66376 ; skirt
G1 X133.860 Y121.400 E9.70485 ; skirt
G1 X121.910 Y121.430 E10.51917 ; skirt
G1 X121.450 Y121.400 E10.55058 ; skirt
G1 X121.150 Y121.350 E10.57131 ; skirt
G1 X57.580 Y107.550 E15.00410 ; skirt
G1 X57.190 Y107.440 E15.03171 ; skirt
G1 X56.820 Y107.290 E15.05892 ; skirt
G1 X56.300 Y106.990 E15.09983 ; skirt
G1 X55.990 Y106.740 E15.12697 ; skirt
G1 X55.570 Y106.310 E15.16793 ; skirt
G1 X55.230 Y105.810 E15.20913 ; skirt
G1 X55.060 Y105.450 E15.23626 ; skirt
G1 X54.870 Y104.880 E15.27720 ; skirt
G1 X54.810 Y104.480 E15.30477 ; skirt
G1 X54.780 Y104.080 E15.33210 ; skirt
G1 X54.770 Y82.760 E16.78492 ; skirt
G1 X54.810 Y82.370 E16.81164 ; skirt
G1 X54.900 Y81.980 E16.83891 ; skirt
G1 X55.030 Y81.610 E16.86564 ; skirt
G1 X55.200 Y81.250 E16.89277 ; skirt
G1 X55.420 Y80.910 E16.92036 ; skirt
G1 X55.660 Y80.600 E16.94708 ; skirt
G1 X55.800 Y80.450 E16.96106 ; skirt
G1 X56.194 Y80.119 E16.99614 ; skirt
G1 X57.062 Y81.846 F7800.000 ; move to first brim point
G1 X60.030 Y81.846 F756.000 E17.19840 ; brim
G1 X60.307 Y82.202 E17.22908 ; brim
G1 X77.339 Y82.202 E18.38973 ; brim
G1 X77.703 Y81.837 E18.42484 ; brim
G1 X81.684 Y81.837 E18.69612 ; brim
G1 X82.049 Y82.202 E18.73123 ; brim
G1 X134.758 Y82.202 E22.32302 ; brim
G1 X135.222 Y82.612 E22.36528 ; brim
G1 X135.445 Y84.397 E22.48785 ; brim
G1 X135.599 Y84.436 E22.49869 ; brim
G1 X137.509 Y85.449 E22.64605 ; brim
G1 X138.488 Y85.449 E22.71271 ; brim
G1 X138.968 Y85.929 E22.75898 ; brim
G1 X138.968 Y86.573 E22.80281 ; brim
G1 X139.824 Y86.573 E22.86115 ; brim
G1 X140.038 Y86.787 E22.88184 ; brim
G1 X140.384 Y87.074 E22.91244 ; brim
G1 X140.518 Y87.789 E22.96202 ; brim
G1 X140.829 Y87.789 E22.98319 ; brim
G1 X141.309 Y88.269 E23.02946 ; brim
G1 X141.309 Y89.548 E23.11661 ; brim
G1 X141.264 Y89.593 E23.12095 ; brim
G1 X141.605 Y90.171 E23.16666 ; brim
G1 X141.555 Y90.258 E23.17347 ; brim
G1 X142.168 Y92.541 E23.33457 ; brim
G1 X142.132 Y92.587 E23.33853 ; brim
G1 X142.139 Y93.822 E23.42266 ; brim
G1 X142.167 Y93.822 E23.42456 ; brim
G1 X142.658 Y94.423 E23.47747 ; brim
G1 X142.538 Y95.021 E23.51906 ; brim
G1 X142.911 Y95.394 E23.55506 ; brim
G1 X142.911 Y96.673 E23.64221 ; brim
G1 X142.431 Y97.153 E23.68848 ; brim
G1 X141.602 Y97.153 E23.74499 ; brim
G1 X141.638 Y97.215 E23.74983 ; brim
G1 X140.360 Y99.513 E23.92903 ; brim
G1 X140.412 Y99.648 E23.93888 ; brim
G1 X140.231 Y99.809 E23.95540 ; brim
G1 X140.231 Y100.767 E24.02066 ; brim
G1 X139.751 Y101.247 E24.06693 ; brim
G1 X139.625 Y101.247 E24.07552 ; brim
G1 X139.625 Y101.860 E24.11727 ; brim
G1 X139.144 Y102.340 E24.16353 ; brim
G1 X138.132 Y102.340 E24.23255 ; brim
G1 X138.132 Y102.621 E24.25170 ; brim
G1 X137.652 Y103.101 E24.29796 ; brim
G1 X135.740 Y103.101 E24.42826 ; brim
G1 X135.163 Y103.568 E24.47883 ; brim
G1 X135.163 Y113.471 E25.15368 ; brim
G1 X135.628 Y113.937 E25.19853 ; brim
G1 X135.628 Y115.642 E25.31474 ; brim
G1 X135.982 Y115.642 E25.33887 ; brim
G1 X136.420 Y116.600 E25.41063 ; brim
G1 X135.573 Y117.578 E25.49880 ; brim
G1 X135.573 Y118.494 E25.56120 ; brim
G1 X135.093 Y118.974 E25.60746 ; brim
G1 X132.670 Y118.974 E25.77256 ; brim
G1 X132.232 Y118.016 E25.84432 ; brim
G1 X132.349 Y117.881 E25.85648 ; brim
G1 X128.182 Y117.881 E26.14046 ; brim
G1 X128.148 Y117.915 E26.14372 ; brim
G1 X123.621 Y117.915 E26.45220 ; brim
G1 X123.621 Y118.527 E26.49395 ; brim
G1 X123.141 Y119.007 E26.54022 ; brim
G1 X121.638 Y119.007 E26.64261 ; brim
G1 X121.358 Y118.902 E26.66300 ; brim
G1 X118.899 Y116.736 E26.88630 ; brim
G1 X119.300 Y115.676 E26.96351 ; brim
G1 X119.872 Y115.676 E27.00251 ; brim
G1 X119.872 Y113.970 E27.11872 ; brim
G1 X120.219 Y113.623 E27.15217 ; brim
G1 X120.170 Y113.439 E27.16519 ; brim
G1 X120.337 Y113.220 E27.18397 ; brim
G1 X120.341 Y106.718 E27.62708 ; brim
G1 X120.328 Y105.202 E27.73035 ; brim
G1 X119.277 Y105.202 E27.80197 ; brim
G1 X118.797 Y104.722 E27.84824 ; brim
G1 X118.797 Y104.109 E27.88999 ; brim
G1 X81.484 Y104.109 E30.43261 ; brim
G1 X81.617 Y104.242 E30.44537 ; brim
G1 X81.617 Y105.521 E30.53252 ; brim
G1 X81.137 Y106.001 E30.57879 ; brim
G1 X78.658 Y106.001 E30.74773 ; brim
G1 X78.178 Y105.521 E30.79400 ; brim
G1 X78.178 Y104.242 E30.88115 ; brim
G1 X78.310 Y104.109 E30.89391 ; brim
G1 X61.771 Y104.109 E32.02091 ; brim
G1 X61.771 Y104.722 E32.06265 ; brim
G1 X61.291 Y105.202 E32.10892 ; brim
G1 X57.529 Y105.202 E32.36529 ; brim
G1 X57.037 Y104.564 E32.42022 ; brim
G1 X57.501 Y102.800 E32.54452 ; brim
G1 X57.238 Y102.537 E32.56987 ; brim
G1 X57.238 Y101.258 E32.65702 ; brim
G1 X57.718 Y100.778 E32.70328 ; brim
G1 X57.839 Y100.778 E32.71149 ; brim
G1 X57.842 Y95.368 E33.08014 ; brim
G1 X57.722 Y95.368 E33.08827 ; brim
G1 X57.242 Y94.888 E33.13454 ; brim
G1 X57.242 Y93.609 E33.22169 ; brim
G1 X57.722 Y93.129 E33.26795 ; brim
G1 X57.843 Y93.129 E33.27617 ; brim
G1 X57.844 Y92.090 E33.34697 ; brim
G1 X57.724 Y92.090 E33.35510 ; brim
G1 X57.244 Y91.610 E33.40137 ; brim
G1 X57.244 Y90.331 E33.48852 ; brim
G1 X57.724 Y89.851 E33.53478 ; brim
G1 X57.845 Y89.851 E33.54299 ; brim
G1 X57.847 Y84.750 E33.89056 ; brim
G1 X57.688 Y84.546 E33.90823 ; brim
G1 X57.717 Y84.430 E33.91635 ; brim
G1 X57.373 Y84.085 E33.94956 ; brim
G1 X57.062 Y84.085 E33.97073 ; brim
G1 X56.582 Y83.605 E34.01700 ; brim
G1 X56.582 Y82.326 E34.10415 ; brim
G1 X57.004 Y81.904 E34.14483 ; brim
G1 F1800.000 E33.14483 ; retract
G92 E0 ; reset extrusion distance
G1 X128.370 Y93.620 F7800.000 ; move to first brim point
G1 F1800.000 E1.00000 ; compensate retraction
G1 X128.762 Y91.939 F756.000 E1.11759 ; brim
G1 X130.660 Y89.904 E1.30722 ; brim
G1 X133.840 Y89.904 E1.52397 ; brim
G1 X135.738 Y91.939 E1.71359 ; brim
G1 X136.152 Y93.713 E1.83773 ; brim
G1 X135.783 Y95.486 E1.96113 ; brim
G1 X134.000 Y97.500 E2.14438 ; brim
G1 X132.004 Y97.500 E2.28038 ; brim
G1 X131.524 Y97.980 E2.32665 ; brim
G1 X131.524 Y98.592 E2.36839 ; brim
G1 X128.970 Y98.592 E2.54246 ; brim
G1 X128.970 Y97.980 E2.58421 ; brim
G1 X128.490 Y97.500 E2.63047 ; brim
G1 X128.370 Y97.500 E2.63865 ; brim
G1 X128.370 Y93.702 E2.89744 ; brim
G1 F1800.000 E1.89744 ; retract
G92 E0 ; reset extrusion distance
G1 X70.064 Y93.182 F7800.000 ; move to first brim point
G1 F1800.000 E1.00000 ; compensate retraction
G1 X69.763 Y94.221 F756.000 E1.07372 ; brim
G1 X69.237 Y94.221 E1.10956 ; brim
G1 X68.936 Y93.182 E1.18328 ; brim
G1 X69.464 Y93.182 E1.21923 ; brim
G1 X69.500 Y93.146 E1.22275 ; brim
G1 X69.536 Y93.182 E1.22626 ; brim
G1 X69.982 Y93.182 E1.25663 ; brim
G1 F1800.000 E0.25663 ; retract
G92 E0 ; reset extrusion distance
G1 X58.496 Y93.675 F7800.000 ; move to first brim point
G1 F1800.000 E1.00000 ; compensate retraction
G1 X58.389 Y93.569 F756.000 E1.01026 ; brim
G1 X58.390 Y91.650 E1.14103 ; brim
G1 X58.496 Y91.543 E1.15127 ; brim
G1 X57.950 Y91.543 E1.18847 ; brim
G1 X57.790 Y91.383 E1.20389 ; brim
G1 X57.790 Y90.557 E1.26020 ; brim
G1 X57.950 Y90.397 E1.27562 ; brim
G1 X58.497 Y90.397 E1.31288 ; brim
G1 X58.391 Y90.291 E1.32314 ; brim
G1 X58.392 Y88.372 E1.45391 ; brim
G1 X58.525 Y88.238 E1.46675 ; brim
G1 X58.392 Y88.105 E1.47958 ; brim
G1 X58.393 Y86.186 E1.61035 ; brim
G1 X58.526 Y86.053 E1.62319 ; brim
G1 X58.393 Y85.920 E1.63602 ; brim
G1 X58.394 Y84.563 E1.72848 ; brim
G1 X58.283 Y84.421 E1.74074 ; brim
G1 X58.417 Y83.894 E1.77775 ; brim
G1 X57.955 Y83.894 E1.80926 ; brim
G1 X57.795 Y83.734 E1.82468 ; brim
G1 X57.795 Y83.539 E1.83800 ; brim
G1 X57.288 Y83.539 E1.87248 ; brim
G1 X57.128 Y83.379 E1.88791 ; brim
G1 X57.128 Y82.553 E1.94421 ; brim
G1 X57.288 Y82.393 E1.95963 ; brim
G1 X59.763 Y82.393 E2.12826 ; brim
G1 X59.927 Y82.604 E2.14647 ; brim
G1 X59.890 Y82.748 E2.15663 ; brim
G1 X77.770 Y82.748 E3.37498 ; brim
G1 X77.770 Y82.544 E3.38891 ; brim
G1 X77.930 Y82.384 E3.40433 ; brim
G1 X81.458 Y82.384 E3.64476 ; brim
G1 X81.618 Y82.544 E3.66019 ; brim
G1 X81.618 Y82.748 E3.67411 ; brim
G1 X134.551 Y82.748 E7.28115 ; brim
G1 X134.706 Y82.885 E7.29524 ; brim
G1 X134.945 Y84.803 E7.42692 ; brim
G1 X134.829 Y84.934 E7.43883 ; brim
G1 X135.337 Y84.934 E7.47347 ; brim
G1 X135.402 Y84.950 E7.47803 ; brim
G1 X137.373 Y85.996 E7.63009 ; brim
G1 X138.261 Y85.996 E7.69060 ; brim
G1 X138.421 Y86.156 E7.70602 ; brim
G1 X138.421 Y86.982 E7.76233 ; brim
G1 X138.284 Y87.119 E7.77554 ; brim
G1 X139.597 Y87.119 E7.86502 ; brim
G1 X139.883 Y87.369 E7.89089 ; brim
G1 X140.065 Y88.335 E7.95792 ; brim
G1 X140.603 Y88.335 E7.99457 ; brim
G1 X140.763 Y88.495 E8.00999 ; brim
G1 X140.763 Y89.322 E8.06630 ; brim
G1 X140.603 Y89.482 E8.08172 ; brim
G1 X140.564 Y89.482 E8.08436 ; brim
G1 X140.973 Y90.175 E8.13923 ; brim
G1 X140.846 Y90.397 E8.15664 ; brim
G1 X140.910 Y90.397 E8.16097 ; brim
G1 X141.057 Y90.510 E8.17361 ; brim
G1 X141.570 Y92.422 E8.30853 ; brim
G1 X141.439 Y92.594 E8.32328 ; brim
G1 X141.587 Y92.741 E8.33753 ; brim
G1 X141.595 Y94.368 E8.44837 ; brim
G1 X141.908 Y94.368 E8.46967 ; brim
G1 X142.072 Y94.568 E8.48731 ; brim
G1 X141.892 Y95.461 E8.54935 ; brim
G1 X142.205 Y95.461 E8.57070 ; brim
G1 X142.365 Y95.621 E8.58612 ; brim
G1 X142.365 Y96.447 E8.64243 ; brim
G1 X142.205 Y96.607 E8.65785 ; brim
G1 X141.162 Y96.607 E8.72892 ; brim
G1 X141.089 Y96.892 E8.74900 ; brim
G1 X140.941 Y97.007 E8.76174 ; brim
G1 X140.882 Y97.007 E8.76575 ; brim
G1 X141.009 Y97.222 E8.78280 ; brim
G1 X139.957 Y99.117 E8.93045 ; brim
G1 X139.828 Y99.192 E8.94060 ; brim
G1 X139.654 Y99.192 E8.95251 ; brim
G1 X139.767 Y99.491 E8.97426 ; brim
G1 X139.605 Y99.635 E8.98906 ; brim
G1 X139.684 Y99.715 E8.99672 ; brim
G1 X139.684 Y100.541 E9.05303 ; brim
G1 X139.524 Y100.701 E9.06845 ; brim
G1 X138.972 Y100.701 E9.10610 ; brim
G1 X139.078 Y100.807 E9.11635 ; brim
G1 X139.078 Y101.634 E9.17266 ; brim
G1 X138.918 Y101.794 E9.18808 ; brim
G1 X137.585 Y101.794 E9.27891 ; brim
G1 X137.585 Y102.395 E9.31987 ; brim
G1 X137.425 Y102.555 E9.33529 ; brim
G1 X135.546 Y102.555 E9.46334 ; brim
G1 X134.366 Y103.509 E9.56677 ; brim
G1 X134.456 Y103.509 E9.57290 ; brim
G1 X134.616 Y103.669 E9.58832 ; brim
G1 X134.616 Y105.588 E9.71909 ; brim
G1 X134.483 Y105.722 E9.73193 ; brim
G1 X134.616 Y105.855 E9.74476 ; brim
G1 X134.616 Y107.774 E9.87553 ; brim
G1 X134.483 Y107.907 E9.88837 ; brim
G1 X134.616 Y108.040 E9.90120 ; brim
G1 X134.616 Y109.959 E10.03197 ; brim
G1 X134.483 Y110.092 E10.04481 ; brim
G1 X134.616 Y110.226 E10.05765 ; brim
G1 X134.616 Y112.145 E10.18841 ; brim
G1 X134.483 Y112.278 E10.20125 ; brim
G1 X134.616 Y112.411 E10.21409 ; brim
G1 X134.616 Y114.003 E10.32256 ; brim
G1 X134.922 Y114.003 E10.34337 ; brim
G1 X135.082 Y114.163 E10.35879 ; brim
G1 X135.082 Y116.082 E10.48956 ; brim
G1 X134.975 Y116.188 E10.49981 ; brim
G1 X135.631 Y116.188 E10.54450 ; brim
G1 X135.777 Y116.508 E10.56842 ; brim
G1 X134.996 Y117.410 E10.64977 ; brim
G1 X135.027 Y117.441 E10.65274 ; brim
G1 X135.027 Y118.267 E10.70905 ; brim
G1 X134.867 Y118.427 E10.72447 ; brim
G1 X133.021 Y118.427 E10.85023 ; brim
G1 X132.875 Y118.108 E10.87415 ; brim
G1 X133.545 Y117.335 E10.94386 ; brim
G1 X127.955 Y117.335 E11.32475 ; brim
G1 X127.922 Y117.368 E11.32800 ; brim
G1 X122.968 Y117.368 E11.66555 ; brim
G1 X123.075 Y117.475 E11.67580 ; brim
G1 X123.075 Y118.301 E11.73210 ; brim
G1 X122.915 Y118.461 E11.74753 ; brim
G1 X121.738 Y118.461 E11.82770 ; brim
G1 X121.645 Y118.426 E11.83450 ; brim
G1 X119.544 Y116.575 E12.02527 ; brim
G1 X119.677 Y116.222 E12.05101 ; brim
G1 X120.525 Y116.222 E12.10875 ; brim
G1 X120.418 Y116.116 E12.11900 ; brim
G1 X120.418 Y114.197 E12.24977 ; brim
G1 X120.578 Y114.037 E12.26519 ; brim
G1 X120.896 Y114.037 E12.28681 ; brim
G1 X120.767 Y113.557 E12.32061 ; brim
G1 X120.931 Y113.344 E12.33897 ; brim
G1 X120.990 Y113.344 E12.34299 ; brim
G1 X120.884 Y113.237 E12.35324 ; brim
G1 X120.884 Y111.318 E12.48401 ; brim
G1 X121.017 Y111.185 E12.49685 ; brim
G1 X120.884 Y111.052 E12.50968 ; brim
G1 X120.884 Y109.133 E12.64045 ; brim
G1 X121.017 Y109.000 E12.65329 ; brim
G1 X120.884 Y108.867 E12.66612 ; brim
G1 X120.884 Y106.948 E12.79689 ; brim
G1 X121.018 Y106.813 E12.80987 ; brim
G1 X120.887 Y106.683 E12.82246 ; brim
G1 X120.871 Y104.764 E12.95323 ; brim
G1 X120.978 Y104.656 E12.96360 ; brim
G1 X119.504 Y104.656 E13.06408 ; brim
G1 X119.344 Y104.496 E13.07950 ; brim
G1 X119.344 Y103.669 E13.13581 ; brim
G1 X119.450 Y103.563 E13.14606 ; brim
G1 X61.119 Y103.563 E17.12097 ; brim
G1 X61.225 Y103.669 E17.13122 ; brim
G1 X61.225 Y104.496 E17.18753 ; brim
G1 X61.065 Y104.656 E17.20295 ; brim
G1 X57.798 Y104.656 E17.42559 ; brim
G1 X57.634 Y104.443 E17.44390 ; brim
G1 X58.137 Y102.530 E17.57867 ; brim
G1 X58.215 Y102.470 E17.58537 ; brim
G1 X57.945 Y102.470 E17.60379 ; brim
G1 X57.785 Y102.310 E17.61921 ; brim
G1 X57.785 Y101.484 E17.67552 ; brim
G1 X57.945 Y101.324 E17.69094 ; brim
G1 X58.491 Y101.324 E17.72820 ; brim
G1 X58.385 Y101.218 E17.73846 ; brim
G1 X58.386 Y99.299 E17.86923 ; brim
G1 X58.519 Y99.165 E17.88207 ; brim
G1 X58.386 Y99.032 E17.89490 ; brim
G1 X58.387 Y97.113 E18.02567 ; brim
G1 X58.520 Y96.980 E18.03851 ; brim
G1 X58.387 Y96.847 E18.05134 ; brim
G1 X58.388 Y94.928 E18.18211 ; brim
G1 X58.495 Y94.821 E18.19235 ; brim
G1 X57.949 Y94.821 E18.22955 ; brim
G1 X57.789 Y94.661 E18.24497 ; brim
G1 X57.789 Y93.835 E18.30128 ; brim
G1 X57.949 Y93.675 E18.31670 ; brim
G1 X58.414 Y93.675 E18.34838 ; brim
G1 F1800.000 E17.34838 ; retract
G92 E0 ; reset extrusion distance
G1 X78.724 Y104.468 F7800.000 ; move to first brim point
G1 F1800.000 E1.00000 ; compensate retraction
G1 X78.884 Y104.308 F756.000 E1.01542 ; brim
G1 X80.911 Y104.308 E1.15352 ; brim
G1 X81.071 Y104.468 E1.16894 ; brim
G1 X81.071 Y105.294 E1.22525 ; brim
G1 X80.911 Y105.454 E1.24067 ; brim
G1 X78.884 Y105.454 E1.37877 ; brim
G1 X78.724 Y105.294 E1.39419 ; brim
