; generated by Slic3r 0.9.9 on 2014-04-06 at 00:10:03

; layer_height = 0.2
; perimeters = 3
; top_solid_layers = 3
; bottom_solid_layers = 3
; fill_density = 0.2
; perimeter_speed = 36
; infill_speed = 60
; travel_speed = 130
; nozzle_diameter = 0.35
; filament_diameter = 1.75
; extrusion_multiplier = 1
; perimeters extrusion width = 0.52mm
; infill extrusion width = 0.52mm
; solid infill extrusion width = 0.52mm
; top infill extrusion width = 0.52mm
; support material extrusion width = 0.52mm
; first layer extrusion width = 0.60mm

G21 ; set units to millimeters
M107 ; disable fan
M190 S95 ; wait for bed temperature to be reached
M104 S225 ; set temperature
G28 ; home all axes
G1 Z5 F5000 ; lift nozzle
M109 S225 ; wait for temperature to be reached
G90 ; use absolute coordinates
G92 E0 ; reset extrusion distance
M82 ; use absolute distances for extrusion
G1 F1800.000 E-1.00000 ; retract
G92 E0 ; reset extrusion distance
G1 Z0.300 F7800.000 ; move to next layer (0)
G1 X59.467 Y73.087 ; move to first skirt point
G1 F1800.000 E1.00000 ; compensate retraction
G1 X60.817 Y71.997 F756.000 E1.11824 ; skirt
G1 X61.107 Y71.787 E1.14264 ; skirt
G1 X79.467 Y59.767 E2.63803 ; skirt
G1 X79.657 Y59.647 E2.65334 ; skirt
G1 X80.067 Y59.457 E2.68414 ; skirt
G1 X80.507 Y59.307 E2.71581 ; skirt
G1 X80.727 Y59.257 E2.73119 ; skirt
G1 X80.947 Y59.217 E2.74642 ; skirt
G1 X81.407 Y59.187 E2.77784 ; skirt
G1 X119.097 Y59.187 E5.34617 ; skirt
G1 X119.557 Y59.217 E5.37759 ; skirt
G1 X119.997 Y59.307 E5.40819 ; skirt
G1 X120.437 Y59.457 E5.43987 ; skirt
G1 X120.847 Y59.647 E5.47066 ; skirt
G1 X139.397 Y71.787 E6.98137 ; skirt
G1 X139.687 Y71.997 E7.00577 ; skirt
G1 X141.037 Y73.087 E7.12400 ; skirt
G1 X141.287 Y73.307 E7.14670 ; skirt
G1 X141.617 Y73.687 E7.18099 ; skirt
G1 X142.627 Y75.007 E7.29425 ; skirt
G1 X142.837 Y75.387 E7.32384 ; skirt
G1 X143.367 Y76.477 E7.40643 ; skirt
G1 X143.537 Y76.897 E7.43731 ; skirt
G1 X143.907 Y77.997 E7.51639 ; skirt
G1 X144.017 Y78.377 E7.54335 ; skirt
G1 X144.237 Y80.027 E7.65678 ; skirt
G1 X145.787 Y110.287 E9.72151 ; skirt
G1 X145.787 Y114.657 E10.01930 ; skirt
G1 X145.727 Y115.917 E10.10526 ; skirt
G1 X145.527 Y117.467 E10.21176 ; skirt
G1 X145.477 Y117.727 E10.22980 ; skirt
G1 X145.397 Y117.987 E10.24834 ; skirt
G1 X145.027 Y119.077 E10.32678 ; skirt
G1 X144.867 Y119.467 E10.35550 ; skirt
G1 X144.207 Y120.817 E10.45790 ; skirt
G1 X144.057 Y121.057 E10.47719 ; skirt
G1 X143.127 Y122.277 E10.58172 ; skirt
G1 X142.797 Y122.657 E10.61602 ; skirt
G1 X141.207 Y123.967 E10.75640 ; skirt
G1 X140.907 Y124.187 E10.78176 ; skirt
G1 X122.557 Y136.207 E12.27658 ; skirt
G1 X122.227 Y136.397 E12.30253 ; skirt
G1 X121.707 Y136.617 E12.34100 ; skirt
G1 X118.117 Y137.767 E12.59788 ; skirt
G1 X117.677 Y137.847 E12.62836 ; skirt
G1 X117.237 Y137.877 E12.65841 ; skirt
G1 X86.237 Y137.877 E14.77087 ; skirt
G1 X85.797 Y137.847 E14.80092 ; skirt
G1 X85.357 Y137.767 E14.83139 ; skirt
G1 X81.777 Y136.607 E15.08784 ; skirt
G1 X81.247 Y136.397 E15.12668 ; skirt
G1 X80.927 Y136.207 E15.15204 ; skirt
G1 X62.567 Y124.187 E16.64744 ; skirt
G1 X62.267 Y123.967 E16.67279 ; skirt
G1 X60.797 Y122.767 E16.80210 ; skirt
G1 X60.677 Y122.657 E16.81319 ; skirt
G1 X60.347 Y122.277 E16.84749 ; skirt
G1 X59.337 Y120.937 E16.96183 ; skirt
G1 X59.127 Y120.557 E16.99142 ; skirt
G1 X58.607 Y119.467 E17.07371 ; skirt
G1 X58.447 Y119.077 E17.10244 ; skirt
G1 X57.997 Y117.717 E17.20006 ; skirt
G1 X57.917 Y117.297 E17.22919 ; skirt
G1 X57.757 Y115.937 E17.32251 ; skirt
G1 X56.207 Y85.677 E19.38724 ; skirt
G1 X56.207 Y81.307 E19.68503 ; skirt
G1 X56.297 Y79.737 E19.79219 ; skirt
G1 X56.487 Y78.377 E19.88576 ; skirt
G1 X56.597 Y77.997 E19.91272 ; skirt
G1 X56.967 Y76.897 E19.99181 ; skirt
G1 X57.137 Y76.477 E20.02268 ; skirt
G1 X57.667 Y75.387 E20.10527 ; skirt
G1 X57.877 Y75.007 E20.13486 ; skirt
G1 X58.887 Y73.687 E20.24812 ; skirt
G1 X59.217 Y73.307 E20.28242 ; skirt
G1 X59.406 Y73.142 E20.29953 ; skirt
G1 F1800.000 E19.29953 ; retract
G92 E0 ; reset extrusion distance
G1 X65.853 Y102.618 F7800.000 ; move to first brim point
G1 F1800.000 E1.00000 ; compensate retraction
G1 X95.233 Y102.618 F756.000 E3.00209 ; brim
G1 X95.713 Y103.098 E3.04836 ; brim
G1 X95.713 Y104.377 E3.13551 ; brim
G1 X95.233 Y104.857 E3.18177 ; brim
G1 X95.113 Y104.857 E3.18994 ; brim
G1 X95.113 Y108.303 E3.42477 ; brim
G1 X95.372 Y108.562 E3.44968 ; brim
G1 X95.372 Y113.119 E3.76021 ; brim
G1 X95.113 Y113.377 E3.78511 ; brim
G1 X95.113 Y116.823 E4.01994 ; brim
G1 X95.233 Y116.823 E4.02811 ; brim
G1 X95.713 Y117.303 E4.07438 ; brim
G1 X95.713 Y117.916 E4.11613 ; brim
G1 X107.774 Y117.916 E4.93799 ; brim
G1 X107.774 Y117.303 E4.97974 ; brim
G1 X108.254 Y116.823 E5.02600 ; brim
G1 X108.374 Y116.823 E5.03417 ; brim
G1 X108.374 Y113.377 E5.26900 ; brim
G1 X108.115 Y113.119 E5.29391 ; brim
G1 X108.115 Y108.562 E5.60444 ; brim
G1 X108.374 Y108.303 E5.62934 ; brim
G1 X108.374 Y104.857 E5.86417 ; brim
G1 X108.254 Y104.857 E5.87235 ; brim
G1 X107.774 Y104.377 E5.91861 ; brim
G1 X107.774 Y103.098 E6.00576 ; brim
G1 X108.254 Y102.618 E6.05202 ; brim
G1 X137.634 Y102.618 E8.05411 ; brim
G1 X137.833 Y102.668 E8.06805 ; brim
G1 X140.869 Y104.314 E8.30338 ; brim
G1 X141.095 Y104.829 E8.34172 ; brim
G1 X141.085 Y104.867 E8.34441 ; brim
G1 X141.316 Y104.987 E8.36213 ; brim
G1 X142.734 Y106.989 E8.52933 ; brim
G1 X143.073 Y106.989 E8.55244 ; brim
G1 X143.554 Y107.469 E8.59871 ; brim
G1 X143.554 Y108.748 E8.68586 ; brim
G1 X143.209 Y109.092 E8.71902 ; brim
G1 X143.364 Y110.267 E8.79978 ; brim
G1 X143.483 Y110.267 E8.80788 ; brim
G1 X143.963 Y110.747 E8.85414 ; brim
G1 X143.963 Y112.026 E8.94129 ; brim
G1 X143.483 Y112.506 E8.98756 ; brim
G1 X143.363 Y112.506 E8.99573 ; brim
G1 X143.363 Y114.021 E9.09895 ; brim
G1 X143.396 Y114.055 E9.10217 ; brim
G1 X143.282 Y116.287 E9.25445 ; brim
G1 X143.373 Y116.414 E9.26511 ; brim
G1 X142.623 Y118.634 E9.42480 ; brim
G1 X142.719 Y118.830 E9.43969 ; brim
G1 X140.994 Y121.079 E9.63283 ; brim
G1 X140.624 Y121.248 E9.66054 ; brim
G1 X140.656 Y121.461 E9.67526 ; brim
G1 X140.331 Y121.976 E9.71674 ; brim
G1 X135.620 Y123.415 E10.05243 ; brim
G1 X135.499 Y123.433 E10.06072 ; brim
G1 X126.744 Y123.433 E10.65735 ; brim
G1 X125.302 Y124.936 E10.79925 ; brim
G1 X125.319 Y124.952 E10.80084 ; brim
G1 X125.319 Y126.231 E10.88799 ; brim
G1 X124.839 Y126.711 E10.93425 ; brim
G1 X124.450 Y126.711 E10.96075 ; brim
G1 X124.369 Y127.750 E11.03177 ; brim
G1 X124.412 Y127.750 E11.03476 ; brim
G1 X124.892 Y128.230 E11.08102 ; brim
G1 X124.892 Y129.509 E11.16817 ; brim
G1 X124.412 Y129.989 E11.21444 ; brim
G1 X124.208 Y129.989 E11.22835 ; brim
G1 X123.453 Y131.813 E11.36287 ; brim
G1 X123.554 Y132.074 E11.38195 ; brim
G1 X121.176 Y134.249 E11.60153 ; brim
G1 X120.890 Y134.360 E11.62246 ; brim
G1 X118.964 Y134.360 E11.75373 ; brim
G1 X118.964 Y134.973 E11.79548 ; brim
G1 X118.484 Y135.453 E11.84174 ; brim
G1 X117.131 Y135.453 E11.93391 ; brim
G1 X117.004 Y135.433 E11.94267 ; brim
G1 X112.503 Y133.976 E12.26509 ; brim
G1 X112.186 Y133.460 E12.30631 ; brim
G1 X112.224 Y133.222 E12.32274 ; brim
G1 X111.949 Y133.076 E12.34393 ; brim
G1 X110.411 Y130.807 E12.53074 ; brim
G1 X110.470 Y130.697 E12.53921 ; brim
G1 X110.099 Y128.320 E12.70310 ; brim
G1 X110.158 Y128.252 E12.70927 ; brim
G1 X110.007 Y126.323 E12.84109 ; brim
G1 X109.068 Y124.526 E12.97928 ; brim
G1 X108.029 Y124.526 E13.05007 ; brim
G1 X107.549 Y124.046 E13.09633 ; brim
G1 X107.549 Y123.433 E13.13808 ; brim
G1 X95.938 Y123.433 E13.92932 ; brim
G1 X95.938 Y124.046 E13.97107 ; brim
G1 X95.458 Y124.526 E14.01733 ; brim
G1 X94.419 Y124.526 E14.08811 ; brim
G1 X93.480 Y126.323 E14.22631 ; brim
G1 X93.329 Y128.252 E14.35813 ; brim
G1 X93.388 Y128.320 E14.36429 ; brim
G1 X93.017 Y130.697 E14.52819 ; brim
G1 X93.076 Y130.807 E14.53666 ; brim
G1 X91.538 Y133.076 E14.72347 ; brim
G1 X91.263 Y133.222 E14.74465 ; brim
G1 X91.301 Y133.460 E14.76108 ; brim
G1 X90.984 Y133.976 E14.80231 ; brim
G1 X86.483 Y135.433 E15.12473 ; brim
G1 X86.356 Y135.453 E15.13348 ; brim
G1 X85.003 Y135.453 E15.22566 ; brim
G1 X84.523 Y134.973 E15.27192 ; brim
G1 X84.523 Y134.360 E15.31367 ; brim
G1 X82.597 Y134.360 E15.44494 ; brim
G1 X82.311 Y134.249 E15.46586 ; brim
G1 X80.043 Y132.175 E15.67529 ; brim
G1 X79.693 Y132.175 E15.69916 ; brim
G1 X79.213 Y131.694 E15.74542 ; brim
G1 X79.213 Y130.416 E15.83257 ; brim
G1 X79.389 Y130.239 E15.84958 ; brim
G1 X79.186 Y128.896 E15.94211 ; brim
G1 X79.004 Y128.896 E15.95451 ; brim
G1 X78.524 Y128.416 E16.00077 ; brim
G1 X78.524 Y127.137 E16.08792 ; brim
G1 X78.999 Y126.662 E16.13373 ; brim
G1 X78.707 Y125.480 E16.21672 ; brim
G1 X76.743 Y123.433 E16.41001 ; brim
G1 X66.854 Y123.433 E17.08391 ; brim
G1 X66.374 Y122.953 E17.13017 ; brim
G1 X66.374 Y122.340 E17.17192 ; brim
G1 X64.268 Y122.340 E17.31543 ; brim
G1 X64.001 Y122.245 E17.33471 ; brim
G1 X61.435 Y120.155 E17.56024 ; brim
G1 X61.097 Y120.155 E17.58331 ; brim
G1 X60.617 Y119.675 E17.62957 ; brim
G1 X60.617 Y118.396 E17.71672 ; brim
G1 X60.742 Y118.271 E17.72875 ; brim
G1 X60.114 Y116.414 E17.86234 ; brim
G1 X60.205 Y116.287 E17.87300 ; brim
G1 X60.091 Y114.055 E18.02528 ; brim
G1 X60.124 Y114.021 E18.02850 ; brim
G1 X60.124 Y112.506 E18.13172 ; brim
G1 X60.004 Y112.506 E18.13989 ; brim
G1 X59.524 Y112.026 E18.18615 ; brim
G1 X59.529 Y109.654 E18.34777 ; brim
G1 X60.009 Y109.174 E18.39403 ; brim
G1 X60.248 Y109.174 E18.41030 ; brim
G1 X60.663 Y107.432 E18.53232 ; brim
G1 X60.568 Y107.249 E18.54639 ; brim
G1 X62.171 Y104.987 E18.73532 ; brim
G1 X62.402 Y104.867 E18.75305 ; brim
G1 X62.392 Y104.829 E18.75573 ; brim
G1 X62.618 Y104.314 E18.79407 ; brim
G1 X65.654 Y102.668 E19.02940 ; brim
G1 X65.773 Y102.638 E19.03775 ; brim
G1 F1800.000 E18.03775 ; retract
G92 E0 ; reset extrusion distance
G1 X116.984 Y127.804 F7800.000 ; move to first brim point
G1 F1800.000 E1.00000 ; compensate retraction
G1 X117.503 Y127.804 F756.000 E1.03542 ; brim
G1 X117.511 Y128.843 E1.10622 ; brim
G1 X116.976 Y128.843 E1.14269 ; brim
G1 X116.983 Y127.886 E1.20792 ; brim
G1 F1800.000 E0.20792 ; retract
G92 E0 ; reset extrusion distance
G1 X86.503 Y127.804 F7800.000 ; move to first brim point
G1 F1800.000 E1.00000 ; compensate retraction
G1 X86.511 Y128.843 F756.000 E1.07081 ; brim
G1 X85.976 Y128.843 E1.10728 ; brim
G1 X85.984 Y127.804 E1.17808 ; brim
G1 X86.421 Y127.804 E1.20792 ; brim
G1 F1800.000 E0.20792 ; retract
G92 E0 ; reset extrusion distance
G1 X134.483 Y111.360 F7800.000 ; move to first brim point
G1 F1800.000 E1.00000 ; compensate retraction
G1 X134.477 Y110.321 F756.000 E1.07081 ; brim
G1 X135.010 Y110.321 E1.10712 ; brim
G1 X135.004 Y111.360 E1.17793 ; brim
G1 X134.564 Y111.360 E1.20792 ; brim
G1 F1800.000 E0.20792 ; retract
G92 E0 ; reset extrusion distance
G1 X69.004 Y111.360 F7800.000 ; move to first brim point
G1 F1800.000 E1.00000 ; compensate retraction
G1 X68.483 Y111.360 F756.000 E1.03557 ; brim
G1 X68.477 Y110.321 E1.10638 ; brim
G1 X69.010 Y110.321 E1.14270 ; brim
G1 X69.005 Y111.278 E1.20792 ; brim
G1 F1800.000 E0.20792 ; retract
G92 E0 ; reset extrusion distance
G1 X64.313 Y93.361 F7800.000 ; move to first brim point
G1 F1800.000 E1.00000 ; compensate retraction
G1 X64.113 Y93.310 F756.000 E1.01408 ; brim
G1 X61.103 Y91.660 E1.24797 ; brim
G1 X60.880 Y91.144 E1.28623 ; brim
G1 X60.889 Y91.107 E1.28884 ; brim
G1 X60.665 Y90.991 E1.30609 ; brim
G1 X59.076 Y88.727 E1.49454 ; brim
G1 X59.167 Y88.553 E1.50789 ; brim
G1 X58.759 Y86.805 E1.63020 ; brim
G1 X58.519 Y86.805 E1.64656 ; brim
G1 X58.039 Y86.325 E1.69283 ; brim
G1 X58.039 Y85.046 E1.77998 ; brim
G1 X58.519 Y84.566 E1.82624 ; brim
G1 X58.637 Y84.566 E1.83426 ; brim
G1 X58.637 Y83.527 E1.90506 ; brim
G1 X58.517 Y83.527 E1.91323 ; brim
G1 X58.037 Y83.047 E1.95950 ; brim
G1 X58.037 Y81.768 E2.04665 ; brim
G1 X58.517 Y81.288 E2.09291 ; brim
G1 X58.637 Y81.288 E2.10107 ; brim
G1 X58.722 Y79.696 E2.20971 ; brim
G1 X58.627 Y79.562 E2.22091 ; brim
G1 X59.265 Y77.702 E2.35490 ; brim
G1 X59.146 Y77.583 E2.36638 ; brim
G1 X59.146 Y76.304 E2.45353 ; brim
G1 X59.626 Y75.824 E2.49979 ; brim
G1 X60.223 Y75.824 E2.54050 ; brim
G1 X60.303 Y75.544 E2.56035 ; brim
G1 X62.545 Y73.732 E2.75675 ; brim
G1 X62.810 Y73.639 E2.77591 ; brim
G1 X69.951 Y73.639 E3.26256 ; brim
G1 X69.951 Y73.026 E3.30431 ; brim
G1 X70.431 Y72.546 E3.35057 ; brim
G1 X75.090 Y72.546 E3.66801 ; brim
G1 X75.090 Y71.933 E3.70976 ; brim
G1 X75.570 Y71.453 E3.75603 ; brim
G1 X76.601 Y71.453 E3.82627 ; brim
G1 X77.523 Y69.663 E3.96349 ; brim
G1 X77.670 Y67.724 E4.09602 ; brim
G1 X77.611 Y67.655 E4.10219 ; brim
G1 X77.990 Y65.284 E4.26585 ; brim
G1 X77.930 Y65.169 E4.27468 ; brim
G1 X79.481 Y62.901 E4.46195 ; brim
G1 X79.688 Y62.792 E4.47785 ; brim
G1 X79.688 Y62.099 E4.52508 ; brim
G1 X80.168 Y61.619 E4.57134 ; brim
G1 X88.374 Y61.619 E5.13052 ; brim
G1 X88.659 Y61.729 E5.15131 ; brim
G1 X90.949 Y63.804 E5.36196 ; brim
G1 X91.299 Y63.804 E5.38577 ; brim
G1 X91.779 Y64.284 E5.43204 ; brim
G1 X91.779 Y65.563 E5.51919 ; brim
G1 X91.602 Y65.740 E5.53625 ; brim
G1 X91.812 Y67.082 E5.62882 ; brim
G1 X91.996 Y67.082 E5.64135 ; brim
G1 X92.476 Y67.563 E5.68761 ; brim
G1 X92.476 Y68.841 E5.77476 ; brim
G1 X91.997 Y69.320 E5.82091 ; brim
G1 X92.284 Y70.504 E5.90387 ; brim
G1 X94.222 Y72.546 E6.09574 ; brim
G1 X96.986 Y72.546 E6.28410 ; brim
G1 X97.001 Y72.561 E6.28551 ; brim
G1 X97.015 Y72.546 E6.28691 ; brim
G1 X103.498 Y72.546 E6.72868 ; brim
G1 X103.512 Y72.561 E6.73008 ; brim
G1 X103.527 Y72.546 E6.73149 ; brim
G1 X106.291 Y72.546 E6.91985 ; brim
G1 X108.229 Y70.504 E7.11172 ; brim
G1 X108.516 Y69.320 E7.19468 ; brim
G1 X108.037 Y68.841 E7.24083 ; brim
G1 X108.037 Y67.563 E7.32798 ; brim
G1 X108.517 Y67.082 E7.37424 ; brim
G1 X108.701 Y67.082 E7.38677 ; brim
G1 X108.911 Y65.740 E7.47934 ; brim
G1 X108.734 Y65.563 E7.49640 ; brim
G1 X108.734 Y64.284 E7.58355 ; brim
G1 X109.214 Y63.804 E7.62982 ; brim
G1 X109.564 Y63.804 E7.65363 ; brim
G1 X111.854 Y61.729 E7.86427 ; brim
G1 X112.139 Y61.619 E7.88507 ; brim
G1 X120.345 Y61.619 E8.44425 ; brim
G1 X120.825 Y62.099 E8.49051 ; brim
G1 X120.825 Y62.792 E8.53774 ; brim
G1 X121.032 Y62.901 E8.55364 ; brim
G1 X122.583 Y65.169 E8.74091 ; brim
G1 X122.523 Y65.284 E8.74974 ; brim
G1 X122.902 Y67.655 E8.91340 ; brim
G1 X122.843 Y67.724 E8.91957 ; brim
G1 X122.990 Y69.663 E9.05210 ; brim
G1 X123.912 Y71.453 E9.18932 ; brim
G1 X124.943 Y71.453 E9.25956 ; brim
G1 X125.423 Y71.933 E9.30583 ; brim
G1 X125.423 Y72.546 E9.34757 ; brim
G1 X130.085 Y72.546 E9.66522 ; brim
G1 X130.565 Y73.026 E9.71149 ; brim
G1 X130.565 Y73.639 E9.75323 ; brim
G1 X138.696 Y73.639 E10.30733 ; brim
G1 X139.176 Y74.119 E10.35359 ; brim
G1 X139.176 Y74.745 E10.39629 ; brim
G1 X139.491 Y74.900 E10.42019 ; brim
G1 X141.216 Y77.149 E10.61333 ; brim
G1 X141.123 Y77.338 E10.62771 ; brim
G1 X141.886 Y79.562 E10.78792 ; brim
G1 X141.791 Y79.696 E10.79912 ; brim
G1 X141.910 Y81.922 E10.95108 ; brim
G1 X141.876 Y81.958 E10.95446 ; brim
G1 X141.876 Y83.473 E11.05767 ; brim
G1 X141.996 Y83.473 E11.06584 ; brim
G1 X142.476 Y83.953 E11.11210 ; brim
G1 X142.476 Y85.232 E11.19925 ; brim
G1 X141.996 Y85.712 E11.24552 ; brim
G1 X141.880 Y85.712 E11.25343 ; brim
G1 X141.726 Y86.882 E11.33382 ; brim
G1 X142.075 Y87.231 E11.36750 ; brim
G1 X142.075 Y88.510 E11.45465 ; brim
G1 X141.595 Y88.990 E11.50091 ; brim
G1 X141.252 Y88.990 E11.52431 ; brim
G1 X139.848 Y90.991 E11.69083 ; brim
G1 X139.624 Y91.107 E11.70808 ; brim
G1 X139.633 Y91.144 E11.71069 ; brim
G1 X139.410 Y91.660 E11.74895 ; brim
G1 X136.400 Y93.310 E11.98284 ; brim
G1 X136.200 Y93.361 E11.99692 ; brim
G1 X106.767 Y93.361 E14.00260 ; brim
G1 X106.287 Y92.881 E14.04887 ; brim
G1 X106.287 Y91.602 E14.13602 ; brim
G1 X106.767 Y91.122 E14.18228 ; brim
G1 X106.887 Y91.122 E14.19046 ; brim
G1 X106.887 Y87.676 E14.42528 ; brim
G1 X106.628 Y87.417 E14.45019 ; brim
G1 X106.628 Y82.860 E14.76072 ; brim
G1 X106.887 Y82.602 E14.78563 ; brim
G1 X106.887 Y79.156 E15.02045 ; brim
G1 X106.767 Y79.156 E15.02863 ; brim
G1 X106.287 Y78.676 E15.07489 ; brim
G1 X106.287 Y78.063 E15.11664 ; brim
