; generated by Slic3r 0.9.9 on 2014-04-06 at 00:21:02

; layer_height = 0.2
; perimeters = 3
; top_solid_layers = 3
; bottom_solid_layers = 3
; fill_density = 0.2
; perimeter_speed = 36
; infill_speed = 60
; travel_speed = 130
; nozzle_diameter = 0.35
; filament_diameter = 1.75
; extrusion_multiplier = 1
; perimeters extrusion width = 0.52mm
; infill extrusion width = 0.52mm
; solid infill extrusion width = 0.52mm
; top infill extrusion width = 0.52mm
; support material extrusion width = 0.52mm
; first layer extrusion width = 0.60mm

G21 ; set units to millimeters
M107 ; disable fan
M190 S95 ; wait for bed temperature to be reached
M104 S225 ; set temperature
G28 ; home all axes
G1 Z5 F5000 ; lift nozzle
M109 S225 ; wait for temperature to be reached
G90 ; use absolute coordinates
G92 E0 ; reset extrusion distance
M82 ; use absolute distances for extrusion
G1 F1800.000 E-1.00000 ; retract
G92 E0 ; reset extrusion distance
G1 Z0.300 F7800.000 ; move to next layer (0)
G1 X70.861 Y53.169 ; move to first skirt point
G1 F1800.000 E1.00000 ; compensate retraction
G1 X71.281 Y52.709 F756.000 E1.04245 ; skirt
G1 X71.591 Y52.449 E1.07002 ; skirt
G1 X71.931 Y52.219 E1.09799 ; skirt
G1 X72.301 Y52.039 E1.12603 ; skirt
G1 X72.691 Y51.899 E1.15426 ; skirt
G1 X73.291 Y51.779 E1.19596 ; skirt
G1 X73.701 Y51.749 E1.22397 ; skirt
G1 X94.791 Y51.749 E2.66113 ; skirt
G1 X95.211 Y51.779 E2.68982 ; skirt
G1 X95.631 Y51.849 E2.71883 ; skirt
G1 X96.231 Y52.059 E2.76215 ; skirt
G1 X96.611 Y52.249 E2.79110 ; skirt
G1 X96.961 Y52.489 E2.82002 ; skirt
G1 X97.281 Y52.769 E2.84900 ; skirt
G1 X97.421 Y52.919 E2.86298 ; skirt
G1 X129.131 Y88.049 E6.08787 ; skirt
G1 X129.271 Y88.209 E6.10236 ; skirt
G1 X129.511 Y88.549 E6.13072 ; skirt
G1 X129.611 Y88.729 E6.14475 ; skirt
G1 X129.791 Y89.109 E6.17340 ; skirt
G1 X129.921 Y89.499 E6.20142 ; skirt
G1 X130.011 Y89.909 E6.23002 ; skirt
G1 X130.041 Y90.319 E6.25803 ; skirt
G1 X130.561 Y107.819 E7.45107 ; skirt
G1 X130.531 Y108.449 E7.49405 ; skirt
G1 X130.441 Y108.859 E7.52266 ; skirt
G1 X130.231 Y109.439 E7.56469 ; skirt
G1 X130.031 Y109.809 E7.59335 ; skirt
G1 X112.261 Y138.259 E9.87914 ; skirt
G1 X112.141 Y138.439 E9.89388 ; skirt
G1 X111.871 Y138.769 E9.92294 ; skirt
G1 X111.721 Y138.929 E9.93788 ; skirt
G1 X111.391 Y139.209 E9.96737 ; skirt
G1 X111.031 Y139.449 E9.99686 ; skirt
G1 X98.311 Y146.849 E10.99966 ; skirt
G1 X95.541 Y148.239 E11.21085 ; skirt
G1 X94.971 Y148.469 E11.25273 ; skirt
G1 X94.571 Y148.559 E11.28067 ; skirt
G1 X94.171 Y148.609 E11.30814 ; skirt
G1 X93.961 Y148.619 E11.32247 ; skirt
G1 X93.351 Y148.569 E11.36417 ; skirt
G1 X93.151 Y148.529 E11.37807 ; skirt
G1 X92.761 Y148.409 E11.40588 ; skirt
G1 X92.571 Y148.339 E11.41968 ; skirt
G1 X92.211 Y148.159 E11.44710 ; skirt
G1 X91.861 Y147.939 E11.47527 ; skirt
G1 X91.401 Y147.539 E11.51681 ; skirt
G1 X90.321 Y146.289 E11.62938 ; skirt
G1 X89.991 Y145.849 E11.66686 ; skirt
G1 X70.581 Y111.959 E14.32820 ; skirt
G1 X70.401 Y111.609 E14.35502 ; skirt
G1 X70.211 Y111.039 E14.39597 ; skirt
G1 X69.581 Y108.459 E14.57694 ; skirt
G1 X69.501 Y107.949 E14.61212 ; skirt
G1 X69.481 Y107.599 E14.63601 ; skirt
G1 X69.751 Y56.359 E18.12774 ; skirt
G1 X69.791 Y55.869 E18.16124 ; skirt
G1 X69.971 Y55.149 E18.21182 ; skirt
G1 X70.451 Y53.879 E18.30433 ; skirt
G1 X70.641 Y53.509 E18.33268 ; skirt
G1 X70.816 Y53.238 E18.35469 ; skirt
G1 F1800.000 E17.35469 ; retract
G92 E0 ; reset extrusion distance
G1 X72.814 Y54.468 F7800.000 ; move to first brim point
G1 F1800.000 E1.00000 ; compensate retraction
G1 X73.236 Y54.174 F756.000 E1.03504 ; brim
G1 X75.597 Y54.174 E1.19591 ; brim
G1 X76.077 Y54.654 E1.24217 ; brim
G1 X76.077 Y55.443 E1.29592 ; brim
G1 X92.447 Y55.443 E2.41148 ; brim
G1 X92.447 Y54.656 E2.46509 ; brim
G1 X92.927 Y54.176 E2.51136 ; brim
G1 X95.266 Y54.176 E2.67068 ; brim
G1 X95.689 Y54.473 E2.70593 ; brim
G1 X95.978 Y55.269 E2.76361 ; brim
G1 X96.433 Y55.269 E2.79461 ; brim
G1 X96.913 Y55.749 E2.84088 ; brim
G1 X96.913 Y57.028 E2.92803 ; brim
G1 X96.433 Y57.508 E2.97429 ; brim
G1 X96.194 Y57.508 E2.99054 ; brim
G1 X96.020 Y57.682 E3.00732 ; brim
G1 X95.901 Y57.682 E3.01546 ; brim
G1 X95.915 Y89.316 E5.17116 ; brim
G1 X96.035 Y89.316 E5.17937 ; brim
G1 X96.515 Y89.796 E5.22563 ; brim
G1 X96.515 Y90.409 E5.26738 ; brim
G1 X123.668 Y90.409 E7.11767 ; brim
G1 X123.668 Y89.796 E7.15942 ; brim
G1 X124.148 Y89.316 E7.20568 ; brim
G1 X127.145 Y89.316 E7.40990 ; brim
G1 X127.625 Y89.799 E7.45630 ; brim
G1 X127.618 Y91.599 E7.57894 ; brim
G1 X128.001 Y91.982 E7.61587 ; brim
G1 X128.001 Y93.261 E7.70302 ; brim
G1 X127.521 Y93.741 E7.74929 ; brim
G1 X127.402 Y93.741 E7.75741 ; brim
G1 X127.409 Y106.815 E8.64835 ; brim
G1 X128.261 Y106.815 E8.70639 ; brim
G1 X128.741 Y107.295 E8.75265 ; brim
G1 X128.741 Y108.574 E8.83980 ; brim
G1 X128.261 Y109.054 E8.88607 ; brim
G1 X127.643 Y109.054 E8.92818 ; brim
G1 X127.643 Y109.667 E8.96993 ; brim
G1 X127.163 Y110.147 E9.01619 ; brim
G1 X125.013 Y110.147 E9.16269 ; brim
G1 X124.529 Y109.398 E9.22348 ; brim
G1 X124.691 Y109.039 E9.25032 ; brim
G1 X109.245 Y109.039 E10.30286 ; brim
G1 X109.245 Y109.651 E10.34461 ; brim
G1 X108.765 Y110.131 E10.39087 ; brim
G1 X107.105 Y110.131 E10.50397 ; brim
G1 X104.601 Y112.219 E10.72610 ; brim
G1 X104.504 Y112.254 E10.73317 ; brim
G1 X103.164 Y114.102 E10.88869 ; brim
G1 X102.353 Y116.114 E11.03651 ; brim
G1 X102.035 Y118.160 E11.17759 ; brim
G1 X102.182 Y120.218 E11.31824 ; brim
G1 X102.202 Y120.233 E11.31994 ; brim
G1 X102.833 Y122.293 E11.46675 ; brim
G1 X102.899 Y122.333 E11.47194 ; brim
G1 X104.028 Y124.470 E11.63668 ; brim
G1 X104.083 Y124.501 E11.64100 ; brim
G1 X109.700 Y134.175 E12.40324 ; brim
G1 X110.835 Y134.175 E12.48059 ; brim
G1 X111.315 Y134.655 E12.52686 ; brim
G1 X111.315 Y135.934 E12.61401 ; brim
G1 X110.971 Y136.278 E12.64720 ; brim
G1 X110.971 Y137.026 E12.69819 ; brim
G1 X110.491 Y137.507 E12.74445 ; brim
G1 X108.678 Y137.507 E12.86796 ; brim
G1 X108.446 Y137.302 E12.88905 ; brim
G1 X106.391 Y138.486 E13.05067 ; brim
G1 X106.183 Y138.542 E13.06534 ; brim
G1 X105.687 Y138.542 E13.09912 ; brim
G1 X105.496 Y139.001 E13.13302 ; brim
G1 X102.596 Y140.671 E13.36107 ; brim
G1 X102.388 Y140.727 E13.37574 ; brim
G1 X101.893 Y140.727 E13.40952 ; brim
G1 X101.702 Y141.186 E13.44342 ; brim
G1 X98.802 Y142.857 E13.67147 ; brim
G1 X98.594 Y142.912 E13.68614 ; brim
G1 X98.028 Y142.912 E13.72470 ; brim
G1 X98.255 Y143.149 E13.74704 ; brim
G1 X98.255 Y144.428 E13.83419 ; brim
G1 X97.775 Y144.908 E13.88046 ; brim
G1 X95.680 Y144.908 E14.02317 ; brim
G1 X95.680 Y145.710 E14.07782 ; brim
G1 X95.200 Y146.190 E14.12409 ; brim
G1 X93.647 Y146.190 E14.22994 ; brim
G1 X93.324 Y146.044 E14.25411 ; brim
G1 X91.381 Y143.820 E14.45536 ; brim
G1 X91.806 Y142.884 E14.52541 ; brim
G1 X87.401 Y135.263 E15.12521 ; brim
G1 X86.807 Y135.263 E15.16565 ; brim
G1 X86.327 Y134.783 E15.21191 ; brim
G1 X86.327 Y133.504 E15.29906 ; brim
G1 X86.363 Y133.468 E15.30253 ; brim
G1 X85.506 Y131.985 E15.41927 ; brim
G1 X84.913 Y131.985 E15.45971 ; brim
G1 X84.432 Y131.505 E15.50597 ; brim
G1 X84.432 Y130.226 E15.59312 ; brim
G1 X84.468 Y130.190 E15.59659 ; brim
G1 X73.561 Y111.319 E17.08189 ; brim
G1 X73.003 Y111.319 E17.11988 ; brim
G1 X72.519 Y110.812 E17.16770 ; brim
G1 X72.546 Y110.227 E17.20761 ; brim
G1 X72.347 Y110.227 E17.22119 ; brim
G1 X71.867 Y109.747 E17.26746 ; brim
G1 X71.867 Y108.741 E17.33602 ; brim
G1 X71.783 Y108.741 E17.34177 ; brim
G1 X71.302 Y108.260 E17.38804 ; brim
G1 X71.302 Y106.982 E17.47519 ; brim
G1 X71.783 Y106.501 E17.52145 ; brim
G1 X72.589 Y106.501 E17.57638 ; brim
G1 X72.589 Y103.575 E17.77579 ; brim
G1 X72.469 Y103.575 E17.78397 ; brim
G1 X71.989 Y103.095 E17.83023 ; brim
G1 X71.989 Y101.816 E17.91738 ; brim
G1 X72.469 Y101.336 E17.96364 ; brim
G1 X72.589 Y101.336 E17.97182 ; brim
G1 X72.589 Y100.297 E18.04262 ; brim
G1 X72.469 Y100.297 E18.05079 ; brim
G1 X71.989 Y99.817 E18.09706 ; brim
G1 X71.989 Y98.538 E18.18421 ; brim
G1 X72.469 Y98.058 E18.23047 ; brim
G1 X72.589 Y98.058 E18.23864 ; brim
G1 X72.589 Y90.463 E18.75621 ; brim
G1 X72.469 Y90.463 E18.76439 ; brim
G1 X71.989 Y89.983 E18.81065 ; brim
G1 X71.989 Y88.704 E18.89780 ; brim
G1 X72.469 Y88.224 E18.94406 ; brim
G1 X72.589 Y88.224 E18.95224 ; brim
G1 X72.589 Y57.506 E21.04547 ; brim
G1 X72.438 Y57.506 E21.05577 ; brim
G1 X71.948 Y56.803 E21.11412 ; brim
G1 X72.785 Y54.545 E21.27824 ; brim
G1 F1800.000 E20.27824 ; retract
G92 E0 ; reset extrusion distance
G1 X99.250 Y132.850 F7800.000 ; move to first brim point
G1 F1800.000 E1.00000 ; compensate retraction
G1 X99.478 Y133.078 F756.000 E1.02193 ; brim
G1 X99.728 Y133.078 E1.03897 ; brim
G1 X99.255 Y134.075 E1.11415 ; brim
G1 X98.771 Y133.078 E1.18965 ; brim
G1 X99.022 Y133.078 E1.20675 ; brim
G1 X99.192 Y132.908 E1.22309 ; brim
G1 F1800.000 E0.22309 ; retract
G92 E0 ; reset extrusion distance
G1 X91.216 Y118.819 F7800.000 ; move to first brim point
G1 F1800.000 E1.00000 ; compensate retraction
G1 X90.876 Y118.819 F756.000 E1.02315 ; brim
G1 X90.876 Y118.207 E1.06490 ; brim
G1 X90.778 Y118.109 E1.07436 ; brim
G1 X90.778 Y117.780 E1.09673 ; brim
G1 X91.322 Y117.780 E1.13382 ; brim
G1 X91.224 Y118.738 E1.19941 ; brim
G1 F1800.000 E0.19941 ; retract
G92 E0 ; reset extrusion distance
G1 X118.661 Y101.390 F7800.000 ; move to first brim point
G1 F1800.000 E1.00000 ; compensate retraction
G1 X119.000 Y101.059 F756.000 E1.03231 ; brim
G1 X119.346 Y101.390 E1.06497 ; brim
G1 X119.005 Y101.906 E1.10714 ; brim
G1 X118.706 Y101.458 E1.14385 ; brim
G1 F1800.000 E0.14385 ; retract
G92 E0 ; reset extrusion distance
G1 X84.347 Y101.390 F7800.000 ; move to first brim point
G1 F1800.000 E1.00000 ; compensate retraction
G1 X84.005 Y101.906 F756.000 E1.04217 ; brim
G1 X83.661 Y101.390 E1.08447 ; brim
G1 X84.000 Y101.058 E1.11679 ; brim
G1 X84.284 Y101.343 E1.14417 ; brim
G1 F1800.000 E0.14417 ; retract
G92 E0 ; reset extrusion distance
G1 X100.927 Y101.336 F7800.000 ; move to first brim point
G1 F1800.000 E1.00000 ; compensate retraction
G1 X101.054 Y100.297 F756.000 E1.07133 ; brim
G1 X101.946 Y100.297 E1.13212 ; brim
G1 X102.075 Y101.336 E1.20347 ; brim
G1 X101.009 Y101.336 E1.27608 ; brim
G1 F1800.000 E0.27608 ; retract
G92 E0 ; reset extrusion distance
G1 X106.428 Y109.585 F7800.000 ; move to first brim point
G1 F1800.000 E1.00000 ; compensate retraction
G1 X106.539 Y109.892 F756.000 E1.02222 ; brim
G1 X104.325 Y111.738 E1.21868 ; brim
G1 X104.235 Y111.770 E1.22521 ; brim
G1 X103.878 Y111.770 E1.24955 ; brim
G1 X104.002 Y112.015 E1.26824 ; brim
G1 X102.639 Y113.896 E1.42658 ; brim
G1 X102.522 Y113.956 E1.43553 ; brim
G1 X102.432 Y113.956 E1.44161 ; brim
G1 X102.559 Y114.143 E1.45699 ; brim
G1 X101.791 Y116.048 E1.59694 ; brim
G1 X101.655 Y116.139 E1.60807 ; brim
G1 X101.775 Y116.279 E1.62058 ; brim
G1 X101.477 Y118.195 E1.75277 ; brim
G1 X101.371 Y118.286 E1.76230 ; brim
G1 X101.514 Y118.420 E1.77567 ; brim
G1 X101.643 Y120.339 E1.90670 ; brim
G1 X101.531 Y120.458 E1.91786 ; brim
G1 X101.588 Y120.458 E1.92173 ; brim
G1 X101.733 Y120.565 E1.93400 ; brim
G1 X102.318 Y122.476 E2.07016 ; brim
G1 X102.194 Y122.644 E2.08439 ; brim
G1 X102.357 Y122.644 E2.09547 ; brim
G1 X102.487 Y122.722 E2.10582 ; brim
G1 X103.489 Y124.618 E2.25198 ; brim
G1 X103.362 Y124.829 E2.26875 ; brim
G1 X103.558 Y124.829 E2.28208 ; brim
G1 X103.684 Y124.902 E2.29203 ; brim
G1 X104.783 Y126.794 E2.44115 ; brim
G1 X104.656 Y127.015 E2.45846 ; brim
G1 X104.827 Y127.015 E2.47006 ; brim
G1 X104.953 Y127.087 E2.48001 ; brim
G1 X106.052 Y128.980 E2.62913 ; brim
G1 X105.925 Y129.200 E2.64644 ; brim
G1 X106.096 Y129.200 E2.65804 ; brim
G1 X106.222 Y129.273 E2.66799 ; brim
G1 X107.321 Y131.165 E2.81711 ; brim
G1 X107.194 Y131.385 E2.83442 ; brim
G1 X107.364 Y131.385 E2.84602 ; brim
G1 X107.491 Y131.458 E2.85597 ; brim
G1 X108.590 Y133.351 E3.00509 ; brim
G1 X108.463 Y133.571 E3.02240 ; brim
G1 X108.633 Y133.571 E3.03400 ; brim
G1 X108.760 Y133.644 E3.04395 ; brim
G1 X109.386 Y134.721 E3.12886 ; brim
G1 X110.609 Y134.721 E3.21222 ; brim
G1 X110.769 Y134.881 E3.22764 ; brim
G1 X110.769 Y135.707 E3.28395 ; brim
G1 X110.609 Y135.868 E3.29937 ; brim
G1 X110.318 Y135.868 E3.31919 ; brim
G1 X110.425 Y135.974 E3.32944 ; brim
G1 X110.425 Y136.800 E3.38575 ; brim
G1 X110.265 Y136.960 E3.40117 ; brim
G1 X108.884 Y136.960 E3.49522 ; brim
G1 X108.730 Y136.824 E3.50925 ; brim
G1 X108.692 Y136.530 E3.52946 ; brim
G1 X106.180 Y137.977 E3.72694 ; brim
G1 X106.111 Y137.995 E3.73183 ; brim
G1 X104.951 Y137.995 E3.81086 ; brim
G1 X105.028 Y138.055 E3.81750 ; brim
G1 X105.134 Y138.449 E3.84531 ; brim
G1 X105.063 Y138.620 E3.85796 ; brim
G1 X102.386 Y140.162 E4.06847 ; brim
G1 X102.316 Y140.181 E4.07336 ; brim
G1 X101.157 Y140.181 E4.15238 ; brim
G1 X101.234 Y140.240 E4.15902 ; brim
G1 X101.340 Y140.634 E4.18684 ; brim
G1 X101.268 Y140.806 E4.19948 ; brim
G1 X98.591 Y142.347 E4.40999 ; brim
G1 X98.522 Y142.366 E4.41488 ; brim
G1 X97.329 Y142.366 E4.49619 ; brim
G1 X97.399 Y142.418 E4.50215 ; brim
G1 X97.506 Y142.751 E4.52600 ; brim
G1 X97.449 Y142.920 E4.53815 ; brim
G1 X97.034 Y143.216 E4.57291 ; brim
G1 X97.548 Y143.216 E4.60797 ; brim
G1 X97.708 Y143.376 E4.62339 ; brim
G1 X97.708 Y144.202 E4.67970 ; brim
G1 X97.548 Y144.362 E4.69512 ; brim
G1 X95.522 Y144.362 E4.83322 ; brim
G1 X95.480 Y144.320 E4.83726 ; brim
G1 X95.191 Y144.526 E4.86142 ; brim
G1 X95.110 Y144.551 E4.86722 ; brim
G1 X95.028 Y144.551 E4.87281 ; brim
G1 X95.134 Y144.658 E4.88306 ; brim
G1 X95.134 Y145.484 E4.93937 ; brim
G1 X94.974 Y145.644 E4.95479 ; brim
G1 X93.765 Y145.644 E5.03716 ; brim
G1 X93.657 Y145.595 E5.04522 ; brim
G1 X92.023 Y143.725 E5.21442 ; brim
G1 X92.169 Y143.405 E5.23841 ; brim
G1 X92.760 Y143.405 E5.27870 ; brim
G1 X92.727 Y143.386 E5.28135 ; brim
G1 X91.633 Y141.493 E5.43032 ; brim
G1 X91.759 Y141.273 E5.44760 ; brim
G1 X91.590 Y141.273 E5.45913 ; brim
G1 X91.463 Y141.200 E5.46910 ; brim
G1 X90.369 Y139.308 E5.61807 ; brim
G1 X90.496 Y139.088 E5.63535 ; brim
G1 X90.327 Y139.088 E5.64688 ; brim
G1 X90.200 Y139.015 E5.65685 ; brim
G1 X89.106 Y137.122 E5.80582 ; brim
G1 X89.233 Y136.902 E5.82310 ; brim
G1 X89.064 Y136.902 E5.83463 ; brim
G1 X88.937 Y136.829 E5.84460 ; brim
G1 X87.843 Y134.937 E5.99356 ; brim
G1 X87.970 Y134.717 E6.01084 ; brim
G1 X87.034 Y134.717 E6.07464 ; brim
G1 X86.874 Y134.557 E6.09006 ; brim
G1 X86.874 Y133.731 E6.14636 ; brim
G1 X87.034 Y133.571 E6.16179 ; brim
G1 X87.076 Y133.571 E6.16467 ; brim
G1 X87.042 Y133.551 E6.16732 ; brim
G1 X85.948 Y131.659 E6.31629 ; brim
G1 X86.075 Y131.439 E6.33357 ; brim
G1 X85.139 Y131.439 E6.39736 ; brim
G1 X84.979 Y131.279 E6.41278 ; brim
G1 X84.979 Y130.453 E6.46909 ; brim
G1 X85.139 Y130.293 E6.48451 ; brim
G1 X85.181 Y130.293 E6.48739 ; brim
G1 X85.147 Y130.273 E6.49005 ; brim
G1 X84.053 Y128.381 E6.63901 ; brim
G1 X84.180 Y128.161 E6.65630 ; brim
G1 X84.011 Y128.161 E6.66783 ; brim
G1 X83.884 Y128.088 E6.67780 ; brim
G1 X82.790 Y126.195 E6.82676 ; brim
G1 X82.917 Y125.975 E6.84404 ; brim
G1 X82.748 Y125.975 E6.85558 ; brim
G1 X82.621 Y125.902 E6.86555 ; brim
G1 X81.527 Y124.010 E7.01451 ; brim
G1 X81.654 Y123.790 E7.03179 ; brim
G1 X81.485 Y123.790 E7.04332 ; brim
G1 X81.358 Y123.717 E7.05329 ; brim
G1 X80.264 Y121.824 E7.20226 ; brim
G1 X80.391 Y121.605 E7.21954 ; brim
G1 X80.221 Y121.605 E7.23107 ; brim
G1 X80.095 Y121.532 E7.24104 ; brim
G1 X79.001 Y119.639 E7.39001 ; brim
G1 X79.127 Y119.419 E7.40729 ; brim
G1 X78.958 Y119.419 E7.41882 ; brim
G1 X78.831 Y119.346 E7.42879 ; brim
G1 X77.737 Y117.454 E7.57776 ; brim
G1 X77.864 Y117.234 E7.59504 ; brim
G1 X77.695 Y117.234 E7.60657 ; brim
G1 X77.568 Y117.161 E7.61654 ; brim
G1 X76.474 Y115.268 E7.76550 ; brim
G1 X76.601 Y115.049 E7.78278 ; brim
G1 X76.432 Y115.049 E7.79432 ; brim
G1 X76.305 Y114.975 E7.80429 ; brim
G1 X75.211 Y113.083 E7.95325 ; brim
G1 X75.338 Y112.863 E7.97053 ; brim
G1 X75.169 Y112.863 E7.98206 ; brim
G1 X75.042 Y112.790 E7.99204 ; brim
G1 X73.948 Y110.897 E8.14100 ; brim
G1 X74.020 Y110.773 E8.15078 ; brim
G1 X73.237 Y110.773 E8.20410 ; brim
G1 X73.076 Y110.604 E8.22004 ; brim
