; generated by Slic3r 0.9.9 on 2014-04-06 at 00:01:28

; layer_height = 0.2
; perimeters = 3
; top_solid_layers = 3
; bottom_solid_layers = 3
; fill_density = 0.2
; perimeter_speed = 36
; infill_speed = 60
; travel_speed = 130
; nozzle_diameter = 0.35
; filament_diameter = 1.75
; extrusion_multiplier = 1
; perimeters extrusion width = 0.52mm
; infill extrusion width = 0.52mm
; solid infill extrusion width = 0.52mm
; top infill extrusion width = 0.52mm
; support material extrusion width = 0.52mm
; first layer extrusion width = 0.60mm

G21 ; set units to millimeters
M107 ; disable fan
M190 S95 ; wait for bed temperature to be reached
M104 S225 ; set temperature
G28 ; home all axes
G1 Z5 F5000 ; lift nozzle
M109 S225 ; wait for temperature to be reached
G90 ; use absolute coordinates
G92 E0 ; reset extrusion distance
M82 ; use absolute distances for extrusion
G1 F1800.000 E-1.00000 ; retract
G92 E0 ; reset extrusion distance
G1 Z0.300 F7800.000 ; move to next layer (0)
G1 X61.571 Y67.209 ; move to first skirt point
G1 F1800.000 E1.00000 ; compensate retraction
G1 X62.041 Y66.849 F756.000 E1.04034 ; skirt
G1 X62.391 Y66.659 E1.06748 ; skirt
G1 X62.751 Y66.509 E1.09406 ; skirt
G1 X63.331 Y66.359 E1.13488 ; skirt
G1 X63.921 Y66.299 E1.17529 ; skirt
G1 X136.481 Y65.899 E6.11988 ; skirt
G1 X137.081 Y65.949 E6.16090 ; skirt
G1 X137.281 Y65.989 E6.17480 ; skirt
G1 X137.471 Y66.039 E6.18819 ; skirt
G1 X137.851 Y66.179 E6.21579 ; skirt
G1 X138.211 Y66.349 E6.24292 ; skirt
G1 X138.551 Y66.569 E6.27051 ; skirt
G1 X138.861 Y66.819 E6.29765 ; skirt
G1 X139.141 Y67.099 E6.32463 ; skirt
G1 X139.501 Y67.589 E6.36607 ; skirt
G1 X139.771 Y68.119 E6.40660 ; skirt
G1 X139.901 Y68.499 E6.43397 ; skirt
G1 X140.011 Y69.089 E6.47487 ; skirt
G1 X140.031 Y69.489 E6.50216 ; skirt
G1 X139.971 Y70.089 E6.54325 ; skirt
G1 X139.721 Y71.419 E6.63547 ; skirt
G1 X139.651 Y71.649 E6.65185 ; skirt
G1 X139.471 Y72.099 E6.68488 ; skirt
G1 X104.511 Y132.739 E11.45465 ; skirt
G1 X104.281 Y133.089 E11.48319 ; skirt
G1 X104.011 Y133.409 E11.51172 ; skirt
G1 X103.711 Y133.699 E11.54015 ; skirt
G1 X103.371 Y133.949 E11.56891 ; skirt
G1 X102.811 Y134.239 E11.61188 ; skirt
G1 X102.421 Y134.379 E11.64012 ; skirt
G1 X102.011 Y134.469 E11.66873 ; skirt
G1 X101.801 Y134.499 E11.68318 ; skirt
G1 X99.831 Y134.589 E11.81756 ; skirt
G1 X64.521 Y134.579 E14.22372 ; skirt
G1 X63.901 Y134.489 E14.26641 ; skirt
G1 X63.501 Y134.369 E14.29487 ; skirt
G1 X62.931 Y134.099 E14.33785 ; skirt
G1 X62.591 Y133.869 E14.36582 ; skirt
G1 X62.271 Y133.589 E14.39479 ; skirt
G1 X61.991 Y133.289 E14.42276 ; skirt
G1 X60.941 Y131.849 E14.54420 ; skirt
G1 X60.731 Y131.459 E14.57439 ; skirt
G1 X60.641 Y131.249 E14.58995 ; skirt
G1 X60.501 Y130.829 E14.62012 ; skirt
G1 X60.421 Y130.389 E14.65060 ; skirt
G1 X60.391 Y129.949 E14.68065 ; skirt
G1 X60.391 Y69.849 E18.77609 ; skirt
G1 X60.441 Y69.259 E18.81644 ; skirt
G1 X60.531 Y68.869 E18.84371 ; skirt
G1 X60.661 Y68.499 E18.87044 ; skirt
G1 X60.831 Y68.139 E18.89757 ; skirt
G1 X61.041 Y67.799 E18.92480 ; skirt
G1 X61.291 Y67.489 E18.95194 ; skirt
G1 X61.513 Y67.267 E18.97333 ; skirt
G1 F1800.000 E17.97333 ; retract
G92 E0 ; reset extrusion distance
G1 X63.307 Y68.734 F7800.000 ; move to first brim point
G1 F1800.000 E1.00000 ; compensate retraction
G1 X134.374 Y68.734 F756.000 E5.84274 ; brim
G1 X134.776 Y68.331 E5.88152 ; brim
G1 X137.234 Y68.331 E6.04899 ; brim
G1 X137.725 Y68.923 E6.10140 ; brim
G1 X137.685 Y69.139 E6.11639 ; brim
G1 X137.760 Y69.214 E6.12359 ; brim
G1 X137.760 Y69.659 E6.15395 ; brim
G1 X138.005 Y69.904 E6.17753 ; brim
G1 X138.005 Y71.183 E6.26468 ; brim
G1 X137.524 Y71.663 E6.31095 ; brim
G1 X136.366 Y71.663 E6.38988 ; brim
G1 X110.735 Y116.162 E9.88926 ; brim
G1 X110.773 Y116.200 E9.89288 ; brim
G1 X110.773 Y117.479 E9.98003 ; brim
G1 X110.293 Y117.959 E10.02629 ; brim
G1 X110.143 Y117.959 E10.03647 ; brim
G1 X110.143 Y118.571 E10.07822 ; brim
G1 X109.663 Y119.051 E10.12448 ; brim
G1 X109.071 Y119.051 E10.16484 ; brim
G1 X103.247 Y129.163 E10.95998 ; brim
G1 X103.322 Y129.237 E10.96717 ; brim
G1 X103.322 Y130.516 E11.05432 ; brim
G1 X103.170 Y130.668 E11.06895 ; brim
G1 X103.170 Y131.609 E11.13306 ; brim
G1 X102.690 Y132.089 E11.17933 ; brim
G1 X101.148 Y132.089 E11.28438 ; brim
G1 X101.073 Y132.164 E11.29160 ; brim
G1 X96.377 Y132.164 E11.61163 ; brim
G1 X95.913 Y131.758 E11.65361 ; brim
G1 X95.822 Y131.071 E11.70083 ; brim
G1 X68.205 Y131.071 E13.58275 ; brim
G1 X68.205 Y131.684 E13.62450 ; brim
G1 X67.725 Y132.164 E13.67076 ; brim
G1 X63.501 Y132.164 E13.95860 ; brim
G1 X63.021 Y131.684 E14.00487 ; brim
G1 X63.021 Y130.785 E14.06615 ; brim
G1 X62.827 Y130.591 E14.08479 ; brim
G1 X62.827 Y122.330 E14.64776 ; brim
G1 X62.707 Y122.330 E14.65593 ; brim
G1 X62.227 Y121.850 E14.70219 ; brim
G1 X62.227 Y120.571 E14.78934 ; brim
G1 X62.707 Y120.091 E14.83561 ; brim
G1 X62.827 Y120.091 E14.84378 ; brim
G1 X62.827 Y119.051 E14.91459 ; brim
G1 X62.707 Y119.051 E14.92276 ; brim
G1 X62.227 Y118.571 E14.96902 ; brim
G1 X62.227 Y117.293 E15.05617 ; brim
G1 X62.707 Y116.812 E15.10244 ; brim
G1 X62.827 Y116.812 E15.11061 ; brim
G1 X62.827 Y69.214 E18.35416 ; brim
G1 X63.249 Y68.792 E18.39484 ; brim
G1 F1800.000 E17.39484 ; retract
G92 E0 ; reset extrusion distance
G1 X73.919 Y120.144 F7800.000 ; move to first brim point
G1 F1800.000 E1.00000 ; compensate retraction
G1 X75.061 Y120.144 F756.000 E1.07786 ; brim
G1 X74.950 Y121.183 E1.14907 ; brim
G1 X74.030 Y121.183 E1.21178 ; brim
G1 X73.928 Y120.226 E1.27740 ; brim
G1 F1800.000 E0.27740 ; retract
G92 E0 ; reset extrusion distance
G1 X96.171 Y116.866 F7800.000 ; move to first brim point
G1 F1800.000 E1.00000 ; compensate retraction
G1 X97.309 Y116.866 F756.000 E1.07753 ; brim
G1 X97.034 Y117.905 E1.15077 ; brim
G1 X96.446 Y117.905 E1.19086 ; brim
G1 X96.192 Y116.945 E1.25851 ; brim
G1 F1800.000 E0.25851 ; retract
G92 E0 ; reset extrusion distance
G1 X74.833 Y100.691 F7800.000 ; move to first brim point
G1 F1800.000 E1.00000 ; compensate retraction
G1 X74.564 Y100.422 F756.000 E1.02597 ; brim
G1 X73.915 Y100.422 E1.07019 ; brim
G1 X74.127 Y99.383 E1.14245 ; brim
G1 X74.271 Y99.383 E1.15227 ; brim
G1 X74.271 Y99.996 E1.19402 ; brim
G1 X74.751 Y100.476 E1.24028 ; brim
G1 X74.943 Y100.476 E1.25340 ; brim
G1 X74.870 Y100.619 E1.26434 ; brim
G1 F1800.000 E0.26434 ; retract
G92 E0 ; reset extrusion distance
G1 X107.469 Y98.384 F7800.000 ; move to first brim point
G1 F1800.000 E1.00000 ; compensate retraction
G1 X107.469 Y98.263 F756.000 E1.00822 ; brim
G1 X107.490 Y98.242 E1.01025 ; brim
G1 X107.538 Y98.290 E1.01487 ; brim
G1 X108.051 Y98.290 E1.04984 ; brim
G1 X107.801 Y99.115 E1.10854 ; brim
G1 X107.801 Y98.717 E1.13566 ; brim
G1 X107.527 Y98.442 E1.16212 ; brim
G1 F1800.000 E0.16212 ; retract
G92 E0 ; reset extrusion distance
G1 X74.490 Y80.639 F7800.000 ; move to first brim point
G1 F1800.000 E1.00000 ; compensate retraction
G1 X74.029 Y79.714 F756.000 E1.07040 ; brim
G1 X74.238 Y79.714 E1.08461 ; brim
G1 X74.490 Y79.462 E1.10892 ; brim
G1 X74.742 Y79.714 E1.13322 ; brim
G1 X74.951 Y79.714 E1.14747 ; brim
G1 X74.526 Y80.566 E1.21232 ; brim
G1 F1800.000 E0.21232 ; retract
G92 E0 ; reset extrusion distance
G1 X117.703 Y79.661 F7800.000 ; move to first brim point
G1 F1800.000 E1.00000 ; compensate retraction
G1 X118.104 Y78.622 F756.000 E1.07588 ; brim
G1 X118.377 Y78.622 E1.09451 ; brim
G1 X118.776 Y79.661 E1.17034 ; brim
G1 X118.370 Y79.661 E1.19798 ; brim
G1 X118.240 Y79.791 E1.21052 ; brim
G1 X118.110 Y79.661 E1.22306 ; brim
G1 X117.785 Y79.661 E1.24519 ; brim
G1 F1800.000 E0.24519 ; retract
G92 E0 ; reset extrusion distance
G1 X127.384 Y85.724 F7800.000 ; move to first brim point
G1 F1800.000 E1.00000 ; compensate retraction
G1 X127.510 Y85.943 F756.000 E1.01726 ; brim
G1 X126.420 Y87.836 E1.16611 ; brim
G1 X126.293 Y87.910 E1.17609 ; brim
G1 X126.125 Y87.910 E1.18757 ; brim
G1 X126.252 Y88.129 E1.20483 ; brim
G1 X125.161 Y90.022 E1.35368 ; brim
G1 X125.034 Y90.095 E1.36366 ; brim
G1 X124.866 Y90.095 E1.37514 ; brim
G1 X124.993 Y90.314 E1.39240 ; brim
G1 X123.903 Y92.207 E1.54124 ; brim
G1 X123.776 Y92.280 E1.55123 ; brim
G1 X123.607 Y92.280 E1.56271 ; brim
G1 X123.734 Y92.500 E1.57997 ; brim
G1 X122.644 Y94.392 E1.72881 ; brim
G1 X122.517 Y94.466 E1.73880 ; brim
G1 X122.349 Y94.466 E1.75028 ; brim
G1 X122.475 Y94.685 E1.76754 ; brim
G1 X121.385 Y96.578 E1.91638 ; brim
G1 X121.258 Y96.651 E1.92637 ; brim
G1 X121.090 Y96.651 E1.93785 ; brim
G1 X121.217 Y96.870 E1.95510 ; brim
G1 X120.126 Y98.763 E2.10395 ; brim
G1 X119.999 Y98.837 E2.11394 ; brim
G1 X119.831 Y98.837 E2.12541 ; brim
G1 X119.958 Y99.056 E2.14267 ; brim
G1 X118.868 Y100.949 E2.29152 ; brim
G1 X118.741 Y101.022 E2.30151 ; brim
G1 X118.572 Y101.022 E2.31298 ; brim
G1 X118.699 Y101.241 E2.33024 ; brim
G1 X117.609 Y103.134 E2.47909 ; brim
G1 X117.482 Y103.207 E2.48908 ; brim
G1 X117.314 Y103.207 E2.50055 ; brim
G1 X117.440 Y103.427 E2.51781 ; brim
G1 X116.350 Y105.319 E2.66666 ; brim
G1 X116.223 Y105.393 E2.67664 ; brim
G1 X116.055 Y105.393 E2.68812 ; brim
G1 X116.182 Y105.612 E2.70538 ; brim
G1 X115.091 Y107.505 E2.85423 ; brim
G1 X114.964 Y107.578 E2.86421 ; brim
G1 X114.796 Y107.578 E2.87569 ; brim
G1 X114.923 Y107.797 E2.89295 ; brim
G1 X113.833 Y109.690 E3.04180 ; brim
G1 X113.706 Y109.764 E3.05178 ; brim
G1 X113.537 Y109.764 E3.06326 ; brim
G1 X113.664 Y109.983 E3.08052 ; brim
G1 X112.574 Y111.876 E3.22937 ; brim
G1 X112.447 Y111.949 E3.23935 ; brim
G1 X112.278 Y111.949 E3.25083 ; brim
G1 X112.405 Y112.168 E3.26809 ; brim
G1 X111.315 Y114.061 E3.41693 ; brim
G1 X111.188 Y114.134 E3.42692 ; brim
G1 X111.020 Y114.134 E3.43840 ; brim
G1 X111.146 Y114.354 E3.45566 ; brim
G1 X110.056 Y116.246 E3.60450 ; brim
G1 X110.022 Y116.266 E3.60718 ; brim
G1 X110.066 Y116.266 E3.61020 ; brim
G1 X110.227 Y116.426 E3.62562 ; brim
G1 X110.227 Y117.252 E3.68193 ; brim
G1 X110.066 Y117.412 E3.69735 ; brim
G1 X109.491 Y117.412 E3.73658 ; brim
G1 X109.597 Y117.519 E3.74683 ; brim
G1 X109.597 Y118.345 E3.80314 ; brim
G1 X109.437 Y118.505 E3.81856 ; brim
G1 X108.502 Y118.505 E3.88227 ; brim
G1 X108.629 Y118.724 E3.89953 ; brim
G1 X107.539 Y120.617 E4.04838 ; brim
G1 X107.412 Y120.691 E4.05836 ; brim
G1 X107.243 Y120.691 E4.06984 ; brim
G1 X107.370 Y120.910 E4.08710 ; brim
G1 X106.280 Y122.803 E4.23595 ; brim
G1 X106.153 Y122.876 E4.24593 ; brim
G1 X105.985 Y122.876 E4.25741 ; brim
G1 X106.111 Y123.095 E4.27467 ; brim
G1 X105.021 Y124.988 E4.42351 ; brim
G1 X104.894 Y125.061 E4.43350 ; brim
G1 X104.726 Y125.061 E4.44498 ; brim
G1 X104.853 Y125.281 E4.46224 ; brim
G1 X103.762 Y127.173 E4.61108 ; brim
G1 X103.636 Y127.247 E4.62107 ; brim
G1 X103.467 Y127.247 E4.63255 ; brim
G1 X103.594 Y127.466 E4.64981 ; brim
G1 X102.536 Y129.304 E4.79431 ; brim
G1 X102.615 Y129.304 E4.79975 ; brim
G1 X102.775 Y129.464 E4.81517 ; brim
G1 X102.775 Y130.290 E4.87148 ; brim
G1 X102.615 Y130.450 E4.88690 ; brim
G1 X102.517 Y130.450 E4.89359 ; brim
G1 X102.623 Y130.556 E4.90384 ; brim
G1 X102.623 Y131.383 E4.96015 ; brim
G1 X102.463 Y131.543 E4.97557 ; brim
G1 X100.984 Y131.543 E5.07641 ; brim
G1 X100.955 Y131.510 E5.07939 ; brim
G1 X100.847 Y131.618 E5.08979 ; brim
G1 X96.582 Y131.618 E5.38040 ; brim
G1 X96.428 Y131.482 E5.39440 ; brim
G1 X96.350 Y130.895 E5.43474 ; brim
G1 X96.463 Y130.724 E5.44873 ; brim
G1 X97.199 Y130.525 E5.50067 ; brim
G1 X67.552 Y130.525 E7.52091 ; brim
G1 X67.658 Y130.631 E7.53116 ; brim
G1 X67.658 Y131.458 E7.58747 ; brim
G1 X67.498 Y131.618 E7.60289 ; brim
G1 X63.727 Y131.618 E7.85989 ; brim
G1 X63.567 Y131.458 E7.87531 ; brim
G1 X63.567 Y130.631 E7.93162 ; brim
G1 X63.673 Y130.525 E7.94187 ; brim
G1 X63.534 Y130.525 E7.95139 ; brim
G1 X63.374 Y130.365 E7.96682 ; brim
G1 X63.374 Y128.446 E8.09758 ; brim
G1 X63.507 Y128.313 E8.11042 ; brim
G1 X63.374 Y128.179 E8.12326 ; brim
G1 X63.374 Y126.260 E8.25402 ; brim
G1 X63.507 Y126.127 E8.26686 ; brim
G1 X63.374 Y125.994 E8.27970 ; brim
G1 X63.374 Y124.075 E8.41046 ; brim
G1 X63.507 Y123.942 E8.42330 ; brim
G1 X63.374 Y123.809 E8.43614 ; brim
G1 X63.374 Y121.890 E8.56690 ; brim
G1 X63.480 Y121.783 E8.57716 ; brim
G1 X62.934 Y121.783 E8.61439 ; brim
G1 X62.774 Y121.623 E8.62981 ; brim
G1 X62.774 Y120.797 E8.68612 ; brim
G1 X62.934 Y120.637 E8.70154 ; brim
G1 X63.480 Y120.637 E8.73877 ; brim
G1 X63.374 Y120.531 E8.74902 ; brim
G1 X63.374 Y118.612 E8.87979 ; brim
G1 X63.480 Y118.505 E8.89004 ; brim
G1 X62.934 Y118.505 E8.92727 ; brim
G1 X62.774 Y118.345 E8.94269 ; brim
G1 X62.774 Y117.519 E8.99900 ; brim
G1 X62.934 Y117.359 E9.01442 ; brim
G1 X63.480 Y117.359 E9.05165 ; brim
G1 X63.374 Y117.252 E9.06190 ; brim
G1 X63.374 Y115.333 E9.19267 ; brim
G1 X63.507 Y115.200 E9.20550 ; brim
G1 X63.374 Y115.067 E9.21834 ; brim
G1 X63.374 Y113.148 E9.34911 ; brim
G1 X63.507 Y113.015 E9.36194 ; brim
G1 X63.374 Y112.882 E9.37478 ; brim
G1 X63.374 Y110.963 E9.50555 ; brim
G1 X63.507 Y110.829 E9.51838 ; brim
G1 X63.374 Y110.696 E9.53122 ; brim
G1 X63.374 Y108.777 E9.66199 ; brim
G1 X63.507 Y108.644 E9.67482 ; brim
G1 X63.374 Y108.511 E9.68766 ; brim
G1 X63.374 Y106.592 E9.81843 ; brim
G1 X63.507 Y106.459 E9.83126 ; brim
G1 X63.374 Y106.325 E9.84410 ; brim
G1 X63.374 Y104.406 E9.97487 ; brim
G1 X63.507 Y104.273 E9.98771 ; brim
G1 X63.374 Y104.140 E10.00054 ; brim
G1 X63.374 Y102.221 E10.13131 ; brim
G1 X63.507 Y102.088 E10.14415 ; brim
G1 X63.374 Y101.955 E10.15698 ; brim
G1 X63.374 Y100.036 E10.28775 ; brim
G1 X63.507 Y99.902 E10.30059 ; brim
G1 X63.374 Y99.769 E10.31342 ; brim
G1 X63.374 Y97.850 E10.44419 ; brim
G1 X63.507 Y97.717 E10.45703 ; brim
G1 X63.374 Y97.584 E10.46986 ; brim
G1 X63.374 Y95.665 E10.60063 ; brim
G1 X63.507 Y95.532 E10.61347 ; brim
G1 X63.374 Y95.398 E10.62630 ; brim
G1 X63.374 Y93.479 E10.75707 ; brim
G1 X63.507 Y93.346 E10.76991 ; brim
G1 X63.374 Y93.213 E10.78274 ; brim
G1 X63.374 Y91.294 E10.91351 ; brim
G1 X63.507 Y91.161 E10.92635 ; brim
G1 X63.374 Y91.028 E10.93918 ; brim
G1 X63.374 Y89.109 E11.06995 ; brim
G1 X63.507 Y88.975 E11.08279 ; brim
G1 X63.374 Y88.842 E11.09562 ; brim
G1 X63.374 Y86.923 E11.22639 ; brim
G1 X63.507 Y86.790 E11.23923 ; brim
G1 X63.374 Y86.657 E11.25206 ; brim
G1 X63.374 Y84.738 E11.38283 ; brim
G1 X63.507 Y84.605 E11.39567 ; brim
G1 X63.374 Y84.471 E11.40851 ; brim
G1 X63.374 Y82.552 E11.53927 ; brim
G1 X63.507 Y82.419 E11.55211 ; brim
G1 X63.374 Y82.286 E11.56495 ; brim
G1 X63.374 Y80.367 E11.69571 ; brim
G1 X63.507 Y80.234 E11.70855 ; brim
G1 X63.374 Y80.101 E11.72139 ; brim
G1 X63.374 Y78.182 E11.85215 ; brim
G1 X63.507 Y78.048 E11.86499 ; brim
G1 X63.374 Y77.915 E11.87783 ; brim
G1 X63.374 Y75.996 E12.00859 ; brim
G1 X63.507 Y75.863 E12.02143 ; brim
G1 X63.374 Y75.730 E12.03427 ; brim
G1 X63.374 Y73.811 E12.16504 ; brim
G1 X63.507 Y73.678 E12.17787 ; brim
G1 X63.374 Y73.544 E12.19071 ; brim
G1 X63.374 Y71.625 E12.32148 ; brim
G1 X63.507 Y71.492 E12.33431 ; brim
G1 X63.374 Y71.359 E12.34715 ; brim
G1 X63.374 Y69.440 E12.47792 ; brim
G1 X63.534 Y69.280 E12.49334 ; brim
G1 X134.843 Y69.280 E17.35259 ; brim
G1 X134.843 Y69.038 E17.36911 ; brim
G1 X135.003 Y68.878 E17.38453 ; brim
G1 X136.978 Y68.878 E17.51911 ; brim
G1 X137.141 Y69.075 E17.53658 ; brim
G1 X137.095 Y69.322 E17.55371 ; brim
G1 X137.213 Y69.440 E17.56510 ; brim
G1 X137.213 Y69.970 E17.60123 ; brim
G1 X137.298 Y69.970 E17.60700 ; brim
G1 X137.458 Y70.130 E17.62242 ; brim
G1 X137.458 Y70.957 E17.67873 ; brim
G1 X137.298 Y71.117 E17.69415 ; brim
G1 X136.050 Y71.117 E17.77918 ; brim
G1 X135.231 Y72.538 E17.89099 ; brim
G1 X135.105 Y72.612 E17.90098 ; brim
G1 X134.936 Y72.612 E17.91245 ; brim
G1 X135.063 Y72.831 E17.92971 ; brim
G1 X133.973 Y74.724 E18.07856 ; brim
G1 X133.846 Y74.797 E18.08855 ; brim
G1 X133.677 Y74.797 E18.10002 ; brim
G1 X133.804 Y75.016 E18.11728 ; brim
G1 X132.714 Y76.909 E18.26613 ; brim
G1 X132.587 Y76.983 E18.27612 ; brim
G1 X132.419 Y76.983 E18.28759 ; brim
G1 X132.545 Y77.202 E18.30485 ; brim
G1 X131.455 Y79.095 E18.45370 ; brim
G1 X131.328 Y79.168 E18.46368 ; brim
G1 X131.160 Y79.168 E18.47516 ; brim
G1 X131.287 Y79.387 E18.49242 ; brim
