; generated by Slic3r 0.9.9 on 2014-04-05 at 23:58:34

; layer_height = 0.2
; perimeters = 3
; top_solid_layers = 3
; bottom_solid_layers = 3
; fill_density = 0.2
; perimeter_speed = 36
; infill_speed = 60
; travel_speed = 130
; nozzle_diameter = 0.35
; filament_diameter = 1.75
; extrusion_multiplier = 1
; perimeters extrusion width = 0.52mm
; infill extrusion width = 0.52mm
; solid infill extrusion width = 0.52mm
; top infill extrusion width = 0.52mm
; support material extrusion width = 0.52mm
; first layer extrusion width = 0.60mm

G21 ; set units to millimeters
M107 ; disable fan
M190 S95 ; wait for bed temperature to be reached
M104 S225 ; set temperature
G28 ; home all axes
G1 Z5 F5000 ; lift nozzle
M109 S225 ; wait for temperature to be reached
G90 ; use absolute coordinates
G92 E0 ; reset extrusion distance
M82 ; use absolute distances for extrusion
G1 F1800.000 E-1.00000 ; retract
G92 E0 ; reset extrusion distance
G1 Z0.300 F7800.000 ; move to next layer (0)
G1 X71.060 Y69.161 ; move to first skirt point
G1 F1800.000 E1.00000 ; compensate retraction
G1 X71.340 Y68.881 F756.000 E1.02698 ; skirt
G1 X71.490 Y68.761 E1.04007 ; skirt
G1 X71.990 Y68.421 E1.08128 ; skirt
G1 X72.160 Y68.331 E1.09438 ; skirt
G1 X72.530 Y68.181 E1.12159 ; skirt
G1 X72.910 Y68.071 E1.14855 ; skirt
G1 X73.110 Y68.031 E1.16245 ; skirt
G1 X73.700 Y67.981 E1.20280 ; skirt
G1 X95.000 Y67.991 E2.65426 ; skirt
G1 X95.630 Y68.081 E2.69762 ; skirt
G1 X96.040 Y68.211 E2.72693 ; skirt
G1 X96.420 Y68.381 E2.75530 ; skirt
G1 X96.960 Y68.721 E2.79879 ; skirt
G1 X97.280 Y69.001 E2.82776 ; skirt
G1 X97.430 Y69.161 E2.84271 ; skirt
G1 X128.930 Y104.151 E6.05093 ; skirt
G1 X129.210 Y104.501 E6.08147 ; skirt
G1 X129.440 Y104.891 E6.11233 ; skirt
G1 X129.620 Y105.301 E6.14284 ; skirt
G1 X130.020 Y106.391 E6.22196 ; skirt
G1 X130.150 Y106.851 E6.25453 ; skirt
G1 X130.230 Y107.331 E6.28769 ; skirt
G1 X130.440 Y127.511 E7.66291 ; skirt
G1 X130.410 Y127.951 E7.69296 ; skirt
G1 X130.340 Y128.371 E7.72198 ; skirt
G1 X130.130 Y128.991 E7.76658 ; skirt
G1 X129.930 Y129.381 E7.79645 ; skirt
G1 X129.550 Y129.901 E7.84034 ; skirt
G1 X128.300 Y131.161 E7.96128 ; skirt
G1 X127.810 Y131.571 E8.00482 ; skirt
G1 X127.450 Y131.791 E8.03357 ; skirt
G1 X127.060 Y131.961 E8.06256 ; skirt
G1 X126.450 Y132.141 E8.10590 ; skirt
G1 X125.810 Y132.201 E8.14970 ; skirt
G1 X91.650 Y132.411 E10.47754 ; skirt
G1 X73.270 Y132.041 E11.73027 ; skirt
G1 X72.670 Y131.941 E11.77172 ; skirt
G1 X72.290 Y131.821 E11.79888 ; skirt
G1 X71.920 Y131.661 E11.82635 ; skirt
G1 X71.410 Y131.341 E11.86737 ; skirt
G1 X71.100 Y131.081 E11.89495 ; skirt
G1 X70.960 Y130.931 E11.90893 ; skirt
G1 X70.700 Y130.631 E11.93598 ; skirt
G1 X70.480 Y130.291 E11.96358 ; skirt
G1 X70.220 Y129.751 E12.00442 ; skirt
G1 X69.810 Y128.471 E12.09601 ; skirt
G1 X69.710 Y128.051 E12.12543 ; skirt
G1 X69.650 Y127.401 E12.16991 ; skirt
G1 X69.770 Y72.601 E15.90419 ; skirt
G1 X69.810 Y72.131 E15.93634 ; skirt
G1 X69.900 Y71.661 E15.96895 ; skirt
G1 X70.350 Y70.351 E16.06333 ; skirt
G1 X70.600 Y69.811 E16.10388 ; skirt
G1 X70.810 Y69.471 E16.13112 ; skirt
G1 X71.008 Y69.225 E16.15267 ; skirt
G1 F1800.000 E15.15267 ; retract
G92 E0 ; reset extrusion distance
G1 X72.815 Y70.699 F7800.000 ; move to first brim point
G1 F1800.000 E1.00000 ; compensate retraction
G1 X73.238 Y70.403 F756.000 E1.03525 ; brim
G1 X75.569 Y70.403 E1.19406 ; brim
G1 X76.049 Y70.883 E1.24033 ; brim
G1 X76.049 Y71.193 E1.26151 ; brim
G1 X92.448 Y71.193 E2.37904 ; brim
G1 X92.448 Y70.888 E2.39985 ; brim
G1 X92.928 Y70.408 E2.44612 ; brim
G1 X95.267 Y70.408 E2.60544 ; brim
G1 X95.690 Y70.705 E2.64069 ; brim
G1 X95.867 Y71.193 E2.67611 ; brim
G1 X96.021 Y71.193 E2.68657 ; brim
G1 X96.328 Y71.501 E2.71617 ; brim
G1 X96.434 Y71.501 E2.72337 ; brim
G1 X96.914 Y71.981 E2.76963 ; brim
G1 X96.914 Y73.260 E2.85678 ; brim
G1 X96.434 Y73.740 E2.90305 ; brim
G1 X95.902 Y73.740 E2.93931 ; brim
G1 X95.915 Y105.067 E5.07408 ; brim
G1 X96.036 Y105.067 E5.08228 ; brim
G1 X96.516 Y105.547 E5.12855 ; brim
G1 X96.516 Y106.160 E5.17030 ; brim
G1 X123.948 Y106.160 E7.03965 ; brim
G1 X123.948 Y105.888 E7.05817 ; brim
G1 X124.428 Y105.408 E7.10443 ; brim
G1 X126.767 Y105.408 E7.26376 ; brim
G1 X127.190 Y105.705 E7.29902 ; brim
G1 X127.355 Y106.160 E7.33199 ; brim
G1 X127.521 Y106.160 E7.34328 ; brim
G1 X127.862 Y106.501 E7.37613 ; brim
G1 X127.934 Y106.501 E7.38103 ; brim
G1 X128.414 Y106.981 E7.42730 ; brim
G1 X128.414 Y108.260 E7.51445 ; brim
G1 X127.934 Y108.740 E7.56071 ; brim
G1 X127.402 Y108.740 E7.59697 ; brim
G1 X127.404 Y113.809 E7.94239 ; brim
G1 X127.525 Y113.809 E7.95060 ; brim
G1 X128.005 Y114.289 E7.99686 ; brim
G1 X128.005 Y115.568 E8.08401 ; brim
G1 X127.525 Y116.048 E8.13028 ; brim
G1 X127.405 Y116.048 E8.13841 ; brim
G1 X127.406 Y117.087 E8.20922 ; brim
G1 X127.526 Y117.087 E8.21743 ; brim
G1 X128.006 Y117.567 E8.26369 ; brim
G1 X128.006 Y118.846 E8.35084 ; brim
G1 X127.526 Y119.326 E8.39710 ; brim
G1 X127.407 Y119.326 E8.40524 ; brim
G1 X127.411 Y126.440 E8.88999 ; brim
G1 X128.137 Y126.440 E8.93948 ; brim
G1 X128.617 Y126.920 E8.98575 ; brim
G1 X128.617 Y128.198 E9.07290 ; brim
G1 X128.137 Y128.679 E9.11916 ; brim
G1 X127.517 Y128.679 E9.16142 ; brim
G1 X127.517 Y129.291 E9.20317 ; brim
G1 X127.037 Y129.771 E9.24943 ; brim
G1 X124.723 Y129.771 E9.40707 ; brim
G1 X124.264 Y128.889 E9.47484 ; brim
G1 X124.839 Y128.067 E9.54319 ; brim
G1 X96.817 Y128.067 E11.45276 ; brim
G1 X96.817 Y128.680 E11.49451 ; brim
G1 X96.337 Y129.160 E11.54077 ; brim
G1 X93.446 Y129.160 E11.73771 ; brim
G1 X93.446 Y129.509 E11.76146 ; brim
G1 X92.966 Y129.989 E11.80772 ; brim
G1 X90.484 Y129.989 E11.97690 ; brim
G1 X90.004 Y129.509 E12.02316 ; brim
G1 X90.004 Y129.160 E12.04690 ; brim
G1 X76.037 Y129.160 E12.99864 ; brim
G1 X75.570 Y129.627 E13.04363 ; brim
G1 X73.047 Y129.627 E13.21560 ; brim
G1 X72.609 Y129.298 E13.25291 ; brim
G1 X72.388 Y128.534 E13.30707 ; brim
G1 X71.953 Y128.534 E13.33673 ; brim
G1 X71.473 Y128.054 E13.38299 ; brim
G1 X71.473 Y126.775 E13.47014 ; brim
G1 X71.953 Y126.295 E13.51640 ; brim
G1 X72.561 Y126.295 E13.55782 ; brim
G1 X72.585 Y126.265 E13.56042 ; brim
G1 X72.589 Y73.734 E17.14008 ; brim
G1 X72.457 Y73.734 E17.14912 ; brim
G1 X71.967 Y73.036 E17.20723 ; brim
G1 X72.787 Y70.777 E17.37102 ; brim
G1 F1800.000 E16.37102 ; retract
G92 E0 ; reset extrusion distance
G1 X83.427 Y117.140 F7800.000 ; move to first brim point
G1 F1800.000 E1.00000 ; compensate retraction
G1 X84.570 Y117.140 F756.000 E1.07790 ; brim
G1 X84.298 Y118.179 E1.15109 ; brim
G1 X83.695 Y118.179 E1.19219 ; brim
G1 X83.447 Y117.220 E1.25973 ; brim
G1 F1800.000 E0.25973 ; retract
G92 E0 ; reset extrusion distance
G1 X118.427 Y117.140 F7800.000 ; move to first brim point
G1 F1800.000 E1.00000 ; compensate retraction
G1 X119.570 Y117.140 F756.000 E1.07789 ; brim
G1 X119.302 Y118.179 E1.15101 ; brim
G1 X118.695 Y118.179 E1.19237 ; brim
G1 X118.447 Y117.220 E1.25992 ; brim
G1 F1800.000 E0.25992 ; retract
G92 E0 ; reset extrusion distance
G1 X101.992 Y117.087 F7800.000 ; move to first brim point
G1 F1800.000 E1.00000 ; compensate retraction
G1 X101.709 Y117.087 F756.000 E1.01930 ; brim
G1 X101.496 Y117.299 E1.03979 ; brim
G1 X101.284 Y117.087 E1.06029 ; brim
G1 X101.012 Y117.087 E1.07883 ; brim
G1 X101.496 Y116.048 E1.15694 ; brim
G1 X101.520 Y116.048 E1.15857 ; brim
G1 X101.958 Y117.012 E1.23077 ; brim
G1 F1800.000 E0.23077 ; retract
G92 E0 ; reset extrusion distance
G1 X95.863 Y106.706 F7800.000 ; move to first brim point
G1 F1800.000 E1.00000 ; compensate retraction
G1 X124.495 Y106.706 F756.000 E2.95106 ; brim
G1 X124.495 Y106.114 E2.99139 ; brim
G1 X124.655 Y105.954 E3.00681 ; brim
G1 X126.594 Y105.954 E3.13897 ; brim
G1 X126.735 Y106.053 E3.15072 ; brim
G1 X126.972 Y106.706 E3.19805 ; brim
G1 X127.294 Y106.706 E3.22002 ; brim
G1 X127.455 Y106.866 E3.23544 ; brim
G1 X127.455 Y107.047 E3.24776 ; brim
G1 X127.707 Y107.047 E3.26499 ; brim
G1 X127.867 Y107.207 E3.28041 ; brim
G1 X127.867 Y108.033 E3.33672 ; brim
G1 X127.707 Y108.193 E3.35214 ; brim
G1 X126.855 Y108.193 E3.41022 ; brim
G1 X126.856 Y109.878 E3.52500 ; brim
G1 X126.723 Y110.011 E3.53784 ; brim
G1 X126.856 Y110.144 E3.55068 ; brim
G1 X126.857 Y112.063 E3.68145 ; brim
G1 X126.724 Y112.196 E3.69428 ; brim
G1 X126.857 Y112.330 E3.70712 ; brim
G1 X126.858 Y114.249 E3.83789 ; brim
G1 X126.752 Y114.355 E3.84814 ; brim
G1 X127.298 Y114.355 E3.88540 ; brim
G1 X127.458 Y114.515 E3.90082 ; brim
G1 X127.458 Y115.341 E3.95713 ; brim
G1 X127.298 Y115.501 E3.97255 ; brim
G1 X126.752 Y115.501 E4.00975 ; brim
G1 X126.859 Y115.608 E4.02000 ; brim
G1 X126.860 Y117.527 E4.15077 ; brim
G1 X126.753 Y117.633 E4.16102 ; brim
G1 X127.300 Y117.633 E4.19828 ; brim
G1 X127.460 Y117.793 E4.21370 ; brim
G1 X127.460 Y118.619 E4.27001 ; brim
G1 X127.300 Y118.779 E4.28543 ; brim
G1 X126.754 Y118.779 E4.32264 ; brim
G1 X126.860 Y118.886 E4.33288 ; brim
G1 X126.861 Y120.805 E4.46365 ; brim
G1 X126.728 Y120.938 E4.47648 ; brim
G1 X126.861 Y121.071 E4.48932 ; brim
G1 X126.862 Y122.990 E4.62009 ; brim
G1 X126.729 Y123.123 E4.63292 ; brim
G1 X126.863 Y123.257 E4.64576 ; brim
G1 X126.864 Y125.176 E4.77653 ; brim
G1 X126.730 Y125.309 E4.78936 ; brim
G1 X126.864 Y125.442 E4.80220 ; brim
G1 X126.864 Y126.986 E4.90741 ; brim
G1 X127.911 Y126.986 E4.97869 ; brim
G1 X128.071 Y127.146 E4.99411 ; brim
G1 X128.071 Y127.972 E5.05042 ; brim
G1 X127.911 Y128.132 E5.06584 ; brim
G1 X126.864 Y128.132 E5.13716 ; brim
G1 X126.970 Y128.239 E5.14741 ; brim
G1 X126.970 Y129.065 E5.20371 ; brim
G1 X126.810 Y129.225 E5.21914 ; brim
G1 X125.055 Y129.225 E5.33876 ; brim
G1 X124.902 Y128.931 E5.36136 ; brim
G1 X125.889 Y127.521 E5.47863 ; brim
G1 X96.164 Y127.521 E7.50418 ; brim
G1 X96.270 Y127.627 E7.51444 ; brim
G1 X96.270 Y128.454 E7.57074 ; brim
G1 X96.110 Y128.614 E7.58616 ; brim
G1 X92.900 Y128.614 E7.80492 ; brim
G1 X92.900 Y129.282 E7.85047 ; brim
G1 X92.740 Y129.442 E7.86589 ; brim
G1 X90.710 Y129.442 E8.00422 ; brim
G1 X90.550 Y129.282 E8.01965 ; brim
G1 X90.550 Y128.614 E8.06520 ; brim
G1 X75.504 Y128.614 E9.09050 ; brim
G1 X75.504 Y128.921 E9.11141 ; brim
G1 X75.344 Y129.081 E9.12683 ; brim
G1 X73.229 Y129.081 E9.27093 ; brim
G1 X73.083 Y128.971 E9.28337 ; brim
G1 X72.799 Y127.988 E9.35309 ; brim
G1 X72.180 Y127.988 E9.39533 ; brim
G1 X72.020 Y127.828 E9.41075 ; brim
G1 X72.020 Y127.002 E9.46706 ; brim
G1 X72.180 Y126.842 E9.48248 ; brim
G1 X73.092 Y126.842 E9.54467 ; brim
G1 X73.030 Y126.583 E9.56282 ; brim
G1 X73.194 Y126.375 E9.58086 ; brim
G1 X73.237 Y126.375 E9.58378 ; brim
G1 X73.131 Y126.269 E9.59401 ; brim
G1 X73.128 Y124.350 E9.72478 ; brim
G1 X73.262 Y124.216 E9.73766 ; brim
G1 X73.129 Y124.083 E9.75047 ; brim
G1 X73.129 Y122.164 E9.88124 ; brim
G1 X73.262 Y122.031 E9.89407 ; brim
G1 X73.129 Y121.898 E9.90691 ; brim
G1 X73.129 Y119.979 E10.03768 ; brim
G1 X73.263 Y119.845 E10.05051 ; brim
G1 X73.129 Y119.712 E10.06335 ; brim
G1 X73.130 Y117.793 E10.19412 ; brim
G1 X73.263 Y117.660 E10.20695 ; brim
G1 X73.130 Y117.527 E10.21979 ; brim
G1 X73.130 Y115.608 E10.35056 ; brim
G1 X73.263 Y115.475 E10.36339 ; brim
G1 X73.130 Y115.341 E10.37623 ; brim
G1 X73.130 Y113.422 E10.50700 ; brim
G1 X73.263 Y113.289 E10.51983 ; brim
G1 X73.130 Y113.156 E10.53267 ; brim
G1 X73.131 Y111.237 E10.66344 ; brim
G1 X73.264 Y111.104 E10.67628 ; brim
G1 X73.131 Y110.971 E10.68911 ; brim
G1 X73.131 Y109.052 E10.81988 ; brim
G1 X73.264 Y108.918 E10.83272 ; brim
G1 X73.131 Y108.785 E10.84555 ; brim
G1 X73.131 Y106.866 E10.97632 ; brim
G1 X73.264 Y106.733 E10.98916 ; brim
G1 X73.131 Y106.600 E11.00199 ; brim
G1 X73.131 Y104.681 E11.13276 ; brim
G1 X73.265 Y104.548 E11.14560 ; brim
G1 X73.132 Y104.414 E11.15843 ; brim
G1 X73.132 Y102.495 E11.28920 ; brim
G1 X73.265 Y102.362 E11.30204 ; brim
G1 X73.132 Y102.229 E11.31487 ; brim
G1 X73.132 Y100.310 E11.44564 ; brim
G1 X73.265 Y100.177 E11.45848 ; brim
G1 X73.132 Y100.044 E11.47131 ; brim
G1 X73.132 Y98.125 E11.60208 ; brim
G1 X73.266 Y97.991 E11.61492 ; brim
G1 X73.132 Y97.858 E11.62775 ; brim
G1 X73.133 Y95.939 E11.75852 ; brim
G1 X73.266 Y95.806 E11.77136 ; brim
G1 X73.133 Y95.673 E11.78419 ; brim
G1 X73.133 Y93.754 E11.91496 ; brim
G1 X73.266 Y93.621 E11.92780 ; brim
G1 X73.133 Y93.487 E11.94063 ; brim
G1 X73.133 Y91.568 E12.07140 ; brim
G1 X73.266 Y91.435 E12.08424 ; brim
G1 X73.133 Y91.302 E12.09707 ; brim
G1 X73.134 Y89.383 E12.22784 ; brim
G1 X73.267 Y89.250 E12.24068 ; brim
G1 X73.134 Y89.117 E12.25351 ; brim
G1 X73.134 Y87.198 E12.38428 ; brim
G1 X73.267 Y87.064 E12.39712 ; brim
G1 X73.134 Y86.931 E12.40996 ; brim
G1 X73.134 Y85.012 E12.54072 ; brim
G1 X73.267 Y84.879 E12.55356 ; brim
G1 X73.134 Y84.746 E12.56640 ; brim
G1 X73.134 Y82.827 E12.69716 ; brim
G1 X73.268 Y82.694 E12.71000 ; brim
G1 X73.135 Y82.560 E12.72284 ; brim
G1 X73.135 Y80.641 E12.85360 ; brim
G1 X73.268 Y80.508 E12.86644 ; brim
G1 X73.135 Y80.375 E12.87928 ; brim
G1 X73.135 Y78.456 E13.01004 ; brim
G1 X73.268 Y78.323 E13.02288 ; brim
G1 X73.135 Y78.190 E13.03572 ; brim
G1 X73.135 Y76.271 E13.16649 ; brim
G1 X73.269 Y76.137 E13.17932 ; brim
G1 X73.135 Y76.004 E13.19216 ; brim
G1 X73.136 Y74.085 E13.32293 ; brim
G1 X73.269 Y73.952 E13.33576 ; brim
G1 X73.136 Y73.819 E13.34860 ; brim
G1 X73.136 Y73.188 E13.39159 ; brim
G1 X72.741 Y73.188 E13.41850 ; brim
G1 X72.578 Y72.955 E13.43786 ; brim
G1 X73.269 Y71.048 E13.57612 ; brim
G1 X73.411 Y70.949 E13.58787 ; brim
G1 X75.342 Y70.949 E13.71951 ; brim
G1 X75.502 Y71.109 E13.73493 ; brim
G1 X75.502 Y71.740 E13.77792 ; brim
G1 X92.995 Y71.740 E14.96991 ; brim
G1 X92.995 Y71.114 E15.01253 ; brim
G1 X93.155 Y70.954 E15.02796 ; brim
G1 X95.094 Y70.954 E15.16011 ; brim
G1 X95.235 Y71.053 E15.17186 ; brim
G1 X95.484 Y71.740 E15.22163 ; brim
G1 X95.795 Y71.740 E15.24277 ; brim
G1 X95.955 Y71.900 E15.25819 ; brim
G1 X95.955 Y72.047 E15.26822 ; brim
G1 X96.207 Y72.047 E15.28544 ; brim
G1 X96.367 Y72.207 E15.30086 ; brim
G1 X96.367 Y73.033 E15.35717 ; brim
G1 X96.207 Y73.193 E15.37259 ; brim
G1 X95.355 Y73.193 E15.43068 ; brim
G1 X95.356 Y74.911 E15.54776 ; brim
G1 X95.223 Y75.045 E15.56059 ; brim
G1 X95.356 Y75.178 E15.57343 ; brim
G1 X95.357 Y77.097 E15.70420 ; brim
G1 X95.224 Y77.230 E15.71703 ; brim
G1 X95.357 Y77.363 E15.72987 ; brim
G1 X95.358 Y79.282 E15.86064 ; brim
G1 X95.224 Y79.415 E15.87347 ; brim
G1 X95.358 Y79.549 E15.88631 ; brim
G1 X95.359 Y81.468 E16.01708 ; brim
G1 X95.225 Y81.601 E16.02991 ; brim
G1 X95.359 Y81.734 E16.04275 ; brim
G1 X95.360 Y83.653 E16.17352 ; brim
G1 X95.226 Y83.786 E16.18635 ; brim
G1 X95.360 Y83.919 E16.19919 ; brim
G1 X95.361 Y85.838 E16.32996 ; brim
G1 X95.227 Y85.972 E16.34279 ; brim
G1 X95.361 Y86.105 E16.35563 ; brim
G1 X95.361 Y88.024 E16.48640 ; brim
G1 X95.228 Y88.157 E16.49923 ; brim
G1 X95.362 Y88.290 E16.51207 ; brim
G1 X95.362 Y90.209 E16.64284 ; brim
G1 X95.229 Y90.342 E16.65567 ; brim
G1 X95.363 Y90.476 E16.66851 ; brim
G1 X95.363 Y92.395 E16.79928 ; brim
G1 X95.230 Y92.528 E16.81211 ; brim
G1 X95.364 Y92.661 E16.82495 ; brim
G1 X95.364 Y94.580 E16.95572 ; brim
G1 X95.231 Y94.713 E16.96855 ; brim
G1 X95.364 Y94.846 E16.98139 ; brim
G1 X95.365 Y96.765 E17.11216 ; brim
G1 X95.232 Y96.899 E17.12500 ; brim
G1 X95.365 Y97.032 E17.13783 ; brim
G1 X95.366 Y98.951 E17.26860 ; brim
G1 X95.233 Y99.084 E17.28144 ; brim
G1 X95.366 Y99.217 E17.29427 ; brim
G1 X95.367 Y101.136 E17.42504 ; brim
G1 X95.234 Y101.269 E17.43788 ; brim
G1 X95.367 Y101.403 E17.45072 ; brim
G1 X95.368 Y103.322 E17.58148 ; brim
G1 X95.235 Y103.455 E17.59432 ; brim
G1 X95.368 Y103.588 E17.60716 ; brim
G1 X95.369 Y105.507 E17.73792 ; brim
G1 X95.263 Y105.613 E17.74818 ; brim
G1 X95.809 Y105.613 E17.78543 ; brim
G1 X95.970 Y105.773 E17.80086 ; brim
G1 X95.970 Y106.600 E17.85716 ; brim
G1 X95.921 Y106.648 E17.86183 ; brim
G1 F1800.000 E16.86183 ; retract
G92 E0 ; reset extrusion distance
G1 X85.340 Y116.594 F7800.000 ; move to first brim point
G1 F1800.000 E1.00000 ; compensate retraction
G1 X85.262 Y116.654 F756.000 E1.00672 ; brim
G1 X84.762 Y118.567 E1.14144 ; brim
G1 X84.884 Y118.726 E1.15511 ; brim
