; generated by Slic3r 0.9.9 on 2014-04-06 at 00:15:28

; layer_height = 0.2
; perimeters = 3
; top_solid_layers = 3
; bottom_solid_layers = 3
; fill_density = 0.2
; perimeter_speed = 36
; infill_speed = 60
; travel_speed = 130
; nozzle_diameter = 0.35
; filament_diameter = 1.75
; extrusion_multiplier = 1
; perimeters extrusion width = 0.52mm
; infill extrusion width = 0.52mm
; solid infill extrusion width = 0.52mm
; top infill extrusion width = 0.52mm
; support material extrusion width = 0.52mm
; first layer extrusion width = 0.60mm

G21 ; set units to millimeters
M107 ; disable fan
M190 S95 ; wait for bed temperature to be reached
M104 S225 ; set temperature
G28 ; home all axes
G1 Z5 F5000 ; lift nozzle
M109 S225 ; wait for temperature to be reached
G90 ; use absolute coordinates
G92 E0 ; reset extrusion distance
M82 ; use absolute distances for extrusion
G1 F1800.000 E-1.00000 ; retract
G92 E0 ; reset extrusion distance
G1 Z0.300 F7800.000 ; move to next layer (0)
G1 X56.500 Y92.930 ; move to first skirt point
G1 F1800.000 E1.00000 ; compensate retraction
G1 X56.670 Y92.830 F756.000 E1.01344 ; skirt
G1 X57.040 Y92.660 E1.04119 ; skirt
G1 X57.230 Y92.590 E1.05499 ; skirt
G1 X57.610 Y92.490 E1.08176 ; skirt
G1 X120.260 Y79.360 E5.44372 ; skirt
G1 X120.840 Y79.310 E5.48339 ; skirt
G1 X134.670 Y79.310 E6.42581 ; skirt
G1 X135.260 Y79.360 E6.46616 ; skirt
G1 X135.650 Y79.450 E6.49344 ; skirt
G1 X136.200 Y79.660 E6.53355 ; skirt
G1 X136.550 Y79.850 E6.56069 ; skirt
G1 X137.020 Y80.200 E6.60062 ; skirt
G1 X137.430 Y80.630 E6.64111 ; skirt
G1 X137.660 Y80.950 E6.66797 ; skirt
G1 X137.940 Y81.480 E6.70881 ; skirt
G1 X138.010 Y81.660 E6.72197 ; skirt
G1 X144.940 Y104.940 E8.37715 ; skirt
G1 X145.030 Y105.350 E8.40576 ; skirt
G1 X145.080 Y105.760 E8.43390 ; skirt
G1 X145.080 Y106.180 E8.46253 ; skirt
G1 X145.030 Y106.600 E8.49135 ; skirt
G1 X144.930 Y107.000 E8.51944 ; skirt
G1 X143.940 Y110.180 E8.74640 ; skirt
G1 X143.800 Y110.560 E8.77400 ; skirt
G1 X143.320 Y111.650 E8.85516 ; skirt
G1 X143.140 Y112.000 E8.88197 ; skirt
G1 X142.500 Y113.100 E8.96870 ; skirt
G1 X142.270 Y113.450 E8.99724 ; skirt
G1 X140.930 Y114.970 E9.13532 ; skirt
G1 X136.390 Y119.340 E9.56472 ; skirt
G1 X135.920 Y119.720 E9.60591 ; skirt
G1 X135.570 Y119.930 E9.63372 ; skirt
G1 X135.000 Y120.160 E9.67561 ; skirt
G1 X134.610 Y120.260 E9.70304 ; skirt
G1 X134.210 Y120.320 E9.73061 ; skirt
G1 X134.000 Y120.330 E9.74493 ; skirt
G1 X79.980 Y121.430 E13.42682 ; skirt
G1 X59.090 Y121.420 E14.85034 ; skirt
G1 X58.470 Y121.360 E14.89279 ; skirt
G1 X58.080 Y121.270 E14.92006 ; skirt
G1 X57.880 Y121.200 E14.93450 ; skirt
G1 X57.690 Y121.130 E14.94830 ; skirt
G1 X57.320 Y120.940 E14.97664 ; skirt
G1 X56.980 Y120.720 E15.00424 ; skirt
G1 X56.660 Y120.460 E15.03234 ; skirt
G1 X56.380 Y120.160 E15.06030 ; skirt
G1 X55.460 Y119.070 E15.15750 ; skirt
G1 X55.210 Y118.730 E15.18626 ; skirt
G1 X55.000 Y118.370 E15.21466 ; skirt
G1 X54.830 Y117.980 E15.24365 ; skirt
G1 X54.770 Y117.790 E15.25722 ; skirt
G1 X54.670 Y117.380 E15.28598 ; skirt
G1 X54.630 Y116.960 E15.31473 ; skirt
G1 X54.800 Y95.730 E16.76147 ; skirt
G1 X54.850 Y95.330 E16.78894 ; skirt
G1 X54.940 Y94.940 E16.81621 ; skirt
G1 X55.160 Y94.390 E16.85658 ; skirt
G1 X55.360 Y94.040 E16.88405 ; skirt
G1 X55.600 Y93.710 E16.91186 ; skirt
G1 X56.010 Y93.280 E16.95234 ; skirt
G1 X56.431 Y92.975 E16.98780 ; skirt
G1 X57.101 Y94.845 F7800.000 ; move to first brim point
G1 X60.032 Y94.845 F756.000 E17.18755 ; brim
G1 X60.079 Y94.905 E17.19276 ; brim
G1 X77.635 Y94.905 E18.38914 ; brim
G1 X77.703 Y94.837 E18.39568 ; brim
G1 X81.684 Y94.837 E18.66696 ; brim
G1 X81.752 Y94.905 E18.67350 ; brim
G1 X119.711 Y94.905 E21.26013 ; brim
G1 X119.711 Y94.293 E21.30188 ; brim
G1 X120.191 Y93.813 E21.34814 ; brim
G1 X120.337 Y93.813 E21.35813 ; brim
G1 X120.337 Y86.882 E21.83039 ; brim
G1 X120.057 Y85.872 E21.90187 ; brim
G1 X119.923 Y85.737 E21.91480 ; brim
G1 X119.923 Y85.387 E21.93865 ; brim
G1 X119.699 Y84.579 E21.99584 ; brim
G1 X119.812 Y84.430 E22.00860 ; brim
G1 X119.296 Y83.749 E22.06680 ; brim
G1 X119.321 Y83.699 E22.07061 ; brim
G1 X119.127 Y83.505 E22.08928 ; brim
G1 X119.127 Y82.226 E22.17643 ; brim
G1 X119.607 Y81.746 E22.22270 ; brim
G1 X135.913 Y81.746 E23.33383 ; brim
G1 X136.393 Y82.226 E23.38010 ; brim
G1 X136.393 Y83.505 E23.46725 ; brim
G1 X136.114 Y83.784 E23.49413 ; brim
G1 X135.666 Y84.401 E23.54605 ; brim
G1 X135.802 Y84.579 E23.56130 ; brim
G1 X135.627 Y85.207 E23.60569 ; brim
G1 X135.925 Y85.505 E23.63439 ; brim
G1 X135.925 Y86.783 E23.72154 ; brim
G1 X135.445 Y87.264 E23.76781 ; brim
G1 X135.163 Y87.264 E23.78705 ; brim
G1 X135.163 Y90.535 E24.00995 ; brim
G1 X135.283 Y90.535 E24.01812 ; brim
G1 X135.763 Y91.015 E24.06439 ; brim
G1 X135.763 Y92.294 E24.15154 ; brim
G1 X135.283 Y92.774 E24.19780 ; brim
G1 X135.163 Y92.774 E24.20597 ; brim
G1 X135.163 Y96.482 E24.45870 ; brim
G1 X137.088 Y97.823 E24.61853 ; brim
G1 X137.126 Y97.935 E24.62666 ; brim
G1 X138.470 Y97.935 E24.71821 ; brim
G1 X138.950 Y98.416 E24.76447 ; brim
G1 X138.950 Y99.059 E24.80835 ; brim
G1 X139.100 Y99.196 E24.82219 ; brim
G1 X139.929 Y99.196 E24.87870 ; brim
G1 X140.384 Y99.574 E24.91901 ; brim
G1 X140.518 Y100.289 E24.96858 ; brim
G1 X140.829 Y100.289 E24.98976 ; brim
G1 X141.309 Y100.769 E25.03602 ; brim
G1 X141.309 Y102.048 E25.12317 ; brim
G1 X141.256 Y102.101 E25.12828 ; brim
G1 X141.691 Y102.899 E25.19017 ; brim
G1 X141.632 Y102.997 E25.19798 ; brim
G1 X142.085 Y104.840 E25.32728 ; brim
G1 X142.780 Y104.840 E25.37467 ; brim
G1 X143.260 Y105.320 E25.42093 ; brim
G1 X143.260 Y106.599 E25.50808 ; brim
G1 X142.780 Y107.079 E25.55434 ; brim
G1 X142.724 Y107.079 E25.55817 ; brim
G1 X142.724 Y107.691 E25.59991 ; brim
G1 X142.244 Y108.172 E25.64618 ; brim
G1 X141.990 Y108.172 E25.66350 ; brim
G1 X141.636 Y109.434 E25.75282 ; brim
G1 X141.793 Y109.590 E25.76793 ; brim
G1 X141.793 Y110.869 E25.85508 ; brim
G1 X141.313 Y111.349 E25.90134 ; brim
G1 X140.907 Y111.349 E25.92899 ; brim
G1 X139.104 Y113.390 E26.11454 ; brim
G1 X138.776 Y113.535 E26.13897 ; brim
G1 X138.538 Y114.060 E26.17827 ; brim
G1 X136.052 Y115.312 E26.36797 ; brim
G1 X136.111 Y115.418 E26.37625 ; brim
G1 X134.685 Y117.700 E26.55959 ; brim
G1 X134.314 Y117.906 E26.58848 ; brim
G1 X81.639 Y117.906 E30.17798 ; brim
G1 X81.639 Y118.521 E30.21992 ; brim
G1 X81.159 Y119.001 E30.26618 ; brim
G1 X78.668 Y119.001 E30.43590 ; brim
G1 X78.188 Y118.521 E30.48216 ; brim
G1 X78.188 Y117.906 E30.52409 ; brim
G1 X60.815 Y117.906 E31.70795 ; brim
G1 X60.815 Y118.518 E31.74970 ; brim
G1 X60.335 Y118.998 E31.79597 ; brim
G1 X58.776 Y118.998 E31.90220 ; brim
G1 X58.449 Y118.847 E31.92679 ; brim
G1 X56.555 Y116.617 E32.12610 ; brim
G1 X56.995 Y115.667 E32.19748 ; brim
G1 X57.838 Y115.667 E32.25489 ; brim
G1 X57.842 Y108.071 E32.77246 ; brim
G1 X57.723 Y108.071 E32.78059 ; brim
G1 X57.243 Y107.591 E32.82686 ; brim
G1 X57.243 Y106.312 E32.91401 ; brim
G1 X57.723 Y105.832 E32.96027 ; brim
G1 X57.843 Y105.832 E32.96848 ; brim
G1 X57.844 Y104.793 E33.03929 ; brim
G1 X57.724 Y104.793 E33.04742 ; brim
G1 X57.244 Y104.313 E33.09369 ; brim
G1 X57.244 Y103.034 E33.18084 ; brim
G1 X57.724 Y102.554 E33.22710 ; brim
G1 X57.845 Y102.554 E33.23531 ; brim
G1 X57.847 Y97.749 E33.56274 ; brim
G1 X57.688 Y97.544 E33.58049 ; brim
G1 X57.805 Y97.084 E33.61281 ; brim
G1 X57.101 Y97.084 E33.66078 ; brim
G1 X56.620 Y96.604 E33.70705 ; brim
G1 X56.620 Y95.325 E33.79420 ; brim
G1 X57.043 Y94.903 E33.83488 ; brim
G1 F1800.000 E32.83488 ; retract
G92 E0 ; reset extrusion distance
G1 X128.370 Y101.515 F7800.000 ; move to first brim point
G1 F1800.000 E1.00000 ; compensate retraction
G1 X131.988 Y101.515 F756.000 E1.24660 ; brim
G1 X131.988 Y102.128 E1.28834 ; brim
G1 X132.468 Y102.608 E1.33461 ; brim
G1 X134.177 Y102.608 E1.45103 ; brim
G1 X135.833 Y104.596 E1.62733 ; brim
G1 X136.153 Y106.368 E1.75006 ; brim
G1 X135.676 Y108.194 E1.87866 ; brim
G1 X133.376 Y109.865 E2.07238 ; brim
G1 X133.266 Y110.203 E2.09661 ; brim
G1 X130.839 Y110.203 E2.26200 ; brim
G1 X128.811 Y108.145 E2.45890 ; brim
G1 X128.370 Y106.454 E2.57797 ; brim
G1 X128.370 Y101.597 E2.90895 ; brim
G1 F1800.000 E1.90895 ; retract
G92 E0 ; reset extrusion distance
G1 X70.070 Y105.886 F7800.000 ; move to first brim point
G1 F1800.000 E1.00000 ; compensate retraction
G1 X69.965 Y106.925 F756.000 E1.07117 ; brim
G1 X69.035 Y106.925 E1.13449 ; brim
G1 X68.930 Y105.886 E1.20566 ; brim
G1 X69.988 Y105.886 E1.27781 ; brim
G1 F1800.000 E0.27781 ; retract
G92 E0 ; reset extrusion distance
G1 X58.496 Y106.379 F7800.000 ; move to first brim point
G1 F1800.000 E1.00000 ; compensate retraction
G1 X58.389 Y106.272 F756.000 E1.01026 ; brim
G1 X58.390 Y104.353 E1.14103 ; brim
G1 X58.497 Y104.247 E1.15127 ; brim
G1 X57.951 Y104.247 E1.18847 ; brim
G1 X57.791 Y104.087 E1.20389 ; brim
G1 X57.791 Y103.261 E1.26020 ; brim
G1 X57.951 Y103.101 E1.27562 ; brim
G1 X58.497 Y103.101 E1.31288 ; brim
G1 X58.391 Y102.994 E1.32314 ; brim
G1 X58.392 Y101.075 E1.45391 ; brim
G1 X58.525 Y100.942 E1.46675 ; brim
G1 X58.392 Y100.809 E1.47958 ; brim
G1 X58.393 Y98.890 E1.61035 ; brim
G1 X58.526 Y98.756 E1.62319 ; brim
G1 X58.393 Y98.623 E1.63602 ; brim
G1 X58.394 Y97.562 E1.70834 ; brim
G1 X58.283 Y97.419 E1.72066 ; brim
G1 X58.394 Y96.983 E1.75137 ; brim
G1 X58.394 Y96.704 E1.77033 ; brim
G1 X58.492 Y96.598 E1.78017 ; brim
G1 X58.188 Y96.598 E1.80087 ; brim
G1 X58.128 Y96.538 E1.80669 ; brim
G1 X57.327 Y96.538 E1.86128 ; brim
G1 X57.167 Y96.378 E1.87670 ; brim
G1 X57.167 Y95.551 E1.93301 ; brim
G1 X57.327 Y95.391 E1.94843 ; brim
G1 X59.764 Y95.391 E2.11454 ; brim
G1 X59.811 Y95.452 E2.11975 ; brim
G1 X77.862 Y95.452 E3.34977 ; brim
G1 X77.930 Y95.384 E3.35631 ; brim
G1 X81.458 Y95.384 E3.59675 ; brim
G1 X81.526 Y95.452 E3.60329 ; brim
G1 X120.363 Y95.452 E6.24982 ; brim
G1 X120.257 Y95.345 E6.26007 ; brim
G1 X120.257 Y94.519 E6.31638 ; brim
G1 X120.417 Y94.359 E6.33180 ; brim
G1 X120.990 Y94.359 E6.37085 ; brim
G1 X120.884 Y94.253 E6.38110 ; brim
G1 X120.884 Y92.334 E6.51187 ; brim
G1 X121.017 Y92.200 E6.52470 ; brim
G1 X120.884 Y92.067 E6.53754 ; brim
G1 X120.884 Y90.148 E6.66831 ; brim
G1 X121.017 Y90.015 E6.68114 ; brim
G1 X120.884 Y89.882 E6.69398 ; brim
G1 X120.884 Y87.963 E6.82475 ; brim
G1 X121.017 Y87.830 E6.83758 ; brim
G1 X120.884 Y87.696 E6.85042 ; brim
G1 X120.884 Y86.648 E6.92184 ; brim
G1 X120.828 Y86.606 E6.92664 ; brim
G1 X120.545 Y85.587 E6.99868 ; brim
G1 X120.469 Y85.511 E7.00600 ; brim
G1 X120.469 Y85.313 E7.01949 ; brim
G1 X120.298 Y84.694 E7.06328 ; brim
G1 X120.462 Y84.478 E7.08174 ; brim
G1 X120.535 Y84.478 E7.08673 ; brim
G1 X119.936 Y83.689 E7.15425 ; brim
G1 X120.060 Y83.439 E7.17325 ; brim
G1 X119.833 Y83.439 E7.18868 ; brim
G1 X119.673 Y83.279 E7.20410 ; brim
G1 X119.673 Y82.453 E7.26041 ; brim
G1 X119.833 Y82.293 E7.27583 ; brim
G1 X135.687 Y82.293 E8.35613 ; brim
G1 X135.847 Y82.453 E8.37155 ; brim
G1 X135.847 Y83.279 E8.42786 ; brim
G1 X135.687 Y83.439 E8.44328 ; brim
G1 X135.387 Y83.439 E8.46367 ; brim
G1 X135.512 Y83.684 E8.48238 ; brim
G1 X134.935 Y84.478 E8.54928 ; brim
G1 X135.039 Y84.478 E8.55634 ; brim
G1 X135.203 Y84.694 E8.57481 ; brim
G1 X134.959 Y85.571 E8.63683 ; brim
G1 X135.219 Y85.571 E8.65453 ; brim
G1 X135.379 Y85.731 E8.66995 ; brim
G1 X135.379 Y86.557 E8.72626 ; brim
G1 X135.219 Y86.717 E8.74168 ; brim
G1 X134.565 Y86.717 E8.78626 ; brim
G1 X134.510 Y86.764 E8.79115 ; brim
G1 X134.616 Y86.870 E8.80140 ; brim
G1 X134.616 Y88.789 E8.93217 ; brim
G1 X134.483 Y88.922 E8.94501 ; brim
G1 X134.616 Y89.055 E8.95784 ; brim
G1 X134.616 Y90.975 E9.08861 ; brim
G1 X134.510 Y91.081 E9.09886 ; brim
G1 X135.056 Y91.081 E9.13609 ; brim
G1 X135.216 Y91.241 E9.15151 ; brim
G1 X135.216 Y92.067 E9.20782 ; brim
G1 X135.056 Y92.227 E9.22324 ; brim
G1 X134.510 Y92.227 E9.26047 ; brim
G1 X134.616 Y92.334 E9.27072 ; brim
G1 X134.616 Y94.253 E9.40149 ; brim
G1 X134.483 Y94.386 E9.41433 ; brim
G1 X134.616 Y94.519 E9.42716 ; brim
G1 X134.616 Y96.438 E9.55793 ; brim
G1 X134.456 Y96.598 E9.57335 ; brim
G1 X134.373 Y96.598 E9.57904 ; brim
G1 X136.628 Y98.169 E9.76634 ; brim
G1 X136.686 Y98.338 E9.77854 ; brim
G1 X136.641 Y98.482 E9.78881 ; brim
G1 X138.243 Y98.482 E9.89798 ; brim
G1 X138.403 Y98.642 E9.91340 ; brim
G1 X138.403 Y99.300 E9.95828 ; brim
G1 X138.888 Y99.743 E10.00298 ; brim
G1 X139.732 Y99.743 E10.06050 ; brim
G1 X139.883 Y99.869 E10.07393 ; brim
G1 X140.065 Y100.835 E10.14097 ; brim
G1 X140.603 Y100.835 E10.17762 ; brim
G1 X140.763 Y100.995 E10.19304 ; brim
G1 X140.763 Y101.822 E10.24935 ; brim
G1 X140.603 Y101.982 E10.26477 ; brim
G1 X140.569 Y101.982 E10.26706 ; brim
G1 X141.062 Y102.887 E10.33729 ; brim
G1 X140.935 Y103.101 E10.35423 ; brim
G1 X140.975 Y103.101 E10.35694 ; brim
G1 X141.123 Y103.217 E10.36980 ; brim
G1 X141.594 Y105.130 E10.50406 ; brim
G1 X141.461 Y105.300 E10.51875 ; brim
G1 X141.545 Y105.386 E10.52699 ; brim
G1 X142.554 Y105.386 E10.59571 ; brim
G1 X142.714 Y105.546 E10.61113 ; brim
G1 X142.714 Y106.372 E10.66744 ; brim
G1 X142.554 Y106.532 E10.68286 ; brim
G1 X142.071 Y106.532 E10.71574 ; brim
G1 X142.178 Y106.639 E10.72599 ; brim
G1 X142.178 Y107.465 E10.78229 ; brim
G1 X142.018 Y107.625 E10.79772 ; brim
G1 X141.511 Y107.625 E10.83227 ; brim
G1 X141.558 Y107.688 E10.83760 ; brim
G1 X141.022 Y109.599 E10.97290 ; brim
G1 X140.947 Y109.657 E10.97937 ; brim
G1 X141.087 Y109.657 E10.98889 ; brim
G1 X141.247 Y109.817 E11.00432 ; brim
G1 X141.247 Y110.643 E11.06062 ; brim
G1 X141.087 Y110.803 E11.07604 ; brim
G1 X140.303 Y110.803 E11.12944 ; brim
G1 X140.424 Y111.071 E11.14948 ; brim
G1 X138.773 Y112.940 E11.31943 ; brim
G1 X138.665 Y112.989 E11.32744 ; brim
G1 X138.019 Y112.989 E11.37148 ; brim
G1 X138.100 Y113.053 E11.37852 ; brim
G1 X138.203 Y113.485 E11.40884 ; brim
G1 X138.123 Y113.657 E11.42177 ; brim
G1 X135.217 Y115.120 E11.64343 ; brim
G1 X135.321 Y115.120 E11.65046 ; brim
G1 X135.477 Y115.402 E11.67239 ; brim
G1 X134.297 Y117.291 E11.82418 ; brim
G1 X134.173 Y117.359 E11.83381 ; brim
G1 X80.983 Y117.359 E15.45834 ; brim
G1 X81.092 Y117.468 E15.46885 ; brim
G1 X81.092 Y118.295 E15.52516 ; brim
G1 X80.932 Y118.455 E15.54058 ; brim
G1 X78.894 Y118.455 E15.67946 ; brim
G1 X78.734 Y118.295 E15.69488 ; brim
G1 X78.734 Y117.468 E15.75119 ; brim
G1 X78.844 Y117.359 E15.76170 ; brim
G1 X60.162 Y117.359 E17.03470 ; brim
G1 X60.269 Y117.466 E17.04495 ; brim
G1 X60.269 Y118.292 E17.10126 ; brim
G1 X60.109 Y118.452 E17.11668 ; brim
G1 X58.896 Y118.452 E17.19930 ; brim
G1 X58.787 Y118.401 E17.20750 ; brim
G1 X57.198 Y116.530 E17.37481 ; brim
G1 X57.345 Y116.213 E17.39860 ; brim
G1 X58.490 Y116.213 E17.47669 ; brim
G1 X58.384 Y116.106 E17.48694 ; brim
G1 X58.385 Y114.187 E17.61771 ; brim
G1 X58.518 Y114.054 E17.63055 ; brim
G1 X58.385 Y113.921 E17.64339 ; brim
G1 X58.386 Y112.002 E17.77415 ; brim
G1 X58.519 Y111.869 E17.78699 ; brim
G1 X58.386 Y111.736 E17.79983 ; brim
G1 X58.387 Y109.817 E17.93059 ; brim
G1 X58.521 Y109.683 E17.94343 ; brim
G1 X58.388 Y109.550 E17.95627 ; brim
G1 X58.389 Y107.631 E18.08703 ; brim
G1 X58.495 Y107.525 E18.09728 ; brim
G1 X57.949 Y107.525 E18.13448 ; brim
G1 X57.789 Y107.365 E18.14990 ; brim
G1 X57.789 Y106.539 E18.20621 ; brim
G1 X57.949 Y106.379 E18.22163 ; brim
G1 X58.414 Y106.379 E18.25330 ; brim
G1 F1800.000 E17.25330 ; retract
G92 E0 ; reset extrusion distance
G1 X127.695 Y106.400 F7800.000 ; move to first brim point
G1 F1800.000 E1.00000 ; compensate retraction
G1 X127.823 Y106.272 F756.000 E1.01233 ; brim
G1 X127.823 Y104.353 E1.14310 ; brim
G1 X127.690 Y104.220 E1.15593 ; brim
G1 X127.823 Y104.087 E1.16877 ; brim
G1 X127.823 Y102.168 E1.29954 ; brim
G1 X127.690 Y102.035 E1.31237 ; brim
G1 X127.823 Y101.901 E1.32521 ; brim
G1 X127.823 Y100.969 E1.38876 ; brim
G1 X132.641 Y100.969 E1.71707 ; brim
G1 X132.535 Y101.075 E1.72732 ; brim
G1 X132.535 Y101.901 E1.78363 ; brim
G1 X132.695 Y102.062 E1.79905 ; brim
G1 X134.772 Y102.062 E1.94063 ; brim
G1 X134.650 Y102.322 E1.96026 ; brim
G1 X136.210 Y104.195 E2.12635 ; brim
G1 X136.320 Y104.247 E2.13464 ; brim
G1 X136.469 Y104.247 E2.14482 ; brim
