; generated by Slic3r 0.9.9 on 2014-03-27 at 22:51:19

; layer_height = 0.2
; perimeters = 3
; top_solid_layers = 3
; bottom_solid_layers = 3
; fill_density = 0.2
; perimeter_speed = 36
; infill_speed = 60
; travel_speed = 130
; nozzle_diameter = 0.35
; filament_diameter = 1.75
; extrusion_multiplier = 1
; perimeters extrusion width = 0.52mm
; infill extrusion width = 0.52mm
; solid infill extrusion width = 0.52mm
; top infill extrusion width = 0.52mm
; support material extrusion width = 0.52mm
; first layer extrusion width = 0.60mm

G21 ; set units to millimeters
M107 ; disable fan
M190 S95 ; wait for bed temperature to be reached
M104 S225 ; set temperature
G28 ; home all axes
G1 Z5 F5000 ; lift nozzle
M109 S225 ; wait for temperature to be reached
G90 ; use absolute coordinates
G92 E0 ; reset extrusion distance
M82 ; use absolute distances for extrusion
G1 F1800.000 E-1.00000 ; retract
G92 E0 ; reset extrusion distance
G1 Z0.300 F7800.000 ; move to next layer (0)
G1 X76.580 Y76.104 ; move to first skirt point
G1 F1800.000 E1.00000 ; compensate retraction
G1 X77.910 Y74.824 F756.000 E1.12579 ; skirt
G1 X78.270 Y74.514 E1.15816 ; skirt
G1 X82.900 Y71.154 E1.54799 ; skirt
G1 X83.140 Y71.004 E1.56728 ; skirt
G1 X85.800 Y69.774 E1.76698 ; skirt
G1 X88.250 Y68.674 E1.94999 ; skirt
G1 X88.770 Y68.494 E1.98748 ; skirt
G1 X92.990 Y67.354 E2.28536 ; skirt
G1 X93.360 Y67.294 E2.31090 ; skirt
G1 X93.730 Y67.274 E2.33615 ; skirt
G1 X106.260 Y67.274 E3.18999 ; skirt
G1 X106.630 Y67.294 E3.21524 ; skirt
G1 X107.000 Y67.354 E3.24078 ; skirt
G1 X111.220 Y68.494 E3.53866 ; skirt
G1 X111.740 Y68.674 E3.57616 ; skirt
G1 X114.190 Y69.774 E3.75916 ; skirt
G1 X116.600 Y70.884 E3.93997 ; skirt
G1 X116.970 Y71.074 E3.96832 ; skirt
G1 X121.720 Y74.514 E4.36797 ; skirt
G1 X122.080 Y74.824 E4.40034 ; skirt
G1 X123.410 Y76.104 E4.52613 ; skirt
G1 X126.360 Y79.384 E4.82674 ; skirt
G1 X127.370 Y80.714 E4.94054 ; skirt
G1 X127.610 Y81.064 E4.96946 ; skirt
G1 X130.140 Y85.434 E5.31355 ; skirt
G1 X130.790 Y86.824 E5.41812 ; skirt
G1 X130.940 Y87.214 E5.44659 ; skirt
G1 X131.990 Y90.474 E5.67998 ; skirt
G1 X132.370 Y91.594 E5.76057 ; skirt
G1 X132.720 Y92.694 E5.83923 ; skirt
G1 X132.830 Y93.114 E5.86882 ; skirt
G1 X133.450 Y98.844 E6.26156 ; skirt
G1 X133.500 Y100.194 E6.35362 ; skirt
G1 X133.490 Y100.674 E6.38634 ; skirt
G1 X133.380 Y101.794 E6.46302 ; skirt
G1 X132.920 Y106.164 E6.76246 ; skirt
G1 X132.840 Y106.614 E6.79360 ; skirt
G1 X132.500 Y107.984 E6.88979 ; skirt
G1 X131.080 Y112.354 E7.20291 ; skirt
G1 X130.640 Y113.564 E7.29064 ; skirt
G1 X130.380 Y114.114 E7.33210 ; skirt
G1 X128.490 Y117.394 E7.59006 ; skirt
G1 X127.860 Y118.484 E7.67585 ; skirt
G1 X127.100 Y119.694 E7.77322 ; skirt
G1 X126.740 Y120.184 E7.81465 ; skirt
G1 X122.810 Y124.554 E8.21515 ; skirt
G1 X122.510 Y124.854 E8.24406 ; skirt
G1 X120.830 Y126.114 E8.38716 ; skirt
G1 X117.800 Y128.324 E8.64272 ; skirt
G1 X117.400 Y128.584 E8.67523 ; skirt
G1 X115.390 Y129.674 E8.83105 ; skirt
G1 X112.690 Y130.884 E9.03267 ; skirt
G1 X109.490 Y132.064 E9.26508 ; skirt
G1 X109.010 Y132.204 E9.29915 ; skirt
G1 X103.580 Y133.354 E9.67738 ; skirt
G1 X103.130 Y133.384 E9.70811 ; skirt
G1 X96.860 Y133.384 E10.13537 ; skirt
G1 X96.260 Y133.334 E10.17640 ; skirt
G1 X90.980 Y132.204 E10.54435 ; skirt
G1 X90.500 Y132.064 E10.57842 ; skirt
G1 X87.520 Y130.974 E10.79464 ; skirt
G1 X84.850 Y129.794 E10.99356 ; skirt
G1 X82.590 Y128.584 E11.16825 ; skirt
G1 X82.190 Y128.324 E11.20076 ; skirt
G1 X79.160 Y126.114 E11.45632 ; skirt
G1 X77.700 Y125.024 E11.58048 ; skirt
G1 X77.480 Y124.844 E11.59985 ; skirt
G1 X77.170 Y124.544 E11.62925 ; skirt
G1 X73.250 Y120.184 E12.02878 ; skirt
G1 X72.890 Y119.694 E12.07022 ; skirt
G1 X72.130 Y118.484 E12.16759 ; skirt
G1 X71.500 Y117.394 E12.25338 ; skirt
G1 X69.610 Y114.114 E12.51134 ; skirt
G1 X69.350 Y113.564 E12.55279 ; skirt
G1 X68.950 Y112.474 E12.63192 ; skirt
G1 X67.490 Y107.984 E12.95365 ; skirt
G1 X67.150 Y106.614 E13.04984 ; skirt
G1 X67.070 Y106.164 E13.08098 ; skirt
G1 X66.500 Y100.694 E13.45575 ; skirt
G1 X66.490 Y100.194 E13.48983 ; skirt
G1 X66.540 Y98.854 E13.58120 ; skirt
G1 X67.120 Y93.404 E13.95468 ; skirt
G1 X67.190 Y92.974 E13.98437 ; skirt
G1 X67.620 Y91.594 E14.08287 ; skirt
G1 X69.040 Y87.224 E14.39598 ; skirt
G1 X69.200 Y86.824 E14.42534 ; skirt
G1 X69.850 Y85.444 E14.52929 ; skirt
G1 X72.380 Y81.064 E14.87397 ; skirt
G1 X72.620 Y80.714 E14.90289 ; skirt
G1 X73.630 Y79.384 E15.01669 ; skirt
G1 X76.525 Y76.165 E15.31172 ; skirt
G1 F1800.000 E14.31172 ; retract
G92 E0 ; reset extrusion distance
G1 X78.604 Y77.501 F7800.000 ; move to first brim point
G1 F1800.000 E1.00000 ; compensate retraction
G1 X78.842 Y77.395 F756.000 E1.01776 ; brim
G1 X78.963 Y77.021 E1.04454 ; brim
G1 X81.396 Y75.254 E1.24940 ; brim
G1 X81.642 Y75.174 E1.26709 ; brim
G1 X81.861 Y75.174 E1.28201 ; brim
G1 X81.971 Y74.836 E1.30623 ; brim
G1 X84.403 Y73.069 E1.51110 ; brim
G1 X84.650 Y72.989 E1.52879 ; brim
G1 X85.618 Y72.989 E1.59476 ; brim
G1 X85.605 Y72.924 E1.59924 ; brim
G1 X85.868 Y72.407 E1.63879 ; brim
G1 X89.390 Y70.839 E1.90152 ; brim
G1 X89.559 Y70.803 E1.91325 ; brim
G1 X92.013 Y70.803 E2.08046 ; brim
G1 X92.013 Y70.190 E2.12221 ; brim
G1 X92.493 Y69.710 E2.16847 ; brim
G1 X106.362 Y69.710 E3.11360 ; brim
G1 X106.470 Y69.725 E3.12102 ; brim
G1 X111.642 Y71.130 E3.48623 ; brim
G1 X111.983 Y71.643 E3.52822 ; brim
G1 X111.950 Y71.896 E3.54562 ; brim
G1 X112.900 Y71.896 E3.61038 ; brim
G1 X113.073 Y71.934 E3.62246 ; brim
G1 X116.511 Y73.514 E3.88028 ; brim
G1 X116.768 Y74.031 E3.91964 ; brim
G1 X116.757 Y74.081 E3.92314 ; brim
G1 X116.854 Y74.081 E3.92971 ; brim
G1 X117.101 Y74.161 E3.94740 ; brim
G1 X119.533 Y75.929 E4.15227 ; brim
G1 X119.643 Y76.267 E4.17649 ; brim
G1 X119.914 Y76.267 E4.19498 ; brim
G1 X120.209 Y76.385 E4.21664 ; brim
G1 X122.482 Y78.572 E4.43155 ; brim
G1 X122.444 Y78.665 E4.43839 ; brim
G1 X124.347 Y80.779 E4.63221 ; brim
G1 X124.408 Y80.809 E4.63682 ; brim
G1 X126.113 Y83.060 E4.82925 ; brim
G1 X126.044 Y83.199 E4.83984 ; brim
G1 X128.539 Y87.520 E5.17989 ; brim
G1 X128.510 Y87.571 E5.18386 ; brim
G1 X130.666 Y94.222 E5.66032 ; brim
G1 X130.537 Y94.399 E5.67520 ; brim
G1 X130.972 Y98.537 E5.95878 ; brim
G1 X131.013 Y98.577 E5.96269 ; brim
G1 X131.111 Y100.948 E6.12440 ; brim
G1 X131.016 Y101.047 E6.13377 ; brim
G1 X130.579 Y105.199 E6.41820 ; brim
G1 X130.659 Y105.299 E6.42691 ; brim
G1 X130.102 Y107.655 E6.59188 ; brim
G1 X130.047 Y107.699 E6.59669 ; brim
G1 X128.687 Y111.883 E6.89647 ; brim
G1 X128.786 Y112.053 E6.90984 ; brim
G1 X126.269 Y116.411 E7.25278 ; brim
G1 X126.292 Y116.451 E7.25594 ; brim
G1 X124.852 Y118.732 E7.43971 ; brim
G1 X124.725 Y118.802 E7.44959 ; brim
G1 X120.797 Y123.165 E7.84964 ; brim
G1 X120.479 Y123.306 E7.87338 ; brim
G1 X120.230 Y123.306 E7.89030 ; brim
G1 X120.121 Y123.644 E7.91452 ; brim
G1 X117.688 Y125.412 E8.11938 ; brim
G1 X117.441 Y125.492 E8.13707 ; brim
G1 X117.319 Y125.492 E8.14540 ; brim
G1 X117.107 Y125.979 E8.18161 ; brim
G1 X114.083 Y127.626 E8.41627 ; brim
G1 X113.884 Y127.677 E8.43027 ; brim
G1 X112.895 Y127.677 E8.49766 ; brim
G1 X112.921 Y127.822 E8.50765 ; brim
G1 X112.624 Y128.338 E8.54826 ; brim
G1 X108.545 Y129.837 E8.84438 ; brim
G1 X108.403 Y129.863 E8.85424 ; brim
G1 X104.856 Y129.863 E9.09593 ; brim
G1 X104.856 Y130.475 E9.13768 ; brim
G1 X104.376 Y130.955 E9.18394 ; brim
G1 X96.789 Y130.955 E9.70092 ; brim
G1 X90.390 Y129.604 E10.14661 ; brim
G1 X90.020 Y129.095 E10.18948 ; brim
G1 X90.054 Y128.770 E10.21177 ; brim
G1 X88.600 Y128.770 E10.31090 ; brim
G1 X88.431 Y128.734 E10.32264 ; brim
G1 X84.909 Y127.166 E10.58536 ; brim
G1 X84.645 Y126.649 E10.62491 ; brim
G1 X84.659 Y126.584 E10.62939 ; brim
G1 X84.062 Y126.584 E10.67005 ; brim
G1 X83.816 Y126.504 E10.68774 ; brim
G1 X81.383 Y124.737 E10.89261 ; brim
G1 X81.274 Y124.399 E10.91683 ; brim
G1 X81.048 Y124.399 E10.93217 ; brim
G1 X80.796 Y124.315 E10.95034 ; brim
G1 X78.427 Y122.533 E11.15231 ; brim
G1 X78.294 Y122.105 E11.18284 ; brim
G1 X78.219 Y122.072 E11.18840 ; brim
G1 X74.255 Y117.669 E11.59215 ; brim
G1 X74.343 Y117.471 E11.60691 ; brim
G1 X71.914 Y113.264 E11.93797 ; brim
G1 X71.786 Y113.174 E11.94860 ; brim
G1 X70.945 Y110.837 E12.11785 ; brim
G1 X70.964 Y110.810 E12.12006 ; brim
G1 X69.546 Y106.445 E12.43282 ; brim
G1 X68.849 Y99.756 E12.89113 ; brim
G1 X68.907 Y99.691 E12.89706 ; brim
G1 X69.602 Y93.078 E13.35017 ; brim
G1 X69.742 Y92.952 E13.36300 ; brim
G1 X71.095 Y88.786 E13.66154 ; brim
G1 X71.027 Y88.679 E13.67018 ; brim
G1 X72.089 Y86.361 E13.84396 ; brim
G1 X72.155 Y86.319 E13.84925 ; brim
G1 X74.667 Y81.967 E14.19165 ; brim
G1 X74.639 Y81.904 E14.19635 ; brim
G1 X78.549 Y77.562 E14.59451 ; brim
G1 X78.932 Y77.953 F7800.000 ; move to first brim point
G1 X79.038 Y77.906 F756.000 E14.60243 ; brim
G1 X79.549 Y77.906 E14.63725 ; brim
G1 X79.479 Y77.855 E14.64313 ; brim
G1 X79.373 Y77.528 E14.66657 ; brim
G1 X79.428 Y77.359 E14.67867 ; brim
G1 X81.647 Y75.747 E14.86555 ; brim
G1 X81.729 Y75.720 E14.87144 ; brim
G1 X82.557 Y75.720 E14.92788 ; brim
G1 X82.487 Y75.670 E14.93376 ; brim
G1 X82.381 Y75.342 E14.95720 ; brim
G1 X82.436 Y75.174 E14.96929 ; brim
G1 X84.654 Y73.562 E15.15617 ; brim
G1 X84.737 Y73.535 E15.16207 ; brim
G1 X86.363 Y73.535 E15.27286 ; brim
G1 X86.279 Y73.467 E15.28023 ; brim
G1 X86.179 Y73.000 E15.31276 ; brim
G1 X86.267 Y72.827 E15.32594 ; brim
G1 X89.560 Y71.361 E15.57157 ; brim
G1 X92.665 Y71.349 E15.78318 ; brim
G1 X92.559 Y71.243 E15.79343 ; brim
G1 X92.559 Y70.417 E15.84973 ; brim
G1 X92.719 Y70.257 E15.86516 ; brim
G1 X106.326 Y70.257 E16.79239 ; brim
G1 X111.301 Y71.603 E17.14359 ; brim
G1 X111.415 Y71.774 E17.15759 ; brim
G1 X111.336 Y72.361 E17.19791 ; brim
G1 X111.243 Y72.442 E17.20635 ; brim
G1 X112.898 Y72.455 E17.31916 ; brim
G1 X116.107 Y73.930 E17.55983 ; brim
G1 X116.193 Y74.102 E17.57295 ; brim
G1 X116.093 Y74.560 E17.60491 ; brim
G1 X116.010 Y74.628 E17.61220 ; brim
G1 X116.767 Y74.628 E17.66381 ; brim
G1 X116.849 Y74.654 E17.66971 ; brim
G1 X119.068 Y76.266 E17.85658 ; brim
G1 X119.123 Y76.435 E17.86868 ; brim
G1 X119.017 Y76.762 E17.89212 ; brim
G1 X118.947 Y76.813 E17.89800 ; brim
G1 X119.808 Y76.813 E17.95669 ; brim
G1 X119.906 Y76.853 E17.96391 ; brim
G1 X121.837 Y78.710 E18.14647 ; brim
G1 X121.721 Y78.998 E18.16767 ; brim
G1 X121.946 Y78.998 E18.18299 ; brim
G1 X122.052 Y79.046 E18.19090 ; brim
G1 X123.733 Y80.913 E18.36216 ; brim
G1 X123.613 Y81.184 E18.38234 ; brim
G1 X123.935 Y81.184 E18.40428 ; brim
G1 X124.050 Y81.241 E18.41303 ; brim
G1 X125.473 Y83.120 E18.57364 ; brim
G1 X125.349 Y83.369 E18.59263 ; brim
G1 X125.427 Y83.369 E18.59792 ; brim
G1 X125.554 Y83.442 E18.60790 ; brim
G1 X126.646 Y85.335 E18.75683 ; brim
G1 X126.520 Y85.555 E18.77410 ; brim
G1 X126.689 Y85.555 E18.78561 ; brim
G1 X126.815 Y85.628 E18.79559 ; brim
G1 X127.908 Y87.520 E18.94452 ; brim
G1 X127.781 Y87.740 E18.96179 ; brim
G1 X127.881 Y87.740 E18.96855 ; brim
G1 X128.024 Y87.844 E18.98065 ; brim
G1 X128.645 Y89.754 E19.11746 ; brim
G1 X128.520 Y89.925 E19.13191 ; brim
G1 X128.591 Y89.925 E19.13673 ; brim
G1 X128.734 Y90.030 E19.14883 ; brim
G1 X129.355 Y91.939 E19.28564 ; brim
G1 X129.230 Y92.111 E19.30009 ; brim
G1 X129.302 Y92.111 E19.30496 ; brim
G1 X129.445 Y92.216 E19.31708 ; brim
G1 X130.060 Y94.125 E19.45380 ; brim
G1 X129.895 Y94.350 E19.47279 ; brim
G1 X129.992 Y94.436 E19.48162 ; brim
G1 X130.193 Y96.354 E19.61304 ; brim
G1 X130.073 Y96.488 E19.62530 ; brim
G1 X130.221 Y96.622 E19.63892 ; brim
G1 X130.423 Y98.540 E19.77033 ; brim
G1 X130.308 Y98.667 E19.78199 ; brim
G1 X130.477 Y98.819 E19.79744 ; brim
G1 X130.555 Y100.738 E19.92831 ; brim
G1 X130.394 Y100.906 E19.94418 ; brim
G1 X130.353 Y100.906 E19.94696 ; brim
G1 X130.468 Y101.033 E19.95861 ; brim
G1 X130.266 Y102.951 E20.09003 ; brim
G1 X130.118 Y103.085 E20.10365 ; brim
G1 X130.238 Y103.219 E20.11591 ; brim
G1 X130.037 Y105.136 E20.24733 ; brim
G1 X129.918 Y105.243 E20.25819 ; brim
G1 X130.066 Y105.430 E20.27447 ; brim
G1 X129.614 Y107.344 E20.40847 ; brim
G1 X129.465 Y107.462 E20.42142 ; brim
G1 X129.369 Y107.462 E20.42799 ; brim
G1 X129.493 Y107.634 E20.44244 ; brim
G1 X128.873 Y109.543 E20.57925 ; brim
G1 X128.729 Y109.648 E20.59135 ; brim
G1 X128.659 Y109.648 E20.59617 ; brim
G1 X128.783 Y109.819 E20.61062 ; brim
G1 X128.163 Y111.729 E20.74743 ; brim
G1 X128.025 Y111.829 E20.75902 ; brim
G1 X128.155 Y112.053 E20.77664 ; brim
G1 X127.062 Y113.945 E20.92556 ; brim
G1 X126.935 Y114.018 E20.93554 ; brim
G1 X126.766 Y114.018 E20.94705 ; brim
G1 X126.893 Y114.238 E20.96433 ; brim
G1 X125.800 Y116.131 E21.11325 ; brim
G1 X125.673 Y116.204 E21.12323 ; brim
G1 X125.531 Y116.204 E21.13292 ; brim
G1 X125.657 Y116.433 E21.15073 ; brim
G1 X124.465 Y118.321 E21.30293 ; brim
G1 X124.342 Y118.389 E21.31251 ; brim
G1 X123.998 Y118.389 E21.33598 ; brim
G1 X124.118 Y118.660 E21.35616 ; brim
G1 X122.436 Y120.527 E21.52742 ; brim
G1 X122.330 Y120.575 E21.53534 ; brim
G1 X122.030 Y120.575 E21.55581 ; brim
G1 X122.150 Y120.845 E21.57598 ; brim
G1 X120.469 Y122.713 E21.74724 ; brim
G1 X120.362 Y122.760 E21.75516 ; brim
G1 X119.535 Y122.760 E21.81157 ; brim
G1 X119.604 Y122.811 E21.81745 ; brim
G1 X119.711 Y123.138 E21.84089 ; brim
G1 X119.656 Y123.307 E21.85299 ; brim
G1 X117.437 Y124.919 E22.03986 ; brim
G1 X117.355 Y124.945 E22.04576 ; brim
G1 X116.572 Y124.945 E22.09908 ; brim
G1 X116.651 Y125.007 E22.10589 ; brim
G1 X116.756 Y125.417 E22.13475 ; brim
G1 X116.681 Y125.589 E22.14751 ; brim
G1 X113.882 Y127.114 E22.36473 ; brim
G1 X113.815 Y127.131 E22.36940 ; brim
G1 X112.168 Y127.131 E22.48167 ; brim
G1 X112.256 Y127.205 E22.48951 ; brim
G1 X112.348 Y127.722 E22.52530 ; brim
G1 X112.249 Y127.894 E22.53884 ; brim
G1 X108.402 Y129.308 E22.81814 ; brim
G1 X104.203 Y129.316 E23.10426 ; brim
G1 X104.310 Y129.423 E23.11451 ; brim
G1 X104.310 Y130.249 E23.17082 ; brim
G1 X104.149 Y130.409 E23.18624 ; brim
G1 X96.818 Y130.409 E23.68585 ; brim
G1 X90.709 Y129.113 E24.11141 ; brim
G1 X90.585 Y128.944 E24.12570 ; brim
G1 X90.652 Y128.310 E24.16911 ; brim
G1 X90.748 Y128.223 E24.17794 ; brim
G1 X88.601 Y128.212 E24.32426 ; brim
G1 X85.308 Y126.745 E24.56989 ; brim
G1 X85.220 Y126.573 E24.58308 ; brim
G1 X85.319 Y126.106 E24.61560 ; brim
G1 X85.403 Y126.038 E24.62298 ; brim
G1 X84.149 Y126.038 E24.70846 ; brim
G1 X84.067 Y126.011 E24.71436 ; brim
G1 X81.848 Y124.399 E24.90123 ; brim
G1 X81.793 Y124.231 E24.91333 ; brim
G1 X81.900 Y123.903 E24.93677 ; brim
G1 X81.969 Y123.853 E24.94265 ; brim
G1 X81.137 Y123.853 E24.99935 ; brim
G1 X81.053 Y123.825 E25.00540 ; brim
G1 X78.896 Y122.202 E25.18931 ; brim
G1 X78.844 Y122.034 E25.20132 ; brim
G1 X78.950 Y121.717 E25.22412 ; brim
G1 X79.018 Y121.667 E25.22988 ; brim
G1 X78.654 Y121.667 E25.25473 ; brim
G1 X78.548 Y121.620 E25.26264 ; brim
G1 X76.866 Y119.752 E25.43390 ; brim
G1 X76.986 Y119.482 E25.45408 ; brim
G1 X76.686 Y119.482 E25.47455 ; brim
G1 X76.580 Y119.435 E25.48246 ; brim
G1 X74.898 Y117.567 E25.65372 ; brim
G1 X75.018 Y117.296 E25.67390 ; brim
G1 X74.957 Y117.296 E25.67806 ; brim
G1 X74.831 Y117.223 E25.68804 ; brim
G1 X73.738 Y115.331 E25.83696 ; brim
G1 X73.865 Y115.111 E25.85424 ; brim
G1 X73.696 Y115.111 E25.86575 ; brim
G1 X73.569 Y115.038 E25.87573 ; brim
G1 X72.476 Y113.145 E26.02465 ; brim
G1 X72.603 Y112.926 E26.04193 ; brim
G1 X72.383 Y112.926 E26.05691 ; brim
G1 X72.242 Y112.826 E26.06869 ; brim
G1 X71.556 Y110.919 E26.20683 ; brim
G1 X71.681 Y110.740 E26.22169 ; brim
G1 X71.626 Y110.740 E26.22547 ; brim
G1 X71.482 Y110.636 E26.23757 ; brim
G1 X70.862 Y108.726 E26.37439 ; brim
G1 X70.986 Y108.555 E26.38884 ; brim
G1 X70.916 Y108.555 E26.39365 ; brim
G1 X70.772 Y108.451 E26.40575 ; brim
G1 X70.151 Y106.541 E26.54256 ; brim
G1 X70.276 Y106.369 E26.55701 ; brim
G1 X70.234 Y106.369 E26.55988 ; brim
G1 X70.078 Y106.229 E26.57417 ; brim
G1 X69.877 Y104.311 E26.70558 ; brim
G1 X69.997 Y104.177 E26.71785 ; brim
G1 X69.849 Y104.044 E26.73146 ; brim
G1 X69.647 Y102.126 E26.86288 ; brim
G1 X69.767 Y101.992 E26.87514 ; brim
G1 X69.619 Y101.858 E26.88876 ; brim
