; generated by Slic3r 0.9.9 on 2013-12-17 at 20:17:51

; layer_height = 0.15
; perimeters = 3
; top_solid_layers = 3
; bottom_solid_layers = 3
; fill_density = 0.7
; perimeter_speed = 50
; infill_speed = 60
; travel_speed = 100
; nozzle_diameter = 0.35
; filament_diameter = 1.75
; extrusion_multiplier = 1
; perimeters extrusion width = 0.59mm
; infill extrusion width = 0.67mm
; solid infill extrusion width = 0.59mm
; top infill extrusion width = 0.59mm
; first layer extrusion width = 0.60mm

G1 Z1.950 F6000.000 ; move to next layer (11)
G1 X74.156 Y41.844 ; move to first perimeter point
G1 F1800.000 E1.00000 ; compensate retraction
G1 X74.156 Y35.156 F3000.000 E1.23475 ; perimeter
G1 X115.844 Y35.156 E2.69795 ; perimeter
G1 X115.844 Y41.844 E2.93270 ; perimeter
G1 X74.240 Y41.844 E4.39293 ; perimeter
G1 X74.719 Y41.281 F6000.000 ; move to first perimeter point
G1 X74.719 Y35.719 F2100.000 E4.58818 ; perimeter
G1 X115.281 Y35.719 E6.01187 ; perimeter
G1 X115.281 Y41.281 E6.20711 ; perimeter
G1 X74.803 Y41.281 E7.62784 ; perimeter
G1 X74.156 Y41.281 F6000.000 ; move inwards before travel
G1 X103.593 Y44.593 ; move to first perimeter point
G1 X116.407 Y44.593 F3000.000 E8.07759 ; perimeter
G1 X116.407 Y147.407 E11.68619 ; perimeter
G1 X103.593 Y147.407 E12.13595 ; perimeter
G1 X103.593 Y44.677 E15.74159 ; perimeter
G1 X104.156 Y45.156 F6000.000 ; move to first perimeter point
G1 X115.844 Y45.156 F3000.000 E16.15183 ; perimeter
G1 X115.844 Y146.844 E19.72093 ; perimeter
G1 X104.156 Y146.844 E20.13118 ; perimeter
G1 X104.156 Y45.240 E23.69731 ; perimeter
G1 X104.719 Y45.719 F6000.000 ; move to first perimeter point
G1 X115.281 Y45.719 F2100.000 E24.06805 ; perimeter
G1 X115.281 Y146.281 E27.59764 ; perimeter
G1 X104.719 Y146.281 E27.96837 ; perimeter
G1 X104.719 Y45.803 E31.49500 ; perimeter
G1 X104.719 Y45.156 F6000.000 ; move inwards before travel
G1 X86.407 Y44.593 ; move to first perimeter point
G1 X86.407 Y147.407 F3000.000 E35.10361 ; perimeter
G1 X73.593 Y147.407 E35.55336 ; perimeter
G1 X73.593 Y44.593 E39.16196 ; perimeter
G1 X86.323 Y44.593 E39.60875 ; perimeter
G1 X85.844 Y45.156 F6000.000 ; move to first perimeter point
G1 X85.844 Y146.844 F3000.000 E43.17785 ; perimeter
G1 X74.156 Y146.844 E43.58809 ; perimeter
G1 X74.156 Y45.156 E47.15719 ; perimeter
G1 X85.760 Y45.156 E47.56447 ; perimeter
G1 X85.281 Y45.719 F6000.000 ; move to first perimeter point
G1 X85.281 Y146.281 F2100.000 E51.09406 ; perimeter
G1 X74.719 Y146.281 E51.46480 ; perimeter
G1 X74.719 Y45.719 E54.99439 ; perimeter
G1 X85.197 Y45.719 E55.36216 ; perimeter
G1 X85.844 Y45.719 F6000.000 ; move inwards before travel
G1 F1800.000 E54.36216 ; retract
G92 E0 ; reset extrusion distance
G1 X74.156 Y150.156 F6000.000 ; move to first perimeter point
G1 F1800.000 E1.00000 ; compensate retraction
G1 X115.844 Y150.156 F3000.000 E2.46320 ; perimeter
G1 X115.844 Y156.844 E2.69795 ; perimeter
G1 X74.156 Y156.844 E4.16114 ; perimeter
G1 X74.156 Y150.240 E4.39293 ; perimeter
G1 X74.719 Y150.719 F6000.000 ; move to first perimeter point
G1 X115.281 Y150.719 F2100.000 E5.81662 ; perimeter
G1 X115.281 Y156.281 E6.01187 ; perimeter
G1 X74.719 Y156.281 E7.43555 ; perimeter
G1 X74.719 Y150.803 E7.62784 ; perimeter
G1 X74.719 Y150.156 F6000.000 ; move inwards before travel
G1 X74.355 Y157.407 ; move to first perimeter point
G1 X115.645 Y157.407 F3000.000 E9.07705 ; perimeter
G1 X115.236 Y158.129 E9.10619 ; perimeter
G1 X114.617 Y159.107 E9.14681 ; perimeter
G1 X113.950 Y160.054 E9.18746 ; perimeter
G1 X113.237 Y160.967 E9.22812 ; perimeter
G1 X112.481 Y161.844 E9.26876 ; perimeter
G1 X111.682 Y162.683 E9.30941 ; perimeter
G1 X110.844 Y163.481 E9.35004 ; perimeter
G1 X109.967 Y164.237 E9.39067 ; perimeter
G1 X109.054 Y164.950 E9.43133 ; perimeter
G1 X108.107 Y165.617 E9.47197 ; perimeter
G1 X107.129 Y166.236 E9.51260 ; perimeter
G1 X106.121 Y166.807 E9.55326 ; perimeter
G1 X105.087 Y167.328 E9.59390 ; perimeter
G1 X104.028 Y167.797 E9.63454 ; perimeter
G1 X102.948 Y168.214 E9.67520 ; perimeter
G1 X101.849 Y168.577 E9.71583 ; perimeter
G1 X100.733 Y168.886 E9.75647 ; perimeter
G1 X99.603 Y169.139 E9.79711 ; perimeter
G1 X98.462 Y169.337 E9.83776 ; perimeter
G1 X97.312 Y169.479 E9.87842 ; perimeter
G1 X96.158 Y169.564 E9.91904 ; perimeter
G1 X95.000 Y169.593 E9.95969 ; perimeter
G1 X93.842 Y169.564 E10.00034 ; perimeter
G1 X92.688 Y169.479 E10.04097 ; perimeter
G1 X91.538 Y169.337 E10.08162 ; perimeter
G1 X90.397 Y169.139 E10.12228 ; perimeter
G1 X89.267 Y168.886 E10.16291 ; perimeter
G1 X88.151 Y168.577 E10.20355 ; perimeter
G1 X87.052 Y168.214 E10.24418 ; perimeter
G1 X85.972 Y167.797 E10.28484 ; perimeter
G1 X84.913 Y167.328 E10.32548 ; perimeter
G1 X83.879 Y166.807 E10.36612 ; perimeter
G1 X82.871 Y166.236 E10.40678 ; perimeter
G1 X81.893 Y165.617 E10.44741 ; perimeter
G1 X80.946 Y164.950 E10.48805 ; perimeter
G1 X80.033 Y164.237 E10.52871 ; perimeter
G1 X79.156 Y163.481 E10.56935 ; perimeter
G1 X78.318 Y162.683 E10.60998 ; perimeter
G1 X77.519 Y161.844 E10.65063 ; perimeter
G1 X76.763 Y160.967 E10.69126 ; perimeter
G1 X76.050 Y160.054 E10.73192 ; perimeter
G1 X75.383 Y159.107 E10.77257 ; perimeter
G1 X74.764 Y158.129 E10.81319 ; perimeter
G1 X74.397 Y157.480 E10.83936 ; perimeter
G1 X73.593 Y155.229 F6000.000 ; move to first perimeter point
G1 X73.301 Y155.283 F3000.000 E10.84977 ; perimeter
G1 X72.787 Y153.948 E10.89999 ; perimeter
G1 X72.423 Y152.848 E10.94064 ; perimeter
G1 X72.114 Y151.733 E10.98125 ; perimeter
G1 X71.861 Y150.603 E11.02192 ; perimeter
G1 X71.663 Y149.461 E11.06257 ; perimeter
G1 X71.521 Y148.312 E11.10322 ; perimeter
G1 X71.436 Y147.158 E11.14384 ; perimeter
G1 X71.407 Y145.983 E11.18509 ; perimeter
G1 X71.407 Y46.017 E14.69372 ; perimeter
G1 X71.436 Y44.842 E14.73497 ; perimeter
G1 X71.521 Y43.688 E14.77561 ; perimeter
G1 X71.663 Y42.538 E14.81625 ; perimeter
G1 X71.861 Y41.397 E14.85690 ; perimeter
G1 X72.114 Y40.267 E14.89754 ; perimeter
G1 X72.423 Y39.151 E14.93818 ; perimeter
G1 X72.787 Y38.052 E14.97883 ; perimeter
G1 X73.301 Y36.717 E15.02905 ; perimeter
G1 X73.593 Y36.771 E15.03945 ; perimeter
G1 X73.593 Y42.407 E15.23726 ; perimeter
G1 X116.407 Y42.407 E16.73996 ; perimeter
G1 X116.407 Y36.771 E16.93777 ; perimeter
G1 X116.698 Y36.717 E16.94817 ; perimeter
G1 X117.213 Y38.052 E16.99839 ; perimeter
G1 X117.577 Y39.151 E17.03904 ; perimeter
G1 X117.886 Y40.267 E17.07968 ; perimeter
G1 X118.139 Y41.397 E17.12032 ; perimeter
G1 X118.337 Y42.538 E17.16097 ; perimeter
G1 X118.479 Y43.688 E17.20161 ; perimeter
G1 X118.564 Y44.842 E17.24225 ; perimeter
G1 X118.593 Y46.017 E17.28350 ; perimeter
G1 X118.593 Y145.983 E20.79213 ; perimeter
G1 X118.564 Y147.158 E20.83338 ; perimeter
G1 X118.479 Y148.312 E20.87400 ; perimeter
G1 X118.337 Y149.461 E20.91465 ; perimeter
G1 X118.139 Y150.603 E20.95530 ; perimeter
G1 X117.886 Y151.733 E20.99596 ; perimeter
G1 X117.577 Y152.848 E21.03658 ; perimeter
G1 X117.213 Y153.948 E21.07723 ; perimeter
G1 X116.699 Y155.283 E21.12745 ; perimeter
G1 X116.407 Y155.229 E21.13785 ; perimeter
G1 X116.407 Y149.593 E21.33566 ; perimeter
G1 X73.593 Y149.593 E22.83836 ; perimeter
G1 X73.593 Y155.144 E23.03320 ; perimeter
G1 X74.355 Y34.593 F6000.000 ; move to first perimeter point
G1 X74.764 Y33.871 F3000.000 E23.06232 ; perimeter
G1 X75.384 Y32.893 E23.10297 ; perimeter
G1 X76.050 Y31.946 E23.14361 ; perimeter
G1 X76.763 Y31.033 E23.18425 ; perimeter
G1 X77.519 Y30.156 E23.22490 ; perimeter
G1 X78.318 Y29.318 E23.26554 ; perimeter
G1 X79.156 Y28.519 E23.30618 ; perimeter
G1 X80.033 Y27.763 E23.34683 ; perimeter
G1 X80.946 Y27.050 E23.38747 ; perimeter
G1 X81.893 Y26.384 E23.42811 ; perimeter
G1 X82.871 Y25.764 E23.46875 ; perimeter
G1 X83.879 Y25.193 E23.50940 ; perimeter
G1 X84.913 Y24.673 E23.55004 ; perimeter
G1 X85.972 Y24.203 E23.59068 ; perimeter
G1 X87.052 Y23.787 E23.63133 ; perimeter
G1 X88.151 Y23.423 E23.67197 ; perimeter
G1 X89.267 Y23.114 E23.71261 ; perimeter
G1 X90.397 Y22.861 E23.75325 ; perimeter
G1 X91.538 Y22.663 E23.79390 ; perimeter
G1 X92.688 Y22.521 E23.83454 ; perimeter
G1 X93.842 Y22.436 E23.87519 ; perimeter
G1 X95.000 Y22.407 E23.91583 ; perimeter
G1 X96.158 Y22.436 E23.95647 ; perimeter
G1 X97.312 Y22.521 E23.99711 ; perimeter
G1 X98.462 Y22.663 E24.03776 ; perimeter
G1 X99.603 Y22.861 E24.07840 ; perimeter
G1 X100.733 Y23.114 E24.11905 ; perimeter
G1 X101.849 Y23.423 E24.15969 ; perimeter
G1 X102.948 Y23.787 E24.20033 ; perimeter
G1 X104.028 Y24.203 E24.24098 ; perimeter
G1 X105.087 Y24.673 E24.28162 ; perimeter
G1 X106.121 Y25.193 E24.32226 ; perimeter
G1 X107.057 Y25.718 E24.35990 ; perimeter
G1 X108.107 Y26.384 E24.40355 ; perimeter
G1 X109.054 Y27.050 E24.44420 ; perimeter
G1 X109.967 Y27.763 E24.48484 ; perimeter
G1 X110.844 Y28.519 E24.52548 ; perimeter
G1 X111.682 Y29.318 E24.56612 ; perimeter
G1 X112.481 Y30.156 E24.60677 ; perimeter
G1 X113.237 Y31.033 E24.64741 ; perimeter
G1 X113.950 Y31.946 E24.68805 ; perimeter
G1 X114.616 Y32.893 E24.72870 ; perimeter
G1 X115.236 Y33.871 E24.76934 ; perimeter
G1 X115.645 Y34.593 E24.79846 ; perimeter
G1 X74.439 Y34.593 E26.24471 ; perimeter
G1 X73.948 Y34.170 F6000.000 ; move to first perimeter point
G1 X74.281 Y33.582 F3000.000 E26.26843 ; perimeter
G1 X74.915 Y32.580 E26.31005 ; perimeter
G1 X75.598 Y31.611 E26.35166 ; perimeter
G1 X76.327 Y30.676 E26.39327 ; perimeter
G1 X77.102 Y29.778 E26.43489 ; perimeter
G1 X77.919 Y28.919 E26.47650 ; perimeter
G1 X78.778 Y28.102 E26.51811 ; perimeter
G1 X79.676 Y27.327 E26.55973 ; perimeter
G1 X80.611 Y26.598 E26.60134 ; perimeter
G1 X81.580 Y25.915 E26.64295 ; perimeter
G1 X82.582 Y25.281 E26.68456 ; perimeter
G1 X83.613 Y24.697 E26.72618 ; perimeter
G1 X84.672 Y24.164 E26.76779 ; perimeter
G1 X85.756 Y23.683 E26.80940 ; perimeter
G1 X86.862 Y23.257 E26.85102 ; perimeter
G1 X87.988 Y22.885 E26.89263 ; perimeter
G1 X89.131 Y22.568 E26.93424 ; perimeter
G1 X90.287 Y22.309 E26.97585 ; perimeter
G1 X91.456 Y22.106 E27.01747 ; perimeter
G1 X92.632 Y21.961 E27.05908 ; perimeter
G1 X93.815 Y21.874 E27.10069 ; perimeter
G1 X95.000 Y21.844 E27.14231 ; perimeter
G1 X96.185 Y21.874 E27.18392 ; perimeter
G1 X97.368 Y21.961 E27.22553 ; perimeter
G1 X98.544 Y22.106 E27.26715 ; perimeter
G1 X99.713 Y22.309 E27.30876 ; perimeter
G1 X100.869 Y22.568 E27.35037 ; perimeter
G1 X102.012 Y22.885 E27.39198 ; perimeter
G1 X103.138 Y23.257 E27.43360 ; perimeter
G1 X104.244 Y23.683 E27.47521 ; perimeter
G1 X105.328 Y24.164 E27.51683 ; perimeter
G1 X106.387 Y24.697 E27.55844 ; perimeter
G1 X107.418 Y25.281 E27.60005 ; perimeter
G1 X108.420 Y25.915 E27.64167 ; perimeter
G1 X109.389 Y26.598 E27.68328 ; perimeter
G1 X110.324 Y27.327 E27.72489 ; perimeter
G1 X111.222 Y28.102 E27.76650 ; perimeter
G1 X112.081 Y28.919 E27.80812 ; perimeter
G1 X112.898 Y29.778 E27.84973 ; perimeter
G1 X113.672 Y30.676 E27.89134 ; perimeter
G1 X114.402 Y31.611 E27.93296 ; perimeter
G1 X115.085 Y32.580 E27.97457 ; perimeter
G1 X115.719 Y33.582 E28.01618 ; perimeter
G1 X116.052 Y34.170 E28.03990 ; perimeter
G1 X116.077 Y34.164 E28.04080 ; perimeter
G1 X116.836 Y35.672 E28.10008 ; perimeter
G1 X117.317 Y36.756 E28.14169 ; perimeter
G1 X117.743 Y37.862 E28.18331 ; perimeter
G1 X118.115 Y38.988 E28.22492 ; perimeter
G1 X118.432 Y40.131 E28.26653 ; perimeter
G1 X118.691 Y41.287 E28.30815 ; perimeter
G1 X118.894 Y42.456 E28.34976 ; perimeter
G1 X119.039 Y43.632 E28.39137 ; perimeter
G1 X119.126 Y44.815 E28.43298 ; perimeter
G1 X119.156 Y46.010 E28.47496 ; perimeter
G1 X119.156 Y145.990 E31.98407 ; perimeter
G1 X119.126 Y147.186 E32.02606 ; perimeter
G1 X119.039 Y148.367 E32.06764 ; perimeter
G1 X118.894 Y149.544 E32.10926 ; perimeter
G1 X118.691 Y150.712 E32.15088 ; perimeter
G1 X118.432 Y151.870 E32.19252 ; perimeter
G1 X118.115 Y153.012 E32.23411 ; perimeter
G1 X117.743 Y154.138 E32.27572 ; perimeter
G1 X117.317 Y155.244 E32.31734 ; perimeter
G1 X116.836 Y156.328 E32.35896 ; perimeter
G1 X116.077 Y157.836 E32.41823 ; perimeter
G1 X116.052 Y157.831 E32.41913 ; perimeter
G1 X115.719 Y158.419 E32.44286 ; perimeter
G1 X115.085 Y159.420 E32.48445 ; perimeter
G1 X114.402 Y160.389 E32.52606 ; perimeter
G1 X113.672 Y161.324 E32.56770 ; perimeter
G1 X112.898 Y162.222 E32.60930 ; perimeter
G1 X112.080 Y163.081 E32.65092 ; perimeter
G1 X111.222 Y163.898 E32.69253 ; perimeter
G1 X110.324 Y164.672 E32.73413 ; perimeter
G1 X109.389 Y165.402 E32.77575 ; perimeter
G1 X108.420 Y166.085 E32.81737 ; perimeter
G1 X107.419 Y166.719 E32.85897 ; perimeter
G1 X106.387 Y167.303 E32.90060 ; perimeter
G1 X105.328 Y167.837 E32.94221 ; perimeter
G1 X104.244 Y168.317 E32.98382 ; perimeter
G1 X103.138 Y168.744 E33.02544 ; perimeter
G1 X102.012 Y169.116 E33.06705 ; perimeter
G1 X100.869 Y169.432 E33.10866 ; perimeter
G1 X99.713 Y169.692 E33.15027 ; perimeter
G1 X98.544 Y169.894 E33.19188 ; perimeter
G1 X97.367 Y170.040 E33.23351 ; perimeter
G1 X96.185 Y170.127 E33.27511 ; perimeter
G1 X95.000 Y170.156 E33.31673 ; perimeter
G1 X93.815 Y170.127 E33.35834 ; perimeter
G1 X92.633 Y170.040 E33.39994 ; perimeter
G1 X91.456 Y169.894 E33.44157 ; perimeter
G1 X90.287 Y169.692 E33.48318 ; perimeter
G1 X89.131 Y169.432 E33.52479 ; perimeter
G1 X87.988 Y169.116 E33.56640 ; perimeter
G1 X86.862 Y168.744 E33.60801 ; perimeter
G1 X85.756 Y168.317 E33.64963 ; perimeter
G1 X84.672 Y167.837 E33.69124 ; perimeter
G1 X83.613 Y167.303 E33.73285 ; perimeter
G1 X82.581 Y166.719 E33.77448 ; perimeter
G1 X81.580 Y166.085 E33.81608 ; perimeter
G1 X80.611 Y165.402 E33.85770 ; perimeter
G1 X79.676 Y164.672 E33.89932 ; perimeter
G1 X78.778 Y163.898 E33.94093 ; perimeter
G1 X77.919 Y163.081 E33.98253 ; perimeter
G1 X77.102 Y162.222 E34.02415 ; perimeter
G1 X76.328 Y161.324 E34.06576 ; perimeter
G1 X75.598 Y160.389 E34.10739 ; perimeter
G1 X74.915 Y159.420 E34.14900 ; perimeter
G1 X74.281 Y158.419 E34.19059 ; perimeter
G1 X73.948 Y157.831 E34.21432 ; perimeter
G1 X73.923 Y157.836 E34.21522 ; perimeter
G1 X73.164 Y156.328 E34.27449 ; perimeter
G1 X72.683 Y155.244 E34.31611 ; perimeter
G1 X72.257 Y154.138 E34.35773 ; perimeter
G1 X71.885 Y153.012 E34.39934 ; perimeter
G1 X71.568 Y151.870 E34.44093 ; perimeter
G1 X71.309 Y150.712 E34.48257 ; perimeter
G1 X71.106 Y149.544 E34.52419 ; perimeter
G1 X70.961 Y148.367 E34.56581 ; perimeter
G1 X70.874 Y147.186 E34.60739 ; perimeter
G1 X70.844 Y145.990 E34.64938 ; perimeter
G1 X70.844 Y46.010 E38.15849 ; perimeter
G1 X70.874 Y44.815 E38.20047 ; perimeter
G1 X70.961 Y43.632 E38.24208 ; perimeter
G1 X71.106 Y42.456 E38.28369 ; perimeter
G1 X71.309 Y41.287 E38.32531 ; perimeter
G1 X71.568 Y40.131 E38.36692 ; perimeter
G1 X71.885 Y38.988 E38.40853 ; perimeter
G1 X72.257 Y37.862 E38.45015 ; perimeter
G1 X72.683 Y36.756 E38.49176 ; perimeter
G1 X73.164 Y35.672 E38.53337 ; perimeter
G1 X73.897 Y34.216 E38.59058 ; perimeter
G1 X73.575 Y33.686 F6000.000 ; move to first perimeter point
G1 X73.798 Y33.292 F2100.000 E38.60649 ; perimeter
G1 X74.447 Y32.267 E38.64908 ; perimeter
G1 X75.146 Y31.275 E38.69166 ; perimeter
G1 X75.892 Y30.319 E38.73424 ; perimeter
G1 X76.685 Y29.400 E38.77682 ; perimeter
G1 X77.521 Y28.521 E38.81941 ; perimeter
G1 X78.400 Y27.685 E38.86199 ; perimeter
G1 X79.319 Y26.892 E38.90457 ; perimeter
G1 X80.275 Y26.146 E38.94716 ; perimeter
G1 X81.267 Y25.447 E38.98974 ; perimeter
G1 X82.292 Y24.798 E39.03232 ; perimeter
G1 X83.348 Y24.200 E39.07490 ; perimeter
G1 X84.431 Y23.655 E39.11749 ; perimeter
G1 X85.541 Y23.163 E39.16007 ; perimeter
G1 X86.673 Y22.726 E39.20265 ; perimeter
G1 X87.825 Y22.346 E39.24524 ; perimeter
G1 X88.994 Y22.022 E39.28782 ; perimeter
G1 X90.178 Y21.756 E39.33040 ; perimeter
G1 X91.373 Y21.549 E39.37298 ; perimeter
G1 X92.577 Y21.401 E39.41557 ; perimeter
G1 X93.787 Y21.311 E39.45815 ; perimeter
G1 X95.000 Y21.281 E39.50073 ; perimeter
G1 X96.213 Y21.311 E39.54332 ; perimeter
G1 X97.423 Y21.401 E39.58590 ; perimeter
G1 X98.627 Y21.549 E39.62848 ; perimeter
G1 X99.822 Y21.756 E39.67107 ; perimeter
G1 X101.006 Y22.022 E39.71365 ; perimeter
G1 X102.175 Y22.346 E39.75623 ; perimeter
G1 X103.327 Y22.726 E39.79881 ; perimeter
