; generated by Slic3r 0.9.9 on 2014-03-04 at 14:11:36

; layer_height = 0.2
; perimeters = 3
; top_solid_layers = 3
; bottom_solid_layers = 3
; fill_density = 0.2
; perimeter_speed = 36
; infill_speed = 60
; travel_speed = 130
; nozzle_diameter = 0.35
; filament_diameter = 1.75
; extrusion_multiplier = 1
; perimeters extrusion width = 0.52mm
; infill extrusion width = 0.52mm
; solid infill extrusion width = 0.52mm
; top infill extrusion width = 0.52mm
; support material extrusion width = 0.52mm
; first layer extrusion width = 0.60mm

G21 ; set units to millimeters
M107 ; disable fan
M190 S95 ; wait for bed temperature to be reached
M104 S225 ; set temperature
G28 ; home all axes
G1 Z5 F5000 ; lift nozzle
M109 S225 ; wait for temperature to be reached
G90 ; use absolute coordinates
G92 E0 ; reset extrusion distance
M82 ; use absolute distances for extrusion
G1 F1800.000 E-1.00000 ; retract
G92 E0 ; reset extrusion distance
G1 Z0.300 F7800.000 ; move to next layer (0)
G1 X25.950 Y44.660 ; move to first skirt point
G1 F1800.000 E1.00000 ; compensate retraction
G1 X29.720 Y42.470 F756.000 E1.29710 ; skirt
G1 X30.090 Y42.280 E1.32545 ; skirt
G1 X33.560 Y41.090 E1.57542 ; skirt
G1 X34.080 Y40.960 E1.61195 ; skirt
G1 X40.450 Y39.840 E2.05268 ; skirt
G1 X40.820 Y39.820 E2.07793 ; skirt
G1 X43.170 Y39.820 E2.23807 ; skirt
G1 X43.540 Y39.840 E2.26332 ; skirt
G1 X49.910 Y40.960 E2.70405 ; skirt
G1 X50.430 Y41.090 E2.74058 ; skirt
G1 X53.630 Y42.180 E2.97094 ; skirt
G1 X54.150 Y42.400 E3.00942 ; skirt
G1 X58.050 Y44.660 E3.31658 ; skirt
G1 X58.430 Y44.920 E3.34795 ; skirt
G1 X59.850 Y46.010 E3.46994 ; skirt
G1 X60.060 Y46.190 E3.48878 ; skirt
G1 X62.490 Y48.380 E3.71170 ; skirt
G1 X62.710 Y48.590 E3.73242 ; skirt
G1 X63.730 Y49.680 E3.83415 ; skirt
G1 X64.020 Y50.030 E3.86512 ; skirt
G1 X66.380 Y53.280 E4.13882 ; skirt
G1 X66.600 Y53.630 E4.16699 ; skirt
G1 X67.220 Y54.720 E4.25244 ; skirt
G1 X67.380 Y55.030 E4.27621 ; skirt
G1 X68.880 Y58.400 E4.52758 ; skirt
G1 X69.420 Y59.730 E4.62540 ; skirt
G1 X69.520 Y60.100 E4.65151 ; skirt
G1 X70.500 Y64.760 E4.97601 ; skirt
G1 X70.660 Y66.100 E5.06797 ; skirt
G1 X70.800 Y68.490 E5.23111 ; skirt
G1 X70.800 Y93.620 E6.94357 ; skirt
G1 X70.660 Y96.020 E7.10739 ; skirt
G1 X70.620 Y96.360 E7.13072 ; skirt
G1 X70.420 Y97.630 E7.21833 ; skirt
G1 X69.490 Y102.020 E7.52412 ; skirt
G1 X69.330 Y102.550 E7.56184 ; skirt
G1 X68.810 Y103.760 E7.65159 ; skirt
G1 X67.330 Y107.080 E7.89929 ; skirt
G1 X67.130 Y107.460 E7.92855 ; skirt
G1 X66.300 Y108.830 E8.03770 ; skirt
G1 X63.920 Y112.090 E8.31275 ; skirt
G1 X63.590 Y112.480 E8.34757 ; skirt
G1 X62.350 Y113.750 E8.46852 ; skirt
G1 X59.920 Y115.930 E8.69098 ; skirt
G1 X59.640 Y116.150 E8.71524 ; skirt
G1 X58.150 Y117.240 E8.84105 ; skirt
G1 X57.830 Y117.450 E8.86713 ; skirt
G1 X54.040 Y119.640 E9.16541 ; skirt
G1 X53.780 Y119.780 E9.18553 ; skirt
G1 X53.510 Y119.890 E9.20540 ; skirt
G1 X50.000 Y121.030 E9.45688 ; skirt
G1 X49.460 Y121.160 E9.49473 ; skirt
G1 X42.550 Y122.250 E9.97143 ; skirt
G1 X41.990 Y122.300 E10.00974 ; skirt
G1 X41.440 Y122.250 E10.04737 ; skirt
G1 X34.530 Y121.160 E10.52407 ; skirt
G1 X33.990 Y121.030 E10.56192 ; skirt
G1 X30.630 Y119.940 E10.80263 ; skirt
G1 X30.210 Y119.780 E10.83325 ; skirt
G1 X26.150 Y117.450 E11.15224 ; skirt
G1 X24.350 Y116.150 E11.30354 ; skirt
G1 X24.080 Y115.930 E11.32728 ; skirt
G1 X21.640 Y113.740 E11.55070 ; skirt
G1 X20.400 Y112.480 E11.67116 ; skirt
G1 X20.070 Y112.100 E11.70546 ; skirt
G1 X17.690 Y108.830 E11.98106 ; skirt
G1 X16.860 Y107.460 E12.09021 ; skirt
G1 X16.660 Y107.080 E12.11948 ; skirt
G1 X15.180 Y103.760 E12.36717 ; skirt
G1 X14.660 Y102.550 E12.45692 ; skirt
G1 X14.570 Y102.290 E12.47567 ; skirt
G1 X14.260 Y100.910 E12.57205 ; skirt
G1 X13.530 Y97.420 E12.81502 ; skirt
G1 X13.340 Y96.020 E12.91129 ; skirt
G1 X13.200 Y93.620 E13.07512 ; skirt
G1 X13.200 Y68.490 E14.78757 ; skirt
G1 X13.340 Y66.100 E14.95071 ; skirt
G1 X13.540 Y64.470 E15.06262 ; skirt
G1 X14.470 Y60.100 E15.36708 ; skirt
G1 X14.610 Y59.610 E15.40180 ; skirt
G1 X15.110 Y58.400 E15.49102 ; skirt
G1 X16.620 Y55.020 E15.74328 ; skirt
G1 X16.770 Y54.720 E15.76614 ; skirt
G1 X17.390 Y53.630 E15.85159 ; skirt
G1 X17.600 Y53.300 E15.87825 ; skirt
G1 X19.980 Y50.020 E16.15440 ; skirt
G1 X20.260 Y49.680 E16.18441 ; skirt
G1 X21.280 Y48.590 E16.28614 ; skirt
G1 X24.140 Y46.010 E16.54861 ; skirt
G1 X25.560 Y44.920 E16.67060 ; skirt
G1 X25.882 Y44.705 E16.69695 ; skirt
G1 F1800.000 E15.69695 ; retract
G92 E0 ; reset extrusion distance
G1 X27.229 Y46.702 F7800.000 ; move to first brim point
G1 F1800.000 E1.00000 ; compensate retraction
G1 X27.486 Y46.615 F756.000 E1.01849 ; brim
G1 X28.028 Y46.615 E1.05542 ; brim
G1 X28.218 Y46.157 E1.08922 ; brim
G1 X31.112 Y44.485 E1.31699 ; brim
G1 X31.321 Y44.429 E1.33169 ; brim
G1 X32.984 Y44.429 E1.44504 ; brim
G1 X32.984 Y43.817 E1.48679 ; brim
G1 X33.464 Y43.337 E1.53305 ; brim
G1 X39.105 Y43.337 E1.91741 ; brim
G1 X39.105 Y42.724 E1.95916 ; brim
G1 X39.585 Y42.244 E2.00543 ; brim
G1 X44.415 Y42.244 E2.33459 ; brim
G1 X44.895 Y42.724 E2.38085 ; brim
G1 X44.895 Y43.337 E2.42260 ; brim
G1 X49.414 Y43.337 E2.73051 ; brim
G1 X49.547 Y43.359 E2.73974 ; brim
G1 X53.859 Y44.834 E3.05028 ; brim
G1 X54.167 Y45.350 E3.09124 ; brim
G1 X54.139 Y45.522 E3.10313 ; brim
G1 X54.572 Y45.522 E3.13264 ; brim
G1 X54.780 Y45.578 E3.14735 ; brim
G1 X57.675 Y47.249 E3.37512 ; brim
G1 X57.865 Y47.708 E3.40892 ; brim
G1 X57.962 Y47.708 E3.41553 ; brim
G1 X58.245 Y47.816 E3.43623 ; brim
G1 X60.654 Y49.994 E3.65750 ; brim
G1 X60.735 Y50.029 E3.66353 ; brim
G1 X62.796 Y52.239 E3.86945 ; brim
G1 X62.731 Y52.389 E3.88061 ; brim
G1 X64.221 Y54.440 E4.05333 ; brim
G1 X64.299 Y54.485 E4.05949 ; brim
G1 X65.608 Y56.780 E4.23948 ; brim
G1 X65.550 Y56.879 E4.24727 ; brim
G1 X66.468 Y58.911 E4.39927 ; brim
G1 X67.429 Y61.239 E4.57084 ; brim
G1 X67.319 Y61.403 E4.58433 ; brim
G1 X68.222 Y65.652 E4.88030 ; brim
G1 X68.241 Y65.671 E4.88215 ; brim
G1 X68.241 Y67.719 E5.02175 ; brim
G1 X68.378 Y67.856 E5.03493 ; brim
G1 X68.378 Y94.267 E6.83468 ; brim
G1 X68.241 Y94.404 E6.84787 ; brim
G1 X68.241 Y96.453 E6.98746 ; brim
G1 X68.189 Y96.505 E6.99252 ; brim
G1 X67.295 Y100.711 E7.28554 ; brim
G1 X67.418 Y100.900 E7.30091 ; brim
G1 X65.500 Y105.235 E7.62397 ; brim
G1 X65.570 Y105.361 E7.63377 ; brim
G1 X64.193 Y107.648 E7.81570 ; brim
G1 X64.132 Y107.682 E7.82046 ; brim
G1 X62.652 Y109.719 E7.99202 ; brim
G1 X62.729 Y109.901 E8.00551 ; brim
G1 X60.582 Y112.102 E8.21502 ; brim
G1 X60.517 Y112.129 E8.21982 ; brim
G1 X58.108 Y114.307 E8.44111 ; brim
G1 X57.825 Y114.416 E8.46181 ; brim
G1 X57.651 Y114.416 E8.47365 ; brim
G1 X57.461 Y114.874 E8.50746 ; brim
G1 X54.566 Y116.545 E8.73523 ; brim
G1 X54.358 Y116.601 E8.74993 ; brim
G1 X53.927 Y116.601 E8.77928 ; brim
G1 X53.957 Y116.792 E8.79247 ; brim
G1 X53.642 Y117.308 E8.83367 ; brim
G1 X49.156 Y118.766 E9.15510 ; brim
G1 X49.028 Y118.787 E9.16389 ; brim
G1 X43.720 Y118.787 E9.52559 ; brim
G1 X43.720 Y119.399 E9.56734 ; brim
G1 X43.240 Y119.879 E9.61360 ; brim
G1 X40.760 Y119.879 E9.78266 ; brim
G1 X40.280 Y119.399 E9.82892 ; brim
G1 X40.280 Y118.787 E9.87067 ; brim
G1 X33.844 Y118.787 E10.30919 ; brim
G1 X33.364 Y118.307 E10.35545 ; brim
G1 X33.364 Y117.694 E10.39720 ; brim
G1 X31.535 Y117.694 E10.52186 ; brim
G1 X31.326 Y117.638 E10.53657 ; brim
G1 X28.432 Y115.967 E10.76433 ; brim
G1 X28.242 Y115.509 E10.79814 ; brim
G1 X27.710 Y115.509 E10.83441 ; brim
G1 X27.462 Y115.428 E10.85218 ; brim
G1 X25.040 Y113.658 E11.05656 ; brim
G1 X24.928 Y113.310 E11.08148 ; brim
G1 X24.678 Y113.214 E11.09969 ; brim
G1 X22.267 Y111.043 E11.32081 ; brim
G1 X22.291 Y110.980 E11.32538 ; brim
G1 X22.249 Y110.959 E11.32858 ; brim
G1 X19.021 Y106.516 E11.70286 ; brim
G1 X19.047 Y106.463 E11.70686 ; brim
G1 X17.123 Y102.142 E12.02919 ; brim
G1 X16.986 Y102.031 E12.04123 ; brim
G1 X16.058 Y97.663 E12.34553 ; brim
G1 X16.017 Y97.628 E12.34920 ; brim
G1 X15.665 Y95.262 E12.51216 ; brim
G1 X15.799 Y95.107 E12.52614 ; brim
G1 X15.542 Y93.063 E12.66654 ; brim
G1 X15.622 Y92.973 E12.67473 ; brim
G1 X15.622 Y69.151 E14.29803 ; brim
G1 X15.542 Y69.061 E14.30622 ; brim
G1 X15.799 Y67.011 E14.44699 ; brim
G1 X15.680 Y66.876 E14.45930 ; brim
G1 X15.975 Y64.508 E14.62186 ; brim
G1 X16.032 Y64.459 E14.62699 ; brim
G1 X16.960 Y60.093 E14.93116 ; brim
G1 X17.052 Y60.018 E14.93926 ; brim
G1 X18.976 Y55.697 E15.26159 ; brim
G1 X18.931 Y55.608 E15.26837 ; brim
G1 X22.162 Y51.163 E15.64280 ; brim
G1 X22.130 Y51.080 E15.64885 ; brim
G1 X24.541 Y48.909 E15.86996 ; brim
G1 X24.809 Y48.806 E15.88952 ; brim
G1 X24.903 Y48.494 E15.91175 ; brim
G1 X27.164 Y46.752 E16.10623 ; brim
G1 X27.491 Y47.190 F7800.000 ; move to first brim point
G1 X27.577 Y47.161 F756.000 E16.11239 ; brim
G1 X28.763 Y47.161 E16.19326 ; brim
G1 X28.686 Y47.102 E16.19989 ; brim
G1 X28.581 Y46.708 E16.22766 ; brim
G1 X28.652 Y46.537 E16.24030 ; brim
G1 X31.323 Y44.994 E16.45053 ; brim
G1 X31.393 Y44.976 E16.45543 ; brim
G1 X33.637 Y44.976 E16.60835 ; brim
G1 X33.531 Y44.869 E16.61861 ; brim
G1 X33.531 Y44.043 E16.67491 ; brim
G1 X33.691 Y43.883 E16.69033 ; brim
G1 X39.757 Y43.883 E17.10376 ; brim
G1 X39.651 Y43.777 E17.11401 ; brim
G1 X39.651 Y42.950 E17.17031 ; brim
G1 X39.811 Y42.790 E17.18574 ; brim
G1 X44.189 Y42.790 E17.48405 ; brim
G1 X44.349 Y42.950 E17.49948 ; brim
G1 X44.349 Y43.777 E17.55578 ; brim
G1 X44.243 Y43.883 E17.56603 ; brim
G1 X49.369 Y43.883 E17.91535 ; brim
G1 X53.493 Y45.286 E18.21220 ; brim
G1 X53.596 Y45.458 E18.22585 ; brim
G1 X53.507 Y45.993 E18.26279 ; brim
G1 X53.417 Y46.069 E18.27078 ; brim
G1 X54.500 Y46.069 E18.34457 ; brim
G1 X54.569 Y46.087 E18.34947 ; brim
G1 X57.241 Y47.630 E18.55970 ; brim
G1 X57.312 Y47.801 E18.57234 ; brim
G1 X57.207 Y48.195 E18.60011 ; brim
G1 X57.129 Y48.254 E18.60674 ; brim
G1 X57.860 Y48.254 E18.65656 ; brim
G1 X57.955 Y48.290 E18.66346 ; brim
G1 X60.012 Y50.142 E18.85209 ; brim
G1 X59.898 Y50.439 E18.87376 ; brim
G1 X60.309 Y50.439 E18.90176 ; brim
G1 X60.413 Y50.485 E18.90951 ; brim
G1 X62.152 Y52.350 E19.08328 ; brim
G1 X62.033 Y52.625 E19.10370 ; brim
G1 X62.153 Y52.625 E19.11189 ; brim
G1 X62.270 Y52.684 E19.12082 ; brim
G1 X63.636 Y54.565 E19.27928 ; brim
G1 X63.512 Y54.810 E19.29799 ; brim
G1 X63.770 Y54.810 E19.31558 ; brim
G1 X63.897 Y54.884 E19.32561 ; brim
G1 X64.977 Y56.777 E19.47414 ; brim
G1 X64.851 Y56.996 E19.49134 ; brim
G1 X64.908 Y56.996 E19.49524 ; brim
G1 X65.044 Y57.084 E19.50627 ; brim
G1 X65.890 Y58.986 E19.64816 ; brim
G1 X65.764 Y59.181 E19.66401 ; brim
G1 X65.889 Y59.181 E19.67253 ; brim
G1 X66.027 Y59.273 E19.68384 ; brim
G1 X66.813 Y61.177 E19.82422 ; brim
G1 X66.666 Y61.397 E19.84222 ; brim
G1 X66.778 Y61.488 E19.85209 ; brim
G1 X67.185 Y63.403 E19.98548 ; brim
G1 X67.065 Y63.552 E19.99854 ; brim
G1 X67.093 Y63.552 E20.00042 ; brim
G1 X67.243 Y63.673 E20.01361 ; brim
G1 X67.650 Y65.588 E20.14700 ; brim
G1 X67.529 Y65.737 E20.16006 ; brim
G1 X67.695 Y65.897 E20.17574 ; brim
G1 X67.695 Y67.816 E20.30651 ; brim
G1 X67.588 Y67.923 E20.31676 ; brim
G1 X67.672 Y67.923 E20.32243 ; brim
G1 X67.832 Y68.083 E20.33785 ; brim
G1 X67.832 Y70.002 E20.46862 ; brim
G1 X67.698 Y70.135 E20.48146 ; brim
G1 X67.832 Y70.268 E20.49429 ; brim
G1 X67.832 Y72.187 E20.62506 ; brim
G1 X67.698 Y72.320 E20.63790 ; brim
G1 X67.832 Y72.453 E20.65073 ; brim
G1 X67.832 Y74.372 E20.78150 ; brim
G1 X67.698 Y74.506 E20.79434 ; brim
G1 X67.832 Y74.639 E20.80717 ; brim
G1 X67.832 Y76.558 E20.93794 ; brim
G1 X67.698 Y76.691 E20.95078 ; brim
G1 X67.832 Y76.824 E20.96361 ; brim
G1 X67.832 Y78.743 E21.09438 ; brim
G1 X67.698 Y78.876 E21.10722 ; brim
G1 X67.832 Y79.010 E21.12005 ; brim
G1 X67.832 Y80.929 E21.25082 ; brim
G1 X67.698 Y81.062 E21.26366 ; brim
G1 X67.832 Y81.195 E21.27649 ; brim
G1 X67.832 Y83.114 E21.40726 ; brim
G1 X67.698 Y83.247 E21.42010 ; brim
G1 X67.832 Y83.380 E21.43293 ; brim
G1 X67.832 Y85.299 E21.56370 ; brim
G1 X67.698 Y85.433 E21.57654 ; brim
G1 X67.832 Y85.566 E21.58937 ; brim
G1 X67.832 Y87.485 E21.72014 ; brim
G1 X67.698 Y87.618 E21.73298 ; brim
G1 X67.832 Y87.751 E21.74581 ; brim
G1 X67.832 Y89.670 E21.87658 ; brim
G1 X67.698 Y89.803 E21.88942 ; brim
G1 X67.832 Y89.937 E21.90226 ; brim
G1 X67.832 Y91.856 E22.03302 ; brim
G1 X67.698 Y91.989 E22.04586 ; brim
G1 X67.832 Y92.122 E22.05870 ; brim
G1 X67.832 Y94.041 E22.18946 ; brim
G1 X67.672 Y94.201 E22.20489 ; brim
G1 X67.588 Y94.201 E22.21056 ; brim
G1 X67.695 Y94.307 E22.22081 ; brim
G1 X67.695 Y96.226 E22.35157 ; brim
G1 X67.535 Y96.386 E22.36700 ; brim
G1 X67.503 Y96.386 E22.36915 ; brim
G1 X67.624 Y96.535 E22.38221 ; brim
G1 X67.217 Y98.450 E22.51560 ; brim
G1 X67.066 Y98.572 E22.52878 ; brim
G1 X67.039 Y98.572 E22.53067 ; brim
G1 X67.159 Y98.721 E22.54373 ; brim
G1 X66.752 Y100.635 E22.67712 ; brim
G1 X66.648 Y100.720 E22.68627 ; brim
G1 X66.799 Y100.951 E22.70509 ; brim
G1 X65.963 Y102.854 E22.84668 ; brim
G1 X65.827 Y102.943 E22.85776 ; brim
G1 X65.709 Y102.943 E22.86584 ; brim
G1 X65.835 Y103.138 E22.88170 ; brim
G1 X64.989 Y105.040 E23.02358 ; brim
G1 X64.853 Y105.128 E23.03461 ; brim
G1 X64.811 Y105.128 E23.03744 ; brim
G1 X64.938 Y105.352 E23.05497 ; brim
G1 X63.799 Y107.243 E23.20538 ; brim
G1 X63.674 Y107.313 E23.21517 ; brim
G1 X63.422 Y107.313 E23.23233 ; brim
G1 X63.547 Y107.558 E23.25104 ; brim
G1 X62.180 Y109.439 E23.40949 ; brim
G1 X62.063 Y109.499 E23.41843 ; brim
G1 X61.967 Y109.499 E23.42501 ; brim
G1 X62.085 Y109.779 E23.44576 ; brim
G1 X60.268 Y111.641 E23.62303 ; brim
G1 X60.166 Y111.684 E23.63055 ; brim
G1 X59.761 Y111.684 E23.65817 ; brim
G1 X59.875 Y111.981 E23.67984 ; brim
G1 X57.818 Y113.833 E23.86847 ; brim
G1 X57.723 Y113.870 E23.87537 ; brim
G1 X56.915 Y113.870 E23.93042 ; brim
G1 X56.993 Y113.929 E23.93706 ; brim
G1 X57.098 Y114.322 E23.96483 ; brim
G1 X57.027 Y114.494 E23.97747 ; brim
G1 X54.355 Y116.036 E24.18769 ; brim
G1 X54.286 Y116.055 E24.19260 ; brim
G1 X53.209 Y116.055 E24.26597 ; brim
G1 X53.300 Y116.132 E24.27407 ; brim
G1 X53.386 Y116.679 E24.31179 ; brim
G1 X53.281 Y116.851 E24.32553 ; brim
G1 X48.985 Y118.240 E24.63318 ; brim
G1 X43.068 Y118.240 E25.03643 ; brim
G1 X43.174 Y118.347 E25.04668 ; brim
G1 X43.174 Y119.173 E25.10299 ; brim
G1 X43.014 Y119.333 E25.11841 ; brim
G1 X40.986 Y119.333 E25.25662 ; brim
G1 X40.826 Y119.173 E25.27204 ; brim
G1 X40.826 Y118.347 E25.32835 ; brim
G1 X40.932 Y118.240 E25.33860 ; brim
G1 X34.071 Y118.240 E25.80618 ; brim
G1 X33.911 Y118.080 E25.82160 ; brim
G1 X33.911 Y117.254 E25.87791 ; brim
G1 X34.017 Y117.148 E25.88816 ; brim
G1 X31.607 Y117.148 E26.05240 ; brim
G1 X31.537 Y117.129 E26.05730 ; brim
G1 X28.865 Y115.586 E26.26753 ; brim
G1 X28.794 Y115.415 E26.28017 ; brim
G1 X28.900 Y115.021 E26.30794 ; brim
G1 X28.977 Y114.962 E26.31457 ; brim
G1 X27.796 Y114.962 E26.39503 ; brim
G1 X27.714 Y114.935 E26.40095 ; brim
G1 X25.506 Y113.322 E26.58733 ; brim
G1 X25.451 Y113.153 E26.59941 ; brim
G1 X25.557 Y112.827 E26.62275 ; brim
G1 X25.627 Y112.777 E26.62860 ; brim
G1 X25.063 Y112.777 E26.66702 ; brim
G1 X24.969 Y112.741 E26.67392 ; brim
G1 X22.911 Y110.888 E26.86255 ; brim
G1 X23.025 Y110.591 E26.88423 ; brim
G1 X22.731 Y110.591 E26.90430 ; brim
G1 X22.614 Y110.532 E26.91324 ; brim
G1 X21.247 Y108.651 E27.07170 ; brim
G1 X21.372 Y108.406 E27.09041 ; brim
G1 X21.143 Y108.406 E27.10600 ; brim
G1 X21.026 Y108.346 E27.11494 ; brim
G1 X19.659 Y106.465 E27.27339 ; brim
G1 X19.784 Y106.221 E27.29210 ; brim
G1 X19.634 Y106.221 E27.30235 ; brim
G1 X19.498 Y106.132 E27.31338 ; brim
G1 X18.651 Y104.230 E27.45526 ; brim
G1 X18.778 Y104.035 E27.47112 ; brim
G1 X18.661 Y104.035 E27.47910 ; brim
G1 X18.525 Y103.947 E27.49012 ; brim
G1 X17.678 Y102.045 E27.63201 ; brim
G1 X17.805 Y101.850 E27.64786 ; brim
G1 X17.631 Y101.850 E27.65974 ; brim
G1 X17.480 Y101.728 E27.67292 ; brim
G1 X17.073 Y99.813 E27.80632 ; brim
G1 X17.194 Y99.664 E27.81937 ; brim
G1 X17.166 Y99.664 E27.82126 ; brim
G1 X17.016 Y99.543 E27.83445 ; brim
G1 X16.609 Y97.628 E27.96784 ; brim
G1 X16.729 Y97.479 E27.98089 ; brim
G1 X16.681 Y97.479 E27.98418 ; brim
