; generated by Slic3r 0.9.9 on 2014-02-03 at 17:20:51

; layer_height = 0.2
; perimeters = 3
; top_solid_layers = 3
; bottom_solid_layers = 3
; fill_density = 0.15
; perimeter_speed = 40
; infill_speed = 60
; travel_speed = 130
; nozzle_diameter = 0.35
; filament_diameter = 1.75
; extrusion_multiplier = 1
; perimeters extrusion width = 0.52mm
; infill extrusion width = 0.52mm
; solid infill extrusion width = 0.52mm
; top infill extrusion width = 0.52mm
; support material extrusion width = 0.52mm
; first layer extrusion width = 0.70mm

G21 ; set units to millimeters
M107 ; disable fan
M190 S94 ; wait for bed temperature to be reached
M104 S225 ; set temperature
G28 ; home all axes
G1 Z5 F5000 ; lift nozzle
M109 S225 ; wait for temperature to be reached
G90 ; use absolute coordinates
G92 E0 ; reset extrusion distance
M82 ; use absolute distances for extrusion
G1 F1800.000 E-1.00000 ; retract
G92 E0 ; reset extrusion distance
G1 Z0.350 F7800.000 ; move to next layer (0)
G1 X76.060 Y76.390 ; move to first skirt point
G1 F1800.000 E1.00000 ; compensate retraction
G1 X77.530 Y74.980 F720.000 E1.18522 ; skirt
G1 X79.190 Y73.590 E1.38209 ; skirt
G1 X81.110 Y72.180 E1.59869 ; skirt
G1 X83.100 Y70.930 E1.81238 ; skirt
G1 X85.790 Y69.530 E2.08812 ; skirt
G1 X86.130 Y69.370 E2.12229 ; skirt
G1 X89.320 Y68.120 E2.43383 ; skirt
G1 X89.840 Y67.970 E2.48304 ; skirt
G1 X95.500 Y66.680 E3.01090 ; skirt
G1 X95.820 Y66.640 E3.04023 ; skirt
G1 X104.010 Y66.630 E3.78494 ; skirt
G1 X104.490 Y66.680 E3.82882 ; skirt
G1 X110.150 Y67.970 E4.35668 ; skirt
G1 X110.670 Y68.120 E4.40589 ; skirt
G1 X113.860 Y69.370 E4.71743 ; skirt
G1 X114.200 Y69.530 E4.75160 ; skirt
G1 X116.890 Y70.930 E5.02735 ; skirt
G1 X119.110 Y72.340 E5.26648 ; skirt
G1 X120.980 Y73.730 E5.47835 ; skirt
G1 X122.460 Y74.980 E5.65450 ; skirt
G1 X124.090 Y76.550 E5.86029 ; skirt
G1 X125.370 Y77.940 E6.03211 ; skirt
G1 X126.400 Y79.190 E6.17939 ; skirt
G1 X127.550 Y80.740 E6.35488 ; skirt
G1 X128.380 Y81.990 E6.49132 ; skirt
G1 X129.220 Y83.390 E6.63978 ; skirt
G1 X130.060 Y84.950 E6.80088 ; skirt
G1 X130.710 Y86.330 E6.93959 ; skirt
G1 X131.240 Y87.580 E7.06305 ; skirt
G1 X131.760 Y89.000 E7.20055 ; skirt
G1 X132.250 Y90.520 E7.34577 ; skirt
G1 X132.650 Y91.960 E7.48167 ; skirt
G1 X132.960 Y93.370 E7.61294 ; skirt
G1 X133.180 Y94.620 E7.72835 ; skirt
G1 X133.390 Y96.150 E7.86877 ; skirt
G1 X133.510 Y97.400 E7.98296 ; skirt
G1 X133.590 Y98.800 E8.11047 ; skirt
G1 X133.610 Y100.340 E8.25051 ; skirt
G1 X133.570 Y101.790 E8.38241 ; skirt
G1 X133.460 Y103.150 E8.50648 ; skirt
G1 X133.320 Y104.400 E8.62085 ; skirt
G1 X133.100 Y105.820 E8.75151 ; skirt
G1 X132.820 Y107.210 E8.88044 ; skirt
G1 X132.490 Y108.600 E9.01035 ; skirt
G1 X132.040 Y110.160 E9.15798 ; skirt
G1 X131.620 Y111.400 E9.27703 ; skirt
G1 X131.020 Y112.950 E9.42816 ; skirt
G1 X130.390 Y114.370 E9.56942 ; skirt
G1 X129.760 Y115.620 E9.69670 ; skirt
G1 X128.910 Y117.160 E9.85664 ; skirt
G1 X128.030 Y118.560 E10.00700 ; skirt
G1 X127.160 Y119.810 E10.14549 ; skirt
G1 X125.950 Y121.360 E10.32429 ; skirt
G1 X124.870 Y122.610 E10.47450 ; skirt
G1 X123.350 Y124.170 E10.67255 ; skirt
G1 X121.820 Y125.560 E10.86051 ; skirt
G1 X120.270 Y126.810 E11.04157 ; skirt
G1 X118.240 Y128.220 E11.26632 ; skirt
G1 X115.900 Y129.610 E11.51380 ; skirt
G1 X115.600 Y129.770 E11.54472 ; skirt
G1 X112.940 Y131.020 E11.81197 ; skirt
G1 X112.550 Y131.180 E11.85030 ; skirt
G1 X108.810 Y132.430 E12.20886 ; skirt
G1 X108.280 Y132.560 E12.25849 ; skirt
G1 X101.120 Y133.810 E12.91939 ; skirt
G1 X100.490 Y133.860 E12.97685 ; skirt
G1 X99.940 Y133.820 E13.02700 ; skirt
G1 X91.780 Y132.570 E13.77764 ; skirt
G1 X91.180 Y132.430 E13.83366 ; skirt
G1 X87.440 Y131.180 E14.19223 ; skirt
G1 X87.050 Y131.020 E14.23056 ; skirt
G1 X84.390 Y129.770 E14.49781 ; skirt
G1 X84.090 Y129.610 E14.52872 ; skirt
G1 X81.750 Y128.220 E14.77621 ; skirt
G1 X79.720 Y126.810 E15.00095 ; skirt
G1 X78.170 Y125.560 E15.18202 ; skirt
G1 X76.490 Y124.020 E15.38925 ; skirt
G1 X75.120 Y122.610 E15.56801 ; skirt
G1 X74.040 Y121.360 E15.71822 ; skirt
G1 X72.830 Y119.810 E15.89702 ; skirt
G1 X71.960 Y118.560 E16.03550 ; skirt
G1 X71.080 Y117.160 E16.18587 ; skirt
G1 X70.230 Y115.620 E16.34581 ; skirt
G1 X69.600 Y114.370 E16.47309 ; skirt
G1 X68.970 Y112.950 E16.61435 ; skirt
G1 X68.370 Y111.400 E16.76548 ; skirt
G1 X67.950 Y110.160 E16.88453 ; skirt
G1 X67.500 Y108.600 E17.03216 ; skirt
G1 X67.170 Y107.210 E17.16207 ; skirt
G1 X66.890 Y105.820 E17.29100 ; skirt
G1 X66.670 Y104.400 E17.42166 ; skirt
G1 X66.530 Y103.150 E17.53603 ; skirt
G1 X66.420 Y101.790 E17.66010 ; skirt
G1 X66.380 Y100.340 E17.79200 ; skirt
G1 X66.400 Y98.800 E17.93204 ; skirt
G1 X66.480 Y97.400 E18.05955 ; skirt
G1 X66.600 Y96.150 E18.17373 ; skirt
G1 X66.810 Y94.620 E18.31416 ; skirt
G1 X67.030 Y93.370 E18.42957 ; skirt
G1 X67.340 Y91.960 E18.56084 ; skirt
G1 X67.740 Y90.520 E18.69674 ; skirt
G1 X68.230 Y89.000 E18.84196 ; skirt
G1 X68.750 Y87.580 E18.97946 ; skirt
G1 X69.280 Y86.330 E19.10292 ; skirt
G1 X69.930 Y84.950 E19.24162 ; skirt
G1 X70.770 Y83.390 E19.40273 ; skirt
G1 X71.610 Y81.990 E19.55119 ; skirt
G1 X72.440 Y80.740 E19.68762 ; skirt
G1 X73.590 Y79.190 E19.86312 ; skirt
G1 X74.620 Y77.940 E20.01040 ; skirt
G1 X75.994 Y76.456 E20.19426 ; skirt
G1 F1800.000 E19.19426 ; retract
G92 E0 ; reset extrusion distance
G1 X77.344 Y79.277 F7800.000 ; move to first brim point
G1 F1800.000 E1.00000 ; compensate retraction
G1 X79.557 Y77.139 F720.000 E1.27978 ; brim
G1 X79.669 Y77.093 E1.29083 ; brim
G1 X80.393 Y77.093 E1.35663 ; brim
G1 X80.333 Y77.050 E1.36337 ; brim
G1 X80.210 Y76.677 E1.39901 ; brim
G1 X80.271 Y76.485 E1.41740 ; brim
G1 X82.788 Y74.625 E1.70193 ; brim
G1 X82.883 Y74.594 E1.71105 ; brim
G1 X84.010 Y74.594 E1.81354 ; brim
G1 X83.936 Y74.535 E1.82214 ; brim
G1 X83.816 Y74.044 E1.86813 ; brim
G1 X83.906 Y73.847 E1.88778 ; brim
G1 X87.257 Y72.112 E2.23092 ; brim
G1 X87.330 Y72.094 E2.23774 ; brim
G1 X89.498 Y72.094 E2.43494 ; brim
G1 X89.405 Y72.010 E2.44640 ; brim
G1 X89.324 Y71.289 E2.51234 ; brim
G1 X89.462 Y71.095 E2.53404 ; brim
G1 X96.090 Y69.594 E3.15200 ; brim
G1 X105.032 Y69.594 E3.96507 ; brim
G1 X105.215 Y69.777 E3.98861 ; brim
G1 X105.215 Y70.736 E4.07580 ; brim
G1 X105.107 Y70.844 E4.08967 ; brim
G1 X109.512 Y70.855 E4.49020 ; brim
G1 X113.704 Y72.498 E4.89963 ; brim
G1 X113.813 Y72.696 E4.92011 ; brim
G1 X113.704 Y73.275 E4.97375 ; brim
G1 X113.621 Y73.344 E4.98353 ; brim
G1 X115.106 Y73.344 E5.11855 ; brim
G1 X115.191 Y73.368 E5.12657 ; brim
G1 X118.061 Y75.171 E5.43481 ; brim
G1 X118.136 Y75.366 E5.45381 ; brim
G1 X118.013 Y75.793 E5.49420 ; brim
G1 X117.946 Y75.843 E5.50184 ; brim
G1 X118.825 Y75.843 E5.58180 ; brim
G1 X118.929 Y75.881 E5.59183 ; brim
G1 X121.457 Y78.007 E5.89217 ; brim
G1 X121.334 Y78.343 E5.92467 ; brim
G1 X121.640 Y78.343 E5.95245 ; brim
G1 X121.760 Y78.395 E5.96435 ; brim
G1 X123.743 Y80.543 E6.23018 ; brim
G1 X123.612 Y80.842 E6.25987 ; brim
G1 X123.860 Y80.842 E6.28238 ; brim
G1 X123.992 Y80.909 E6.29587 ; brim
G1 X125.598 Y83.073 E6.54092 ; brim
G1 X125.463 Y83.342 E6.56829 ; brim
G1 X125.651 Y83.342 E6.58535 ; brim
G1 X125.794 Y83.423 E6.60036 ; brim
G1 X127.094 Y85.600 E6.83089 ; brim
G1 X126.957 Y85.842 E6.85612 ; brim
G1 X127.094 Y85.842 E6.86863 ; brim
G1 X127.247 Y85.938 E6.88508 ; brim
G1 X128.287 Y88.125 E7.10527 ; brim
G1 X128.151 Y88.341 E7.12850 ; brim
G1 X128.245 Y88.341 E7.13708 ; brim
G1 X128.406 Y88.453 E7.15492 ; brim
G1 X129.218 Y90.648 E7.36769 ; brim
G1 X129.083 Y90.841 E7.38904 ; brim
G1 X129.139 Y90.841 E7.39411 ; brim
G1 X129.307 Y90.969 E7.41330 ; brim
G1 X129.912 Y93.169 E7.62083 ; brim
G1 X129.782 Y93.340 E7.64038 ; brim
G1 X129.972 Y93.486 E7.66213 ; brim
G1 X130.367 Y95.691 E7.86584 ; brim
G1 X130.235 Y95.849 E7.88452 ; brim
G1 X130.404 Y96.002 E7.90530 ; brim
G1 X130.616 Y98.210 E8.10696 ; brim
G1 X130.475 Y98.365 E8.12605 ; brim
G1 X130.631 Y98.519 E8.14599 ; brim
G1 X130.663 Y100.728 E8.34684 ; brim
G1 X130.513 Y100.880 E8.36630 ; brim
G1 X130.660 Y101.039 E8.38595 ; brim
G1 X130.497 Y103.247 E8.58727 ; brim
G1 X130.331 Y103.401 E8.60786 ; brim
G1 X130.465 Y103.557 E8.62660 ; brim
G1 X130.118 Y105.763 E8.82966 ; brim
G1 X129.935 Y105.913 E8.85119 ; brim
G1 X130.063 Y106.077 E8.87013 ; brim
G1 X129.526 Y108.279 E9.07625 ; brim
G1 X129.356 Y108.413 E9.09590 ; brim
G1 X129.313 Y108.413 E9.09982 ; brim
G1 X129.446 Y108.598 E9.12055 ; brim
G1 X128.707 Y110.795 E9.33134 ; brim
G1 X128.543 Y110.912 E9.34963 ; brim
G1 X128.464 Y110.912 E9.35681 ; brim
G1 X128.600 Y111.121 E9.37948 ; brim
G1 X127.630 Y113.311 E9.59725 ; brim
G1 X127.474 Y113.412 E9.61411 ; brim
G1 X127.349 Y113.412 E9.62549 ; brim
G1 X127.486 Y113.645 E9.65011 ; brim
G1 X126.267 Y115.826 E9.87724 ; brim
G1 X126.121 Y115.911 E9.89267 ; brim
G1 X125.949 Y115.911 E9.90833 ; brim
G1 X126.085 Y116.172 E9.93503 ; brim
G1 X124.578 Y118.340 E10.17509 ; brim
G1 X124.442 Y118.411 E10.18905 ; brim
G1 X124.219 Y118.411 E10.20938 ; brim
G1 X124.351 Y118.701 E10.23840 ; brim
G1 X122.483 Y120.854 E10.49757 ; brim
G1 X122.360 Y120.910 E10.50992 ; brim
G1 X122.060 Y120.910 E10.53717 ; brim
G1 X122.186 Y121.234 E10.56876 ; brim
G1 X119.848 Y123.368 E10.85651 ; brim
G1 X119.739 Y123.410 E10.86715 ; brim
G1 X118.975 Y123.410 E10.93666 ; brim
G1 X119.038 Y123.456 E10.94378 ; brim
G1 X119.161 Y123.851 E10.98138 ; brim
G1 X119.094 Y124.045 E11.00002 ; brim
G1 X116.436 Y125.881 E11.29377 ; brim
G1 X116.345 Y125.910 E11.30243 ; brim
G1 X115.109 Y125.910 E11.41485 ; brim
G1 X115.187 Y125.972 E11.42389 ; brim
G1 X115.303 Y126.495 E11.47266 ; brim
G1 X115.207 Y126.692 E11.49262 ; brim
G1 X111.582 Y128.394 E11.85674 ; brim
G1 X111.515 Y128.409 E11.86300 ; brim
G1 X108.922 Y128.409 E12.09879 ; brim
G1 X109.030 Y128.517 E12.11266 ; brim
G1 X109.030 Y129.476 E12.19985 ; brim
G1 X108.847 Y129.659 E12.22339 ; brim
G1 X101.758 Y129.659 E12.86797 ; brim
G1 X101.866 Y129.767 E12.88184 ; brim
G1 X101.866 Y130.726 E12.96903 ; brim
G1 X101.683 Y130.909 E12.99257 ; brim
G1 X99.320 Y130.909 E13.20744 ; brim
G1 X99.137 Y130.726 E13.23097 ; brim
G1 X99.137 Y129.767 E13.31816 ; brim
G1 X99.244 Y129.659 E13.33204 ; brim
G1 X92.251 Y129.659 E13.96798 ; brim
G1 X87.432 Y128.055 E14.42977 ; brim
G1 X87.313 Y127.858 E14.45066 ; brim
G1 X87.415 Y127.233 E14.50828 ; brim
G1 X87.502 Y127.159 E14.51863 ; brim
G1 X85.799 Y127.159 E14.67346 ; brim
G1 X85.718 Y127.137 E14.68106 ; brim
G1 X82.693 Y125.358 E15.00024 ; brim
G1 X82.613 Y125.162 E15.01946 ; brim
G1 X82.735 Y124.713 E15.06177 ; brim
G1 X82.805 Y124.660 E15.06974 ; brim
G1 X81.825 Y124.660 E15.15885 ; brim
G1 X81.724 Y124.624 E15.16860 ; brim
G1 X79.384 Y122.734 E15.44214 ; brim
G1 X79.330 Y122.543 E15.46020 ; brim
G1 X79.451 Y122.200 E15.49328 ; brim
G1 X79.507 Y122.160 E15.49951 ; brim
G1 X78.875 Y122.160 E15.55697 ; brim
G1 X78.758 Y122.111 E15.56847 ; brim
G1 X76.670 Y119.968 E15.84061 ; brim
G1 X76.799 Y119.661 E15.87090 ; brim
G1 X76.539 Y119.661 E15.89454 ; brim
G1 X76.409 Y119.597 E15.90774 ; brim
G1 X74.738 Y117.436 E16.15612 ; brim
G1 X74.873 Y117.161 E16.18391 ; brim
G1 X74.674 Y117.161 E16.20199 ; brim
G1 X74.533 Y117.083 E16.21670 ; brim
G1 X73.176 Y114.908 E16.44975 ; brim
G1 X73.313 Y114.662 E16.47540 ; brim
G1 X73.165 Y114.662 E16.48881 ; brim
G1 X73.014 Y114.568 E16.50495 ; brim
G1 X71.922 Y112.383 E16.72706 ; brim
G1 X72.059 Y112.162 E16.75071 ; brim
G1 X71.955 Y112.162 E16.76016 ; brim
G1 X71.796 Y112.053 E16.77776 ; brim
G1 X70.947 Y109.859 E16.99162 ; brim
G1 X71.082 Y109.662 E17.01327 ; brim
G1 X71.021 Y109.662 E17.01887 ; brim
G1 X70.854 Y109.537 E17.03785 ; brim
G1 X70.217 Y107.337 E17.24608 ; brim
G1 X70.348 Y107.163 E17.26591 ; brim
G1 X70.323 Y107.163 E17.26821 ; brim
G1 X70.150 Y107.021 E17.28853 ; brim
G1 X69.710 Y104.817 E17.49293 ; brim
G1 X69.839 Y104.659 E17.51153 ; brim
G1 X69.667 Y104.505 E17.53254 ; brim
G1 X69.411 Y102.298 E17.73458 ; brim
G1 X69.549 Y102.143 E17.75342 ; brim
G1 X69.388 Y101.986 E17.77385 ; brim
G1 X69.331 Y99.778 E17.97474 ; brim
G1 X69.482 Y99.624 E17.99432 ; brim
G1 X69.335 Y99.469 E18.01369 ; brim
G1 X69.457 Y97.261 E18.21480 ; brim
G1 X69.619 Y97.107 E18.23513 ; brim
G1 X69.483 Y96.951 E18.25400 ; brim
G1 X69.786 Y94.744 E18.45652 ; brim
G1 X69.962 Y94.591 E18.47774 ; brim
G1 X69.834 Y94.431 E18.49636 ; brim
G1 X70.329 Y92.227 E18.70169 ; brim
G1 X70.500 Y92.090 E18.72163 ; brim
G1 X70.539 Y92.090 E18.72523 ; brim
G1 X70.407 Y91.909 E18.74567 ; brim
G1 X71.113 Y89.711 E18.95559 ; brim
G1 X71.278 Y89.591 E18.97411 ; brim
G1 X71.352 Y89.591 E18.98089 ; brim
G1 X71.217 Y89.387 E19.00317 ; brim
G1 X72.139 Y87.196 E19.21934 ; brim
G1 X72.296 Y87.091 E19.23649 ; brim
G1 X72.412 Y87.091 E19.24698 ; brim
G1 X72.275 Y86.863 E19.27119 ; brim
G1 X73.440 Y84.681 E19.49612 ; brim
G1 X73.588 Y84.592 E19.51185 ; brim
G1 X73.749 Y84.592 E19.52654 ; brim
G1 X73.613 Y84.337 E19.55283 ; brim
G1 X75.059 Y82.166 E19.79000 ; brim
G1 X75.197 Y82.092 E19.80425 ; brim
G1 X75.413 Y82.092 E19.82390 ; brim
G1 X75.280 Y81.809 E19.85241 ; brim
G1 X77.064 Y79.652 E20.10689 ; brim
G1 X77.190 Y79.593 E20.11959 ; brim
G1 X77.472 Y79.593 E20.14521 ; brim
G1 X77.379 Y79.364 E20.16763 ; brim
G1 F1800.000 E19.16763 ; retract
G92 E0 ; reset extrusion distance
G1 X103.853 Y70.257 F7800.000 ; move to first support material point
G1 F1800.000 E1.00000 ; compensate retraction
G1 X96.147 Y70.257 F1080.000 E1.70068 ; support material
G1 X90.641 Y71.507 E2.21411 ; support material
G1 X109.359 Y71.507 E3.91618 ; support material
G1 X112.548 Y72.756 E4.22756 ; support material
G1 X87.452 Y72.756 E6.50945 ; support material
G1 X85.039 Y74.006 E6.75658 ; support material
G1 X114.961 Y74.006 E9.47737 ; support material
G1 X116.951 Y75.256 E9.69108 ; support material
G1 X83.049 Y75.256 E12.77385 ; support material
G1 X81.357 Y76.506 E12.96506 ; support material
G1 X118.643 Y76.506 E16.35538 ; support material
G1 X120.128 Y77.756 E16.53193 ; support material
G1 X79.872 Y77.756 E20.19248 ; support material
G1 X78.579 Y79.005 E20.35599 ; support material
G1 X121.421 Y79.005 E24.25167 ; support material
G1 X122.575 Y80.255 E24.40634 ; support material
G1 X77.425 Y80.255 E28.51187 ; support material
G1 X76.391 Y81.505 E28.65936 ; support material
G1 X123.609 Y81.505 E32.95293 ; support material
G1 X124.537 Y82.755 E33.09446 ; support material
G1 X75.463 Y82.755 E37.55673 ; support material
G1 X74.630 Y84.004 E37.69328 ; support material
G1 X125.370 Y84.004 E42.30696 ; support material
G1 X126.116 Y85.254 E42.43931 ; support material
G1 X73.884 Y85.254 E47.18869 ; support material
G1 X73.217 Y86.504 E47.31751 ; support material
G1 X126.783 Y86.504 E52.18822 ; support material
G1 X127.377 Y87.754 E52.31406 ; support material
G1 X72.623 Y87.754 E57.29283 ; support material
G1 X72.097 Y89.004 E57.41613 ; support material
G1 X127.903 Y89.004 E62.49059 ; support material
G1 X128.365 Y90.253 E62.61175 ; support material
G1 X71.635 Y90.253 E67.77025 ; support material
G1 X71.233 Y91.503 E67.88962 ; support material
G1 X128.767 Y91.503 E73.12114 ; support material
G1 X129.111 Y92.753 E73.23900 ; support material
G1 X70.889 Y92.753 E78.53301 ; support material
G1 X70.609 Y94.003 E78.64948 ; support material
G1 X129.391 Y94.003 E83.99455 ; support material
G1 X129.615 Y95.252 E84.11000 ; support material
G1 X70.385 Y95.252 E89.49584 ; support material
G1 X70.213 Y96.502 E89.61055 ; support material
G1 X129.787 Y96.502 E95.02757 ; support material
G1 X129.907 Y97.752 E95.14173 ; support material
G1 X70.093 Y97.752 E100.58054 ; support material
G1 X70.024 Y99.002 E100.69436 ; support material
G1 X129.976 Y99.002 E106.14570 ; support material
G1 X129.994 Y100.252 E106.25935 ; support material
G1 X70.006 Y100.252 E111.71402 ; support material
G1 X70.038 Y101.501 E111.82770 ; support material
G1 X129.962 Y101.501 E117.27653 ; support material
G1 X129.870 Y102.751 E117.39048 ; support material
G1 X70.130 Y102.751 E122.82254 ; support material
G1 X70.275 Y104.001 E122.93694 ; support material
G1 X129.725 Y104.001 E128.34268 ; support material
