; generated by Slic3r 0.9.9 on 2014-01-27 at 16:39:41

; layer_height = 0.2
; perimeters = 3
; top_solid_layers = 3
; bottom_solid_layers = 3
; fill_density = 0.15
; perimeter_speed = 45
; infill_speed = 60
; travel_speed = 130
; nozzle_diameter = 0.35
; filament_diameter = 1.75
; extrusion_multiplier = 1
; perimeters extrusion width = 0.52mm
; infill extrusion width = 0.52mm
; solid infill extrusion width = 0.52mm
; top infill extrusion width = 0.52mm
; support material extrusion width = 0.52mm
; first layer extrusion width = 0.60mm

G21 ; set units to millimeters
M107 ; disable fan
M190 S94 ; wait for bed temperature to be reached
M104 S225 ; set temperature
G28 ; home all axes
G1 Z5 F5000 ; lift nozzle
M109 S225 ; wait for temperature to be reached
G90 ; use absolute coordinates
G92 E0 ; reset extrusion distance
M82 ; use absolute distances for extrusion
G1 F1800.000 E-1.00000 ; retract
G92 E0 ; reset extrusion distance
G1 Z0.300 F7800.000 ; move to next layer (0)
G1 X59.360 Y77.620 ; move to first skirt point
G1 F1800.000 E1.00000 ; compensate retraction
G1 X61.010 Y76.380 F810.000 E1.14065 ; skirt
G1 X62.690 Y75.290 E1.27711 ; skirt
G1 X64.990 Y74.050 E1.45517 ; skirt
G1 X65.350 Y73.880 E1.48230 ; skirt
G1 X68.060 Y72.790 E1.68135 ; skirt
G1 X68.560 Y72.630 E1.71712 ; skirt
G1 X73.300 Y71.510 E2.04902 ; skirt
G1 X73.620 Y71.470 E2.07099 ; skirt
G1 X73.950 Y71.450 E2.09352 ; skirt
G1 X126.040 Y71.450 E5.64313 ; skirt
G1 X126.690 Y71.510 E5.68761 ; skirt
G1 X131.430 Y72.630 E6.01951 ; skirt
G1 X131.930 Y72.790 E6.05528 ; skirt
G1 X134.640 Y73.880 E6.25433 ; skirt
G1 X135.000 Y74.050 E6.28146 ; skirt
G1 X137.300 Y75.290 E6.45951 ; skirt
G1 X138.980 Y76.380 E6.59598 ; skirt
G1 X140.630 Y77.620 E6.73663 ; skirt
G1 X142.240 Y79.030 E6.88247 ; skirt
G1 X143.490 Y80.280 E7.00293 ; skirt
G1 X144.570 Y81.500 E7.11396 ; skirt
G1 X145.600 Y82.790 E7.22645 ; skirt
G1 X146.370 Y83.890 E7.31795 ; skirt
G1 X147.140 Y85.090 E7.41511 ; skirt
G1 X147.950 Y86.500 E7.52591 ; skirt
G1 X148.500 Y87.590 E7.60911 ; skirt
G1 X149.110 Y88.990 E7.71317 ; skirt
G1 X149.610 Y90.270 E7.80682 ; skirt
G1 X150.010 Y91.480 E7.89366 ; skirt
G1 X150.330 Y92.580 E7.97172 ; skirt
G1 X150.630 Y93.840 E8.05999 ; skirt
G1 X150.900 Y95.230 E8.15648 ; skirt
G1 X151.080 Y96.490 E8.24321 ; skirt
G1 X151.200 Y97.710 E8.32675 ; skirt
G1 X151.280 Y98.960 E8.41210 ; skirt
G1 X151.300 Y100.220 E8.49797 ; skirt
G1 X151.270 Y101.310 E8.57228 ; skirt
G1 X151.170 Y102.700 E8.66724 ; skirt
G1 X151.020 Y103.980 E8.75506 ; skirt
G1 X150.820 Y105.190 E8.83863 ; skirt
G1 X150.600 Y106.280 E8.91441 ; skirt
G1 X150.290 Y107.530 E9.00217 ; skirt
G1 X149.870 Y108.940 E9.10242 ; skirt
G1 X149.490 Y110.030 E9.18108 ; skirt
G1 X148.920 Y111.440 E9.28472 ; skirt
G1 X148.420 Y112.530 E9.36644 ; skirt
G1 X147.700 Y113.940 E9.47432 ; skirt
G1 X147.060 Y115.030 E9.56046 ; skirt
G1 X146.150 Y116.430 E9.67424 ; skirt
G1 X145.350 Y117.520 E9.76638 ; skirt
G1 X144.200 Y118.910 E9.88931 ; skirt
G1 X143.200 Y120.000 E9.99011 ; skirt
G1 X141.750 Y121.420 E10.12841 ; skirt
G1 X140.450 Y122.510 E10.24401 ; skirt
G1 X138.790 Y123.740 E10.38480 ; skirt
G1 X136.510 Y125.150 E10.56748 ; skirt
G1 X134.340 Y126.240 E10.73296 ; skirt
G1 X133.990 Y126.390 E10.75891 ; skirt
G1 X131.080 Y127.480 E10.97066 ; skirt
G1 X130.650 Y127.610 E11.00127 ; skirt
G1 X130.360 Y127.670 E11.02145 ; skirt
G1 X123.020 Y128.760 E11.52711 ; skirt
G1 X122.500 Y128.800 E11.56265 ; skirt
G1 X77.490 Y128.800 E14.62980 ; skirt
G1 X76.970 Y128.760 E14.66534 ; skirt
G1 X69.630 Y127.670 E15.17100 ; skirt
G1 X69.340 Y127.610 E15.19118 ; skirt
G1 X68.910 Y127.480 E15.22179 ; skirt
G1 X66.000 Y126.390 E15.43354 ; skirt
G1 X65.650 Y126.240 E15.45949 ; skirt
G1 X63.480 Y125.150 E15.62497 ; skirt
G1 X61.200 Y123.740 E15.80765 ; skirt
G1 X59.540 Y122.510 E15.94843 ; skirt
G1 X58.240 Y121.420 E16.06404 ; skirt
G1 X56.790 Y120.000 E16.20234 ; skirt
G1 X55.790 Y118.910 E16.30314 ; skirt
G1 X54.640 Y117.520 E16.42607 ; skirt
G1 X53.720 Y116.250 E16.53294 ; skirt
G1 X52.930 Y115.030 E16.63198 ; skirt
G1 X52.290 Y113.940 E16.71811 ; skirt
G1 X51.570 Y112.530 E16.82600 ; skirt
G1 X51.000 Y111.280 E16.91962 ; skirt
G1 X50.500 Y110.030 E17.01136 ; skirt
G1 X50.120 Y108.940 E17.09002 ; skirt
G1 X49.700 Y107.530 E17.19027 ; skirt
G1 X49.390 Y106.280 E17.27803 ; skirt
G1 X49.170 Y105.190 E17.35381 ; skirt
G1 X48.950 Y103.790 E17.45038 ; skirt
G1 X48.830 Y102.700 E17.52510 ; skirt
G1 X48.730 Y101.310 E17.62007 ; skirt
G1 X48.700 Y100.220 E17.69437 ; skirt
G1 X48.720 Y98.960 E17.78025 ; skirt
G1 X48.800 Y97.710 E17.86560 ; skirt
G1 X48.920 Y96.490 E17.94914 ; skirt
G1 X49.090 Y95.270 E18.03307 ; skirt
G1 X49.360 Y93.840 E18.13224 ; skirt
G1 X49.660 Y92.580 E18.22050 ; skirt
G1 X49.980 Y91.480 E18.29857 ; skirt
G1 X50.380 Y90.270 E18.38541 ; skirt
G1 X50.880 Y88.990 E18.47905 ; skirt
G1 X51.410 Y87.770 E18.56970 ; skirt
G1 X52.040 Y86.500 E18.66630 ; skirt
G1 X52.850 Y85.090 E18.77711 ; skirt
G1 X53.620 Y83.890 E18.87427 ; skirt
G1 X54.390 Y82.790 E18.96577 ; skirt
G1 X55.530 Y81.370 E19.08986 ; skirt
G1 X56.650 Y80.120 E19.20423 ; skirt
G1 X57.750 Y79.030 E19.30975 ; skirt
G1 X59.297 Y77.672 E19.45001 ; skirt
G1 F1800.000 E18.45001 ; retract
G92 E0 ; reset extrusion distance
G1 X60.096 Y80.113 F7800.000 ; move to first brim point
G1 F1800.000 E1.00000 ; compensate retraction
G1 X62.459 Y78.330 F810.000 E1.20172 ; brim
G1 X62.712 Y78.246 E1.21992 ; brim
G1 X63.008 Y78.246 E1.24010 ; brim
G1 X63.229 Y77.748 E1.27721 ; brim
G1 X66.303 Y76.109 E1.51457 ; brim
G1 X66.498 Y76.060 E1.52831 ; brim
G1 X67.667 Y76.060 E1.60797 ; brim
G1 X67.667 Y75.448 E1.64972 ; brim
G1 X68.148 Y74.967 E1.69598 ; brim
G1 X72.240 Y74.967 E1.97489 ; brim
G1 X72.240 Y74.355 E2.01664 ; brim
G1 X72.721 Y73.875 E2.06290 ; brim
G1 X126.124 Y73.875 E5.70198 ; brim
G1 X131.955 Y75.257 E6.11033 ; brim
G1 X132.311 Y75.768 E6.15280 ; brim
G1 X132.277 Y76.060 E6.17288 ; brim
G1 X133.502 Y76.060 E6.25633 ; brim
G1 X133.697 Y76.109 E6.27008 ; brim
G1 X136.771 Y77.748 E6.50743 ; brim
G1 X136.992 Y78.246 E6.54454 ; brim
G1 X137.288 Y78.246 E6.56472 ; brim
G1 X137.541 Y78.330 E6.58293 ; brim
G1 X139.904 Y80.113 E6.78464 ; brim
G1 X140.003 Y80.431 E6.80730 ; brim
G1 X140.329 Y80.555 E6.83106 ; brim
G1 X142.534 Y82.749 E7.04304 ; brim
G1 X142.509 Y82.808 E7.04736 ; brim
G1 X144.276 Y85.020 E7.24026 ; brim
G1 X144.253 Y85.067 E7.24384 ; brim
G1 X145.663 Y87.283 E7.42283 ; brim
G1 X145.641 Y87.322 E7.42587 ; brim
G1 X146.758 Y89.540 E7.59503 ; brim
G1 X146.738 Y89.571 E7.59752 ; brim
G1 X147.600 Y91.791 E7.75982 ; brim
G1 X147.583 Y91.815 E7.76182 ; brim
G1 X148.219 Y94.037 E7.91931 ; brim
G1 X148.205 Y94.056 E7.92092 ; brim
G1 X148.633 Y96.280 E8.07521 ; brim
G1 X148.621 Y96.294 E8.07645 ; brim
G1 X148.854 Y98.519 E8.22889 ; brim
G1 X148.895 Y100.623 E8.37228 ; brim
G1 X148.743 Y102.860 E8.52512 ; brim
G1 X148.388 Y105.084 E8.67858 ; brim
G1 X148.401 Y105.101 E8.68005 ; brim
G1 X147.844 Y107.323 E8.83617 ; brim
G1 X147.860 Y107.345 E8.83801 ; brim
G1 X147.086 Y109.566 E8.99829 ; brim
G1 X147.104 Y109.594 E9.00055 ; brim
G1 X146.089 Y111.814 E9.16684 ; brim
G1 X146.109 Y111.848 E9.16958 ; brim
G1 X144.819 Y114.066 E9.34438 ; brim
G1 X144.841 Y114.109 E9.34768 ; brim
G1 X143.223 Y116.323 E9.53450 ; brim
G1 X143.247 Y116.376 E9.53848 ; brim
G1 X141.234 Y118.574 E9.74160 ; brim
G1 X141.265 Y118.660 E9.74781 ; brim
G1 X138.705 Y120.815 E9.97588 ; brim
G1 X138.433 Y120.914 E9.99561 ; brim
G1 X138.260 Y120.914 E10.00739 ; brim
G1 X138.096 Y121.337 E10.03831 ; brim
G1 X135.348 Y123.037 E10.25847 ; brim
G1 X135.128 Y123.100 E10.27404 ; brim
G1 X134.403 Y123.100 E10.32349 ; brim
G1 X134.427 Y123.236 E10.33291 ; brim
G1 X134.134 Y123.753 E10.37340 ; brim
G1 X130.121 Y125.259 E10.66547 ; brim
G1 X129.976 Y125.285 E10.67553 ; brim
G1 X124.227 Y125.285 E11.06732 ; brim
G1 X124.227 Y125.898 E11.10907 ; brim
G1 X123.747 Y126.378 E11.15533 ; brim
G1 X76.253 Y126.378 E14.39171 ; brim
G1 X75.773 Y125.898 E14.43797 ; brim
G1 X75.773 Y125.285 E14.47972 ; brim
G1 X68.912 Y125.285 E14.94723 ; brim
G1 X68.432 Y124.805 E14.99350 ; brim
G1 X68.432 Y124.193 E15.03525 ; brim
G1 X66.001 Y124.193 E15.20090 ; brim
G1 X65.521 Y123.712 E15.24716 ; brim
G1 X65.521 Y123.100 E15.28891 ; brim
G1 X64.872 Y123.100 E15.33319 ; brim
G1 X64.652 Y123.037 E15.34877 ; brim
G1 X61.904 Y121.337 E15.56892 ; brim
G1 X61.740 Y120.914 E15.59984 ; brim
G1 X60.582 Y120.914 E15.67875 ; brim
G1 X60.102 Y120.434 E15.72502 ; brim
G1 X60.102 Y119.765 E15.77062 ; brim
G1 X59.945 Y119.701 E15.78219 ; brim
G1 X57.695 Y117.512 E15.99610 ; brim
G1 X57.719 Y117.453 E16.00047 ; brim
G1 X55.911 Y115.241 E16.19510 ; brim
G1 X55.934 Y115.193 E16.19872 ; brim
G1 X54.488 Y112.978 E16.37901 ; brim
G1 X54.509 Y112.939 E16.38202 ; brim
G1 X53.362 Y110.721 E16.55221 ; brim
G1 X53.381 Y110.690 E16.55469 ; brim
G1 X52.490 Y108.469 E16.71771 ; brim
G1 X52.507 Y108.444 E16.71976 ; brim
G1 X51.844 Y106.223 E16.87775 ; brim
G1 X51.858 Y106.203 E16.87940 ; brim
G1 X51.404 Y103.980 E17.03403 ; brim
G1 X51.416 Y103.966 E17.03531 ; brim
G1 X51.158 Y101.741 E17.18792 ; brim
G1 X51.106 Y99.637 E17.33134 ; brim
G1 X51.233 Y97.399 E17.48405 ; brim
G1 X51.562 Y95.175 E17.63726 ; brim
G1 X51.549 Y95.159 E17.63869 ; brim
G1 X52.080 Y92.936 E17.79440 ; brim
G1 X52.064 Y92.915 E17.79620 ; brim
G1 X52.810 Y90.694 E17.95586 ; brim
G1 X52.792 Y90.666 E17.95808 ; brim
G1 X53.777 Y88.446 E18.12362 ; brim
G1 X53.758 Y88.413 E18.12620 ; brim
G1 X55.013 Y86.195 E18.29987 ; brim
G1 X54.991 Y86.152 E18.30311 ; brim
G1 X56.570 Y83.938 E18.48843 ; brim
G1 X56.546 Y83.885 E18.49236 ; brim
G1 X58.539 Y81.663 E18.69574 ; brim
G1 X58.539 Y80.911 E18.74700 ; brim
G1 X59.019 Y80.431 E18.79327 ; brim
G1 X59.997 Y80.431 E18.85996 ; brim
G1 X60.071 Y80.192 E18.87703 ; brim
G1 F1800.000 E17.87703 ; retract
G92 E0 ; reset extrusion distance
G1 X76.963 Y120.914 F7800.000 ; move to first brim point
G1 F1800.000 E1.00000 ; compensate retraction
G1 X78.037 Y120.914 F810.000 E1.07324 ; brim
G1 X77.611 Y121.341 E1.11434 ; brim
G1 X77.611 Y121.954 E1.15608 ; brim
G1 X77.389 Y121.954 E1.17121 ; brim
G1 X77.389 Y121.341 E1.21296 ; brim
G1 X77.021 Y120.972 E1.24847 ; brim
G1 F1800.000 E0.24847 ; retract
G92 E0 ; reset extrusion distance
G1 X120.853 Y120.217 F7800.000 ; move to first brim point
G1 F1800.000 E1.00000 ; compensate retraction
G1 X121.294 Y118.729 F810.000 E1.10576 ; brim
G1 X122.486 Y118.729 E1.18705 ; brim
G1 X122.500 Y118.716 E1.18836 ; brim
G1 X122.514 Y118.729 E1.18966 ; brim
G1 X123.147 Y118.729 E1.23280 ; brim
G1 X123.147 Y119.342 E1.27455 ; brim
G1 X123.627 Y119.822 E1.32081 ; brim
G1 X124.057 Y119.822 E1.35015 ; brim
G1 X123.921 Y120.861 E1.42156 ; brim
G1 X123.091 Y120.861 E1.47810 ; brim
G1 X122.611 Y121.341 E1.52437 ; brim
G1 X122.611 Y121.954 E1.56611 ; brim
G1 X121.990 Y121.954 E1.60841 ; brim
G1 X120.898 Y120.286 E1.74428 ; brim
G1 F1800.000 E0.74428 ; retract
G92 E0 ; reset extrusion distance
G1 X122.012 Y81.524 F7800.000 ; move to first brim point
G1 F1800.000 E1.00000 ; compensate retraction
G1 X122.012 Y80.911 F810.000 E1.04175 ; brim
G1 X121.532 Y80.431 E1.08801 ; brim
G1 X120.963 Y80.431 E1.12680 ; brim
G1 X120.998 Y79.392 E1.19764 ; brim
G1 X121.666 Y79.392 E1.24313 ; brim
G1 X122.146 Y78.912 E1.28939 ; brim
G1 X122.146 Y78.299 E1.33114 ; brim
G1 X123.335 Y78.299 E1.41216 ; brim
G1 X124.159 Y79.944 E1.53755 ; brim
G1 X123.507 Y81.524 E1.65396 ; brim
G1 X122.094 Y81.524 E1.75028 ; brim
G1 F1800.000 E0.75028 ; retract
G92 E0 ; reset extrusion distance
G1 X78.855 Y79.338 F7800.000 ; move to first brim point
G1 F1800.000 E1.00000 ; compensate retraction
G1 X76.145 Y79.338 F810.000 E1.18472 ; brim
G1 X76.665 Y78.299 E1.26391 ; brim
G1 X78.335 Y78.299 E1.37770 ; brim
G1 X78.819 Y79.265 E1.45131 ; brim
G1 F1800.000 E0.45131 ; retract
G92 E0 ; reset extrusion distance
G1 X72.893 Y75.514 F7800.000 ; move to first brim point
G1 F1800.000 E1.00000 ; compensate retraction
G1 X72.787 Y75.407 F810.000 E1.01025 ; brim
G1 X72.787 Y74.581 E1.06656 ; brim
G1 X72.947 Y74.421 E1.08198 ; brim
G1 X126.091 Y74.421 E4.70345 ; brim
G1 X131.626 Y75.740 E5.09112 ; brim
G1 X131.744 Y75.910 E5.10528 ; brim
G1 X131.672 Y76.522 E5.14728 ; brim
G1 X131.577 Y76.606 E5.15594 ; brim
G1 X133.434 Y76.606 E5.28247 ; brim
G1 X133.500 Y76.623 E5.28705 ; brim
G1 X136.348 Y78.141 E5.50701 ; brim
G1 X136.424 Y78.313 E5.51982 ; brim
G1 X136.320 Y78.730 E5.54908 ; brim
G1 X136.241 Y78.792 E5.55595 ; brim
G1 X137.199 Y78.792 E5.62126 ; brim
G1 X137.283 Y78.820 E5.62733 ; brim
G1 X139.435 Y80.443 E5.81097 ; brim
G1 X139.487 Y80.612 E5.82297 ; brim
G1 X139.381 Y80.928 E5.84571 ; brim
G1 X139.312 Y80.977 E5.85146 ; brim
G1 X139.920 Y80.977 E5.89286 ; brim
G1 X140.020 Y81.019 E5.90024 ; brim
G1 X141.889 Y82.878 E6.07992 ; brim
G1 X141.772 Y83.163 E6.10088 ; brim
G1 X142.025 Y83.163 E6.11810 ; brim
G1 X142.137 Y83.217 E6.12659 ; brim
G1 X143.635 Y85.092 E6.29014 ; brim
G1 X143.511 Y85.348 E6.30949 ; brim
G1 X143.704 Y85.348 E6.32263 ; brim
G1 X143.827 Y85.416 E6.33218 ; brim
G1 X145.028 Y87.304 E6.48468 ; brim
G1 X144.902 Y87.533 E6.50254 ; brim
G1 X145.045 Y87.533 E6.51228 ; brim
G1 X145.177 Y87.615 E6.52283 ; brim
G1 X146.132 Y89.513 E6.66763 ; brim
G1 X146.005 Y89.719 E6.68413 ; brim
G1 X146.107 Y89.719 E6.69107 ; brim
G1 X146.247 Y89.814 E6.70260 ; brim
G1 X146.986 Y91.720 E6.84190 ; brim
G1 X146.860 Y91.904 E6.85710 ; brim
G1 X146.926 Y91.904 E6.86156 ; brim
G1 X147.072 Y92.014 E6.87403 ; brim
G1 X147.619 Y93.926 E7.00951 ; brim
G1 X147.495 Y94.090 E7.02349 ; brim
G1 X147.527 Y94.090 E7.02567 ; brim
G1 X147.679 Y94.215 E7.03906 ; brim
G1 X148.048 Y96.130 E7.17199 ; brim
G1 X147.928 Y96.275 E7.18479 ; brim
G1 X148.085 Y96.416 E7.19912 ; brim
G1 X148.285 Y98.333 E7.33053 ; brim
G1 X148.157 Y98.476 E7.34359 ; brim
G1 X148.300 Y98.617 E7.35731 ; brim
G1 X148.337 Y100.536 E7.48809 ; brim
G1 X148.199 Y100.676 E7.50150 ; brim
G1 X148.332 Y100.820 E7.51489 ; brim
G1 X148.193 Y102.739 E7.64597 ; brim
G1 X148.041 Y102.879 E7.66006 ; brim
G1 X148.164 Y103.023 E7.67292 ; brim
G1 X147.858 Y104.940 E7.80518 ; brim
G1 X147.684 Y105.070 E7.81998 ; brim
G1 X147.806 Y105.227 E7.83352 ; brim
G1 X147.327 Y107.140 E7.96792 ; brim
G1 X147.179 Y107.256 E7.98073 ; brim
G1 X147.126 Y107.256 E7.98433 ; brim
G1 X147.251 Y107.432 E7.99906 ; brim
G1 X146.586 Y109.340 E8.13676 ; brim
G1 X146.444 Y109.441 E8.14864 ; brim
G1 X146.356 Y109.441 E8.15464 ; brim
G1 X146.483 Y109.639 E8.17063 ; brim
G1 X145.613 Y111.540 E8.31309 ; brim
G1 X145.479 Y111.627 E8.32402 ; brim
G1 X145.351 Y111.627 E8.33271 ; brim
G1 X145.478 Y111.847 E8.35003 ; brim
G1 X144.377 Y113.739 E8.49922 ; brim
G1 X144.250 Y113.812 E8.50916 ; brim
G1 X144.077 Y113.812 E8.52095 ; brim
G1 X144.202 Y114.057 E8.53970 ; brim
G1 X142.828 Y115.938 E8.69843 ; brim
G1 X142.711 Y115.997 E8.70734 ; brim
G1 X142.483 Y115.997 E8.72287 ; brim
G1 X142.603 Y116.270 E8.74316 ; brim
G1 X140.894 Y118.136 E8.91561 ; brim
G1 X140.789 Y118.183 E8.92344 ; brim
G1 X140.510 Y118.183 E8.94249 ; brim
G1 X140.621 Y118.488 E8.96465 ; brim
G1 X138.427 Y120.335 E9.16009 ; brim
G1 X138.336 Y120.368 E9.16667 ; brim
G1 X137.537 Y120.368 E9.22109 ; brim
G1 X137.612 Y120.425 E9.22750 ; brim
G1 X137.719 Y120.798 E9.25397 ; brim
G1 X137.652 Y120.969 E9.26645 ; brim
G1 X135.126 Y122.533 E9.46894 ; brim
G1 X135.052 Y122.554 E9.47413 ; brim
G1 X133.674 Y122.554 E9.56807 ; brim
G1 X133.762 Y122.627 E9.57586 ; brim
G1 X133.854 Y123.139 E9.61130 ; brim
G1 X133.757 Y123.311 E9.62480 ; brim
G1 X129.975 Y124.730 E9.90002 ; brim
G1 X123.574 Y124.739 E10.33624 ; brim
G1 X123.680 Y124.845 E10.34649 ; brim
G1 X123.680 Y125.672 E10.40280 ; brim
G1 X123.520 Y125.832 E10.41822 ; brim
G1 X76.480 Y125.832 E13.62375 ; brim
G1 X76.320 Y125.672 E13.63918 ; brim
G1 X76.320 Y124.845 E13.69548 ; brim
G1 X76.426 Y124.739 E13.70573 ; brim
G1 X69.139 Y124.739 E14.20231 ; brim
G1 X68.979 Y124.579 E14.21773 ; brim
G1 X68.979 Y123.753 E14.27404 ; brim
G1 X69.085 Y123.646 E14.28429 ; brim
G1 X66.228 Y123.646 E14.47900 ; brim
