; generated by Slic3r 0.9.9 on 2014-01-14 at 16:30:48

; layer_height = 0.2
; perimeters = 3
; top_solid_layers = 3
; bottom_solid_layers = 3
; fill_density = 0.15
; perimeter_speed = 50
; infill_speed = 60
; travel_speed = 130
; nozzle_diameter = 0.35
; filament_diameter = 1.75
; extrusion_multiplier = 1
; perimeters extrusion width = 0.52mm
; infill extrusion width = 0.52mm
; solid infill extrusion width = 0.52mm
; top infill extrusion width = 0.52mm
; support material extrusion width = 0.52mm
; first layer extrusion width = 0.60mm

G21 ; set units to millimeters
M107 ; disable fan
M190 S94 ; wait for bed temperature to be reached
M104 S230 ; set temperature
G28 ; home all axes
G1 Z5 F5000 ; lift nozzle
M109 S230 ; wait for temperature to be reached
G90 ; use absolute coordinates
G92 E0 ; reset extrusion distance
M82 ; use absolute distances for extrusion
G1 F1800.000 E-1.00000 ; retract
G92 E0 ; reset extrusion distance
G1 Z0.300 F7800.000 ; move to next layer (0)
G1 X128.978 Y89.290 ; move to first skirt point
G1 F1800.000 E1.00000 ; compensate retraction
G1 X129.238 Y88.970 F600.000 E1.02810 ; skirt
G1 X132.818 Y85.550 E1.36548 ; skirt
G1 X133.138 Y85.280 E1.39401 ; skirt
G1 X133.478 Y85.050 E1.42198 ; skirt
G1 X133.848 Y84.860 E1.45033 ; skirt
G1 X134.048 Y84.780 E1.46500 ; skirt
G1 X134.448 Y84.660 E1.49346 ; skirt
G1 X134.848 Y84.590 E1.52113 ; skirt
G1 X135.268 Y84.560 E1.54983 ; skirt
G1 X137.478 Y84.570 E1.70043 ; skirt
G1 X138.088 Y84.660 E1.74244 ; skirt
G1 X138.288 Y84.710 E1.75649 ; skirt
G1 X138.678 Y84.860 E1.78497 ; skirt
G1 X139.048 Y85.050 E1.81331 ; skirt
G1 X139.398 Y85.270 E1.84148 ; skirt
G1 X139.718 Y85.540 E1.87001 ; skirt
G1 X143.158 Y88.820 E2.19390 ; skirt
G1 X143.438 Y89.120 E2.22187 ; skirt
G1 X143.568 Y89.290 E2.23645 ; skirt
G1 X143.888 Y89.810 E2.27806 ; skirt
G1 X144.048 Y90.190 E2.30615 ; skirt
G1 X144.208 Y90.790 E2.34847 ; skirt
G1 X144.258 Y91.400 E2.39018 ; skirt
G1 X144.248 Y91.610 E2.40450 ; skirt
G1 X142.068 Y126.570 E4.79143 ; skirt
G1 X141.988 Y127.140 E4.83066 ; skirt
G1 X140.728 Y132.640 E5.21516 ; skirt
G1 X140.548 Y133.210 E5.25589 ; skirt
G1 X140.368 Y133.570 E5.28332 ; skirt
G1 X140.158 Y133.900 E5.30997 ; skirt
G1 X139.778 Y134.360 E5.35063 ; skirt
G1 X139.318 Y134.740 E5.39129 ; skirt
G1 X138.808 Y135.050 E5.43196 ; skirt
G1 X138.628 Y135.130 E5.44538 ; skirt
G1 X138.248 Y135.260 E5.47275 ; skirt
G1 X137.858 Y135.350 E5.50002 ; skirt
G1 X137.268 Y135.400 E5.54037 ; skirt
G1 X135.268 Y135.400 E5.67666 ; skirt
G1 X134.678 Y135.350 E5.71701 ; skirt
G1 X134.478 Y135.310 E5.73091 ; skirt
G1 X133.908 Y135.130 E5.77164 ; skirt
G1 X133.378 Y134.850 E5.81249 ; skirt
G1 X133.058 Y134.620 E5.83934 ; skirt
G1 X132.758 Y134.360 E5.86639 ; skirt
G1 X132.618 Y134.210 E5.88038 ; skirt
G1 X132.378 Y133.900 E5.90709 ; skirt
G1 X132.158 Y133.560 E5.93469 ; skirt
G1 X131.988 Y133.200 E5.96182 ; skirt
G1 X131.858 Y132.830 E5.98854 ; skirt
G1 X130.558 Y127.140 E6.38627 ; skirt
G1 X130.478 Y126.570 E6.42549 ; skirt
G1 X128.288 Y91.410 E8.82607 ; skirt
G1 X128.338 Y90.790 E8.86845 ; skirt
G1 X128.498 Y90.190 E8.91077 ; skirt
G1 X128.658 Y89.820 E8.93824 ; skirt
G1 X128.933 Y89.359 E8.97485 ; skirt
G1 F1800.000 E7.97485 ; retract
G92 E0 ; reset extrusion distance
G1 X131.843 Y91.390 F7800.000 ; move to first support material point
G1 F1800.000 E1.00000 ; compensate retraction
G1 X140.710 Y91.390 F704.547 E1.60419 ; support material
G1 X138.528 Y92.483 E1.77047 ; support material
G1 X134.025 Y92.483 E2.07733 ; support material
G1 X134.025 Y93.575 E2.15179 ; support material
G1 X138.528 Y93.575 E2.45865 ; support material
G1 X138.528 Y94.668 E2.53311 ; support material
G1 X134.025 Y94.668 E2.83997 ; support material
G1 X134.025 Y95.761 E2.91443 ; support material
G1 X138.528 Y95.761 E3.22129 ; support material
G1 X138.528 Y96.854 E3.29575 ; support material
G1 X134.025 Y96.854 E3.60262 ; support material
G1 X134.025 Y97.946 E3.67708 ; support material
G1 X138.528 Y97.946 E3.98394 ; support material
G1 X138.528 Y99.039 E4.05840 ; support material
G1 X134.025 Y99.039 E4.36526 ; support material
G1 X134.025 Y100.132 E4.43972 ; support material
G1 X138.528 Y100.132 E4.74658 ; support material
G1 X138.528 Y101.224 E4.82104 ; support material
G1 X134.025 Y101.224 E5.12790 ; support material
G1 X134.025 Y102.317 E5.20236 ; support material
G1 X138.528 Y102.317 E5.50922 ; support material
G1 X138.528 Y103.410 E5.58369 ; support material
G1 X134.025 Y103.410 E5.89055 ; support material
G1 X134.025 Y104.502 E5.96501 ; support material
G1 X138.528 Y104.502 E6.27187 ; support material
G1 X138.528 Y105.595 E6.34633 ; support material
G1 X134.025 Y105.595 E6.65319 ; support material
G1 X134.025 Y106.688 E6.72765 ; support material
G1 X138.528 Y106.688 E7.03451 ; support material
G1 X138.528 Y107.780 E7.10897 ; support material
G1 X134.025 Y107.780 E7.41583 ; support material
G1 X134.025 Y108.873 E7.49029 ; support material
G1 X138.528 Y108.873 E7.79716 ; support material
G1 X138.528 Y109.966 E7.87162 ; support material
G1 X134.025 Y109.966 E8.17848 ; support material
G1 X134.025 Y111.059 E8.25294 ; support material
G1 X138.528 Y111.059 E8.55980 ; support material
G1 X138.528 Y112.151 E8.63426 ; support material
G1 X134.025 Y112.151 E8.94112 ; support material
G1 X134.025 Y113.244 E9.01558 ; support material
G1 X138.528 Y113.244 E9.32244 ; support material
G1 X138.528 Y114.337 E9.39690 ; support material
G1 X134.025 Y114.337 E9.70376 ; support material
G1 X134.025 Y115.429 E9.77823 ; support material
G1 X138.528 Y115.429 E10.08509 ; support material
G1 X138.528 Y116.522 E10.15955 ; support material
G1 X134.025 Y116.522 E10.46641 ; support material
G1 X134.025 Y117.615 E10.54087 ; support material
G1 X138.528 Y117.615 E10.84773 ; support material
G1 X138.528 Y118.707 E10.92219 ; support material
G1 X134.025 Y118.707 E11.22905 ; support material
G1 X134.025 Y119.800 E11.30351 ; support material
G1 X138.528 Y119.800 E11.61037 ; support material
G1 X138.528 Y120.893 E11.68483 ; support material
G1 X134.025 Y120.893 E11.99170 ; support material
G1 X134.025 Y121.986 E12.06616 ; support material
G1 X138.528 Y121.986 E12.37302 ; support material
G1 X138.528 Y123.078 E12.44748 ; support material
G1 X134.025 Y123.078 E12.75434 ; support material
G1 X134.025 Y124.171 E12.82880 ; support material
G1 X138.528 Y124.171 E13.13566 ; support material
G1 X138.528 Y125.264 E13.21012 ; support material
G1 X134.025 Y125.264 E13.51698 ; support material
G1 X134.025 Y126.356 E13.59144 ; support material
G1 X138.528 Y126.356 E13.89831 ; support material
G1 F1800.000 E12.89831 ; retract
G92 E0 ; reset extrusion distance
G1 X135.277 Y127.486 F7800.000 ; move to first support material point
G1 F1800.000 E1.00000 ; compensate retraction
G1 X137.277 Y127.486 F704.547 E1.13629 ; support material
G1 X137.277 Y128.578 E1.21075 ; support material
G1 X135.277 Y128.578 E1.34704 ; support material
G1 X135.277 Y129.671 E1.42150 ; support material
G1 X137.277 Y129.671 E1.55778 ; support material
G1 X137.277 Y130.764 E1.63224 ; support material
G1 X135.277 Y130.764 E1.76853 ; support material
G1 X135.277 Y131.856 E1.84299 ; support material
G1 X137.277 Y131.856 E1.97928 ; support material
G1 F1800.000 E0.97928 ; retract
G92 E0 ; reset extrusion distance
G1 X135.277 Y90.297 F7800.000 ; move to first support material point
G1 F1800.000 E1.00000 ; compensate retraction
G1 X137.277 Y90.297 F704.547 E1.13630 ; support material
G1 X137.277 Y89.205 E1.21076 ; support material
G1 X135.277 Y89.205 E1.34706 ; support material
G1 X135.277 Y88.112 E1.42152 ; support material
G1 X137.277 Y88.112 E1.55782 ; support material
M106 S255 ; enable fan
G1 F1800.000 E0.55782 ; retract
G92 E0 ; reset extrusion distance
G1 Z0.500 F7800.000 ; move to next layer (1)
G1 X136.555 Y127.578 ; move to first perimeter point
G1 F1800.000 E1.00000 ; compensate retraction
G1 X136.555 Y131.135 F821.508 E1.14227 ; perimeter
G1 X135.998 Y131.135 E1.16455 ; perimeter
G1 X135.998 Y127.578 E1.30682 ; perimeter
G1 X136.483 Y127.578 E1.32621 ; perimeter
G1 X137.036 Y127.097 F7800.000 ; move to first perimeter point
G1 X137.036 Y131.616 F821.508 E1.50696 ; perimeter
G1 X135.517 Y131.616 E1.56772 ; perimeter
G1 X135.517 Y127.097 E1.74848 ; perimeter
G1 X136.964 Y127.097 E1.80635 ; perimeter
G1 X136.796 Y127.514 F7800.000 ; move inwards before travel
G1 F1800.000 E0.80635 ; retract
G92 E0 ; reset extrusion distance
G1 X137.325 Y125.154 F7800.000 ; move to first perimeter point
G1 F1800.000 E1.00000 ; compensate retraction
G1 X135.228 Y125.154 F1026.885 E1.08391 ; perimeter
G1 X135.228 Y92.559 E2.38770 ; perimeter
G1 X137.325 Y92.559 E2.47160 ; perimeter
G1 X137.325 Y125.082 E3.77250 ; perimeter
G1 X137.807 Y125.635 F7800.000 ; move to first perimeter point
G1 X134.747 Y125.635 F1026.885 E3.89490 ; perimeter
G1 X134.747 Y92.078 E5.23717 ; perimeter
G1 X135.998 Y92.078 E5.28723 ; perimeter
G1 X135.998 Y88.078 E5.44723 ; perimeter
G1 X136.555 Y88.078 E5.46950 ; perimeter
G1 X136.555 Y92.078 E5.62950 ; perimeter
G1 X137.807 Y92.078 E5.67956 ; perimeter
G1 X137.807 Y125.563 E7.01895 ; perimeter
G1 X138.288 Y126.116 F7800.000 ; move to first perimeter point
G1 X134.266 Y126.116 F718.820 E7.17982 ; perimeter
G1 X134.266 Y92.116 E8.53982 ; perimeter
G1 X132.084 Y92.116 E8.62709 ; perimeter
G1 X132.084 Y91.597 E8.64785 ; perimeter
G1 X135.517 Y91.597 E8.78518 ; perimeter
G1 X135.517 Y87.597 E8.94518 ; perimeter
G1 X137.036 Y87.597 E9.00594 ; perimeter
G1 X137.036 Y91.597 E9.16594 ; perimeter
G1 X140.469 Y91.597 E9.30327 ; perimeter
G1 X140.469 Y92.116 E9.32402 ; perimeter
G1 X138.288 Y92.116 E9.41130 ; perimeter
G1 X138.288 Y126.044 E10.76841 ; perimeter
G1 X137.871 Y125.875 F7800.000 ; move inwards before travel
G1 F1800.000 E9.76841 ; retract
G92 E0 ; reset extrusion distance
G1 X72.413 Y137.025 F7800.000 ; move to first perimeter point
G1 F1800.000 E1.00000 ; compensate retraction
G1 X72.250 Y120.590 F821.508 E1.65744 ; perimeter
G1 X71.556 Y120.684 F7800.000 ; move to first perimeter point
G1 X71.497 Y120.782 F821.508 E1.66200 ; perimeter
G1 X71.497 Y120.782 F7800.000 ; move to first perimeter point
G1 X71.453 Y120.817 F821.508 E1.66425 ; perimeter
G1 X71.356 Y120.694 F7800.000 ; move to first perimeter point
G1 X71.453 Y120.817 F821.508 E1.67053 ; perimeter
G1 X71.461 Y121.807 E1.71011 ; perimeter
G1 X71.461 Y121.807 F7800.000 ; move to first perimeter point
G1 X71.465 Y122.315 F821.508 E1.73044 ; perimeter
G1 X71.465 Y122.315 F7800.000 ; move to first perimeter point
G1 X71.467 Y122.569 F821.508 E1.74060 ; perimeter
G1 X71.467 Y122.569 F7800.000 ; move to first perimeter point
G1 X71.482 Y124.348 F821.508 E1.81176 ; perimeter
G1 X71.482 Y124.348 F7800.000 ; move to first perimeter point
G1 X71.550 Y132.865 F821.508 E2.15245 ; perimeter
G1 X71.678 Y132.990 E2.15959 ; perimeter
G1 X71.550 Y132.865 F7800.000 ; move to first perimeter point
G1 X71.425 Y132.992 F821.508 E2.16672 ; perimeter
G1 F1800.000 E1.16672 ; retract
G92 E0 ; reset extrusion distance
G1 X72.413 Y137.025 F7800.000 ; move to first perimeter point
G1 F1800.000 E1.00000 ; compensate retraction
G1 X72.426 Y138.315 F821.508 E1.05159 ; perimeter
G1 X72.426 Y138.315 F7800.000 ; move to first perimeter point
G1 X72.439 Y139.605 F821.508 E1.10319 ; perimeter
G1 X72.439 Y139.605 F7800.000 ; move to first perimeter point
G1 X72.441 Y139.863 F821.508 E1.11351 ; perimeter
G1 F1800.000 E0.11351 ; retract
G92 E0 ; reset extrusion distance
G1 X136.159 Y92.010 F7800.000 ; move to first perimeter point
G1 F1800.000 E1.00000 ; compensate retraction
G1 X136.277 Y91.828 F821.508 E1.00868 ; perimeter
G1 X136.277 Y91.885 F7800.000 ; move to first perimeter point
G1 X136.379 Y91.981 F821.508 E1.01430 ; perimeter
G1 X136.379 Y91.981 F7800.000 ; move to first perimeter point
G1 X136.394 Y92.010 F821.508 E1.01560 ; perimeter
G1 X136.394 Y91.703 F7800.000 ; move to first perimeter point
G1 X136.277 Y91.828 F821.508 E1.02247 ; perimeter
G1 X136.174 Y91.731 E1.02809 ; perimeter
G1 X136.174 Y91.731 F7800.000 ; move to first perimeter point
G1 X136.159 Y91.703 F821.508 E1.02939 ; perimeter
G1 X135.830 Y92.908 F7800.000 ; move to first fill point
M106 S255 ; enable fan
G1 X135.576 Y93.161 F3600.000 E1.04374 ; fill
G1 X135.576 Y93.550 E1.05929 ; fill
G1 X136.219 Y92.908 E1.09563 ; fill
G1 X136.608 Y92.908 E1.11118 ; fill
G1 X135.576 Y93.939 E1.16951 ; fill
G1 X135.576 Y94.328 E1.18506 ; fill
G1 X136.977 Y92.927 E1.26428 ; fill
G1 X136.977 Y93.316 E1.27983 ; fill
G1 X135.576 Y94.716 E1.35904 ; fill
G1 X135.576 Y95.105 E1.37459 ; fill
G1 X136.977 Y93.705 E1.45381 ; fill
G1 X136.977 Y94.093 E1.46936 ; fill
G1 X135.576 Y95.494 E1.54858 ; fill
G1 X135.576 Y95.883 E1.56413 ; fill
G1 X136.977 Y94.482 E1.64334 ; fill
G1 X136.977 Y94.871 E1.65889 ; fill
G1 X135.576 Y96.271 E1.73811 ; fill
G1 X135.576 Y96.660 E1.75366 ; fill
G1 X136.977 Y95.260 E1.83288 ; fill
G1 X136.977 Y95.648 E1.84843 ; fill
G1 X135.576 Y97.049 E1.92765 ; fill
G1 X135.576 Y97.438 E1.94320 ; fill
G1 X136.977 Y96.037 E2.02241 ; fill
G1 X136.977 Y96.426 E2.03796 ; fill
G1 X135.576 Y97.826 E2.11718 ; fill
G1 X135.576 Y98.215 E2.13273 ; fill
G1 X136.977 Y96.815 E2.21195 ; fill
G1 X136.977 Y97.203 E2.22750 ; fill
G1 X135.576 Y98.604 E2.30671 ; fill
G1 X135.576 Y98.993 E2.32226 ; fill
G1 X136.977 Y97.592 E2.40148 ; fill
G1 X136.977 Y97.981 E2.41703 ; fill
G1 X135.576 Y99.381 E2.49625 ; fill
G1 X135.576 Y99.770 E2.51180 ; fill
G1 X136.977 Y98.370 E2.59102 ; fill
G1 X136.977 Y98.758 E2.60657 ; fill
G1 X135.576 Y100.159 E2.68578 ; fill
G1 X135.576 Y100.548 E2.70133 ; fill
G1 X136.977 Y99.147 E2.78055 ; fill
G1 X136.977 Y99.536 E2.79610 ; fill
G1 X135.576 Y100.936 E2.87532 ; fill
G1 X135.576 Y101.325 E2.89087 ; fill
G1 X136.977 Y99.925 E2.97008 ; fill
G1 X136.977 Y100.314 E2.98563 ; fill
G1 X135.576 Y101.714 E3.06485 ; fill
G1 X135.576 Y102.103 E3.08040 ; fill
G1 X136.977 Y100.702 E3.15962 ; fill
G1 X136.977 Y101.091 E3.17517 ; fill
G1 X135.576 Y102.491 E3.25438 ; fill
G1 X135.576 Y102.880 E3.26993 ; fill
G1 X136.977 Y101.480 E3.34915 ; fill
G1 X136.977 Y101.869 E3.36470 ; fill
G1 X135.576 Y103.269 E3.44392 ; fill
G1 X135.576 Y103.658 E3.45947 ; fill
G1 X136.977 Y102.257 E3.53869 ; fill
G1 X136.977 Y102.646 E3.55424 ; fill
G1 X135.576 Y104.046 E3.63345 ; fill
G1 X135.576 Y104.435 E3.64900 ; fill
G1 X136.977 Y103.035 E3.72822 ; fill
G1 X136.977 Y103.424 E3.74377 ; fill
G1 X135.576 Y104.824 E3.82299 ; fill
G1 X135.576 Y105.213 E3.83854 ; fill
G1 X136.977 Y103.812 E3.91775 ; fill
G1 X136.977 Y104.201 E3.93330 ; fill
G1 X135.576 Y105.601 E4.01252 ; fill
G1 X135.576 Y105.990 E4.02807 ; fill
G1 X136.977 Y104.590 E4.10729 ; fill
G1 X136.977 Y104.979 E4.12284 ; fill
G1 X135.576 Y106.379 E4.20206 ; fill
G1 X135.576 Y106.768 E4.21761 ; fill
G1 X136.977 Y105.367 E4.29682 ; fill
G1 X136.977 Y105.756 E4.31237 ; fill
G1 X135.576 Y107.156 E4.39159 ; fill
G1 X135.576 Y107.545 E4.40714 ; fill
G1 X136.977 Y106.145 E4.48636 ; fill
G1 X136.977 Y106.534 E4.50191 ; fill
G1 X135.576 Y107.934 E4.58112 ; fill
G1 X135.576 Y108.323 E4.59667 ; fill
G1 X136.977 Y106.922 E4.67589 ; fill
G1 X136.977 Y107.311 E4.69144 ; fill
G1 X135.576 Y108.711 E4.77066 ; fill
G1 X135.576 Y109.100 E4.78621 ; fill
G1 X136.977 Y107.700 E4.86543 ; fill
G1 X136.977 Y108.089 E4.88098 ; fill
G1 X135.576 Y109.489 E4.96019 ; fill
G1 X135.576 Y109.878 E4.97574 ; fill
G1 X136.977 Y108.477 E5.05496 ; fill
G1 X136.977 Y108.866 E5.07051 ; fill
G1 X135.576 Y110.266 E5.14973 ; fill
G1 X135.576 Y110.655 E5.16528 ; fill
G1 X136.977 Y109.255 E5.24449 ; fill
G1 X136.977 Y109.644 E5.26004 ; fill
G1 X135.576 Y111.044 E5.33926 ; fill
G1 X135.576 Y111.433 E5.35481 ; fill
G1 X136.977 Y110.032 E5.43403 ; fill
G1 X136.977 Y110.421 E5.44958 ; fill
G1 X135.576 Y111.821 E5.52880 ; fill
G1 X135.576 Y112.210 E5.54435 ; fill
G1 X136.977 Y110.810 E5.62356 ; fill
G1 X136.977 Y111.199 E5.63911 ; fill
G1 X135.576 Y112.599 E5.71833 ; fill
G1 X135.576 Y112.988 E5.73388 ; fill
G1 X136.977 Y111.587 E5.81310 ; fill
G1 X136.977 Y111.976 E5.82865 ; fill
