; generated by Slic3r 0.9.9 on 2014-01-31 at 16:20:13

; layer_height = 0.2
; perimeters = 3
; top_solid_layers = 3
; bottom_solid_layers = 3
; fill_density = 0.15
; perimeter_speed = 45
; infill_speed = 60
; travel_speed = 130
; nozzle_diameter = 0.35
; filament_diameter = 1.75
; extrusion_multiplier = 1
; perimeters extrusion width = 0.52mm
; infill extrusion width = 0.52mm
; solid infill extrusion width = 0.52mm
; top infill extrusion width = 0.52mm
; support material extrusion width = 0.52mm
; first layer extrusion width = 0.60mm

G21 ; set units to millimeters
M107 ; disable fan
M190 S94 ; wait for bed temperature to be reached
M104 S225 ; set temperature
G28 ; home all axes
G1 Z5 F5000 ; lift nozzle
M109 S225 ; wait for temperature to be reached
G90 ; use absolute coordinates
G92 E0 ; reset extrusion distance
M82 ; use absolute distances for extrusion
G1 F1800.000 E-1.00000 ; retract
G92 E0 ; reset extrusion distance
G1 Z0.300 F7800.000 ; move to next layer (0)
G1 X35.382 Y82.140 ; move to first skirt point
G1 F1800.000 E1.00000 ; compensate retraction
G1 X35.592 Y82.050 F810.000 E1.01557 ; skirt
G1 X36.012 Y81.910 E1.04574 ; skirt
G1 X36.452 Y81.830 E1.07621 ; skirt
G1 X36.892 Y81.800 E1.10627 ; skirt
G1 X78.952 Y81.800 E3.97239 ; skirt
G1 X79.392 Y81.830 E4.00244 ; skirt
G1 X79.832 Y81.910 E4.03292 ; skirt
G1 X80.252 Y82.050 E4.06309 ; skirt
G1 X80.462 Y82.140 E4.07866 ; skirt
G1 X82.912 Y83.290 E4.26308 ; skirt
G1 X83.122 Y83.410 E4.27957 ; skirt
G1 X84.902 Y84.650 E4.42739 ; skirt
G1 X87.962 Y86.830 E4.68342 ; skirt
G1 X88.412 Y87.210 E4.72355 ; skirt
G1 X89.642 Y88.450 E4.84257 ; skirt
G1 X91.602 Y90.630 E5.04234 ; skirt
G1 X92.702 Y91.880 E5.15580 ; skirt
G1 X92.812 Y92.030 E5.16848 ; skirt
G1 X93.092 Y92.490 E5.20517 ; skirt
G1 X95.302 Y96.870 E5.53948 ; skirt
G1 X95.462 Y97.240 E5.56695 ; skirt
G1 X95.582 Y97.630 E5.59476 ; skirt
G1 X95.622 Y97.830 E5.60866 ; skirt
G1 X95.822 Y98.920 E5.68418 ; skirt
G1 X96.362 Y102.270 E5.91540 ; skirt
G1 X96.402 Y102.580 E5.93670 ; skirt
G1 X96.412 Y102.880 E5.95716 ; skirt
G1 X93.852 Y142.890 E8.68916 ; skirt
G1 X93.792 Y143.350 E8.72077 ; skirt
G1 X93.672 Y143.800 E8.75251 ; skirt
G1 X93.592 Y144.020 E8.76846 ; skirt
G1 X93.382 Y144.440 E8.80046 ; skirt
G1 X92.532 Y145.720 E8.90517 ; skirt
G1 X90.562 Y148.230 E9.12260 ; skirt
G1 X89.492 Y149.480 E9.23472 ; skirt
G1 X87.342 Y151.730 E9.44679 ; skirt
G1 X85.132 Y153.920 E9.65881 ; skirt
G1 X83.752 Y155.210 E9.78753 ; skirt
G1 X80.922 Y157.550 E10.03776 ; skirt
G1 X79.392 Y158.650 E10.16617 ; skirt
G1 X77.502 Y159.890 E10.32021 ; skirt
G1 X75.602 Y161.050 E10.47191 ; skirt
G1 X73.632 Y162.150 E10.62566 ; skirt
G1 X73.292 Y162.310 E10.65126 ; skirt
G1 X70.462 Y163.510 E10.86073 ; skirt
G1 X67.142 Y164.600 E11.09885 ; skirt
G1 X66.702 Y164.710 E11.12976 ; skirt
G1 X66.252 Y164.770 E11.16069 ; skirt
G1 X44.242 Y164.780 E12.66054 ; skirt
G1 X43.792 Y164.750 E12.69127 ; skirt
G1 X43.132 Y164.600 E12.73739 ; skirt
G1 X39.812 Y163.510 E12.97551 ; skirt
G1 X36.982 Y162.310 E13.18498 ; skirt
G1 X36.652 Y162.150 E13.20997 ; skirt
G1 X34.672 Y161.050 E13.36432 ; skirt
G1 X32.662 Y159.820 E13.52489 ; skirt
G1 X30.882 Y158.650 E13.67005 ; skirt
G1 X29.352 Y157.550 E13.79846 ; skirt
G1 X26.522 Y155.210 E14.04869 ; skirt
G1 X25.142 Y153.920 E14.17742 ; skirt
G1 X22.862 Y151.660 E14.39618 ; skirt
G1 X20.782 Y149.480 E14.60150 ; skirt
G1 X19.712 Y148.230 E14.71363 ; skirt
G1 X17.912 Y145.950 E14.91158 ; skirt
G1 X17.012 Y144.630 E15.02044 ; skirt
G1 X16.802 Y144.260 E15.04944 ; skirt
G1 X16.632 Y143.870 E15.07843 ; skirt
G1 X16.502 Y143.460 E15.10774 ; skirt
G1 X16.432 Y143.040 E15.13675 ; skirt
G1 X16.412 Y142.610 E15.16608 ; skirt
G1 X16.422 Y142.390 E15.18109 ; skirt
G1 X19.432 Y102.570 E17.90232 ; skirt
G1 X20.012 Y98.980 E18.15012 ; skirt
G1 X20.302 Y97.450 E18.25624 ; skirt
G1 X20.542 Y96.860 E18.29964 ; skirt
G1 X22.822 Y92.340 E18.64462 ; skirt
G1 X23.022 Y92.030 E18.66976 ; skirt
G1 X24.232 Y90.630 E18.79586 ; skirt
G1 X26.332 Y88.300 E19.00960 ; skirt
G1 X27.442 Y87.200 E19.11609 ; skirt
G1 X27.882 Y86.830 E19.15527 ; skirt
G1 X32.612 Y83.480 E19.55024 ; skirt
G1 X32.932 Y83.290 E19.57560 ; skirt
G1 X35.307 Y82.175 E19.75444 ; skirt
G1 F1800.000 E18.75444 ; retract
G92 E0 ; reset extrusion distance
G1 X53.222 Y130.614 F7800.000 ; move to first brim point
G1 F1800.000 E1.00000 ; compensate retraction
G1 X56.358 Y130.614 F810.000 E1.21371 ; brim
G1 X56.838 Y131.094 E1.25997 ; brim
G1 X56.838 Y131.707 E1.30172 ; brim
G1 X57.570 Y131.707 E1.35160 ; brim
G1 X58.050 Y132.187 E1.39787 ; brim
G1 X58.050 Y132.799 E1.43961 ; brim
G1 X58.695 Y132.799 E1.48357 ; brim
G1 X59.139 Y133.737 E1.55426 ; brim
G1 X59.012 Y133.892 E1.56792 ; brim
G1 X59.856 Y133.892 E1.62546 ; brim
G1 X60.310 Y134.795 E1.69430 ; brim
G1 X60.169 Y134.985 E1.71044 ; brim
G1 X61.206 Y134.985 E1.78112 ; brim
G1 X61.686 Y135.465 E1.82738 ; brim
G1 X61.686 Y136.170 E1.87542 ; brim
G1 X61.730 Y136.187 E1.87860 ; brim
G1 X66.457 Y140.448 E2.31233 ; brim
G1 X66.957 Y140.448 E2.34640 ; brim
G1 X67.437 Y140.928 E2.39267 ; brim
G1 X67.437 Y141.541 E2.43442 ; brim
G1 X69.585 Y141.541 E2.58076 ; brim
G1 X69.585 Y140.928 E2.62251 ; brim
G1 X70.065 Y140.448 E2.66877 ; brim
G1 X72.878 Y140.448 E2.86042 ; brim
G1 X73.358 Y140.928 E2.90668 ; brim
G1 X73.358 Y142.207 E2.99383 ; brim
G1 X72.878 Y142.687 E3.04010 ; brim
G1 X72.738 Y142.687 E3.04959 ; brim
G1 X72.913 Y143.790 E3.12567 ; brim
G1 X76.408 Y145.324 E3.38574 ; brim
G1 X76.674 Y145.841 E3.42538 ; brim
G1 X76.659 Y145.912 E3.43028 ; brim
G1 X79.040 Y145.912 E3.59249 ; brim
G1 X79.040 Y145.299 E3.63424 ; brim
G1 X79.520 Y144.819 E3.68051 ; brim
G1 X83.158 Y144.819 E3.92843 ; brim
G1 X83.145 Y144.757 E3.93273 ; brim
G1 X83.407 Y144.240 E3.97225 ; brim
G1 X86.914 Y142.670 E4.23405 ; brim
G1 X87.083 Y142.634 E4.24585 ; brim
G1 X87.839 Y142.634 E4.29739 ; brim
G1 X87.684 Y142.295 E4.32280 ; brim
G1 X88.168 Y141.541 E4.38383 ; brim
G1 X91.553 Y141.541 E4.61449 ; brim
G1 X92.033 Y142.021 E4.66075 ; brim
G1 X92.033 Y143.300 E4.74790 ; brim
G1 X91.553 Y143.780 E4.79417 ; brim
G1 X90.827 Y143.780 E4.84360 ; brim
G1 X90.983 Y144.119 E4.86901 ; brim
G1 X90.499 Y144.873 E4.93004 ; brim
G1 X90.128 Y144.873 E4.95528 ; brim
G1 X88.641 Y146.769 E5.11950 ; brim
G1 X88.641 Y147.671 E5.18095 ; brim
G1 X88.161 Y148.151 E5.22721 ; brim
G1 X87.403 Y148.151 E5.27888 ; brim
G1 X85.467 Y150.193 E5.47063 ; brim
G1 X85.467 Y150.949 E5.52214 ; brim
G1 X84.987 Y151.429 E5.56840 ; brim
G1 X84.247 Y151.429 E5.61882 ; brim
G1 X82.040 Y153.499 E5.82503 ; brim
G1 X81.965 Y153.529 E5.83052 ; brim
G1 X81.973 Y153.551 E5.83208 ; brim
G1 X79.380 Y155.702 E6.06168 ; brim
G1 X79.111 Y155.800 E6.08122 ; brim
G1 X78.874 Y155.800 E6.09737 ; brim
G1 X78.731 Y156.191 E6.12575 ; brim
G1 X76.107 Y157.916 E6.33977 ; brim
G1 X75.877 Y157.985 E6.35612 ; brim
G1 X75.486 Y157.985 E6.38276 ; brim
G1 X75.279 Y158.466 E6.41843 ; brim
G1 X72.285 Y160.119 E6.65147 ; brim
G1 X72.084 Y160.171 E6.66563 ; brim
G1 X70.981 Y160.171 E6.74073 ; brim
G1 X70.825 Y160.899 E6.79149 ; brim
G1 X70.375 Y161.263 E6.83099 ; brim
G1 X67.754 Y161.263 E7.00955 ; brim
G1 X67.754 Y161.876 E7.05129 ; brim
G1 X67.274 Y162.356 E7.09756 ; brim
G1 X65.043 Y162.356 E7.24960 ; brim
G1 X64.570 Y161.538 E7.31403 ; brim
G1 X65.629 Y159.696 E7.45878 ; brim
G1 X65.538 Y159.655 E7.46556 ; brim
G1 X65.276 Y159.138 E7.50506 ; brim
G1 X65.456 Y158.296 E7.56377 ; brim
G1 X65.483 Y158.275 E7.56607 ; brim
G1 X64.389 Y156.892 E7.68618 ; brim
G1 X58.983 Y156.892 E8.05458 ; brim
G1 X58.983 Y157.505 E8.09633 ; brim
G1 X58.581 Y157.906 E8.13501 ; brim
G1 X58.581 Y158.598 E8.18212 ; brim
G1 X58.101 Y159.078 E8.22838 ; brim
G1 X55.783 Y159.078 E8.38638 ; brim
G1 X55.448 Y158.764 E8.41764 ; brim
G1 X55.134 Y159.078 E8.44787 ; brim
G1 X52.954 Y159.078 E8.59646 ; brim
G1 X52.531 Y158.783 E8.63159 ; brim
G1 X51.837 Y156.892 E8.76882 ; brim
G1 X45.894 Y156.892 E9.17379 ; brim
G1 X44.434 Y158.737 E9.33408 ; brim
G1 X44.765 Y160.117 E9.43078 ; brim
G1 X45.488 Y160.117 E9.48005 ; brim
G1 X45.968 Y160.597 E9.52631 ; brim
G1 X45.968 Y161.876 E9.61346 ; brim
G1 X45.488 Y162.356 E9.65973 ; brim
G1 X44.135 Y162.356 E9.75194 ; brim
G1 X44.006 Y162.335 E9.76084 ; brim
G1 X39.560 Y160.873 E10.07975 ; brim
G1 X39.246 Y160.357 E10.12090 ; brim
G1 X39.276 Y160.171 E10.13380 ; brim
G1 X38.199 Y160.171 E10.20717 ; brim
G1 X37.998 Y160.119 E10.22134 ; brim
G1 X35.004 Y158.466 E10.45437 ; brim
G1 X34.797 Y157.985 E10.49004 ; brim
G1 X33.376 Y157.985 E10.58685 ; brim
G1 X32.896 Y157.505 E10.63311 ; brim
G1 X32.896 Y156.892 E10.67486 ; brim
G1 X32.729 Y156.892 E10.68623 ; brim
G1 X32.485 Y156.814 E10.70369 ; brim
G1 X30.021 Y155.054 E10.91003 ; brim
G1 X29.906 Y154.707 E10.93496 ; brim
G1 X29.853 Y154.707 E10.93858 ; brim
G1 X29.581 Y154.608 E10.95830 ; brim
G1 X27.019 Y152.453 E11.18644 ; brim
G1 X27.044 Y152.384 E11.19146 ; brim
G1 X24.968 Y150.336 E11.39016 ; brim
G1 X24.193 Y150.336 E11.44295 ; brim
G1 X23.713 Y149.856 E11.48921 ; brim
G1 X23.713 Y149.244 E11.53096 ; brim
G1 X23.157 Y149.244 E11.56883 ; brim
G1 X22.677 Y148.763 E11.61510 ; brim
G1 X22.677 Y147.952 E11.67042 ; brim
G1 X20.791 Y145.778 E11.86654 ; brim
G1 X20.818 Y145.719 E11.87093 ; brim
G1 X19.297 Y143.780 E12.03885 ; brim
G1 X18.730 Y143.780 E12.07752 ; brim
G1 X18.250 Y143.300 E12.12378 ; brim
G1 X18.250 Y142.021 E12.21093 ; brim
G1 X18.730 Y141.541 E12.25720 ; brim
G1 X21.392 Y141.541 E12.43857 ; brim
G1 X21.604 Y141.599 E12.45356 ; brim
G1 X24.448 Y143.280 E12.67871 ; brim
G1 X24.629 Y143.726 E12.71155 ; brim
G1 X25.583 Y143.726 E12.77652 ; brim
G1 X25.690 Y143.741 E12.78391 ; brim
G1 X30.877 Y145.144 E13.15005 ; brim
G1 X31.218 Y145.657 E13.19204 ; brim
G1 X31.184 Y145.912 E13.20952 ; brim
G1 X33.541 Y145.912 E13.37008 ; brim
G1 X33.541 Y145.299 E13.41183 ; brim
G1 X34.021 Y144.819 E13.45809 ; brim
G1 X36.404 Y144.819 E13.62052 ; brim
G1 X37.256 Y143.593 E13.72224 ; brim
G1 X36.963 Y143.300 E13.75052 ; brim
G1 X36.963 Y142.245 E13.82242 ; brim
G1 X36.925 Y142.207 E13.82605 ; brim
G1 X36.925 Y140.928 E13.91320 ; brim
G1 X37.405 Y140.448 E13.95946 ; brim
G1 X40.218 Y140.448 E14.15111 ; brim
G1 X40.698 Y140.928 E14.19737 ; brim
G1 X40.698 Y141.541 E14.23912 ; brim
G1 X42.865 Y141.541 E14.38682 ; brim
G1 X45.325 Y139.456 E14.60655 ; brim
G1 X45.506 Y139.389 E14.61967 ; brim
G1 X45.473 Y139.303 E14.62596 ; brim
G1 X45.682 Y138.590 E14.67658 ; brim
G1 X46.119 Y138.263 E14.71378 ; brim
G1 X46.636 Y138.263 E14.74902 ; brim
G1 X48.940 Y136.186 E14.96037 ; brim
G1 X48.984 Y136.170 E14.96357 ; brim
G1 X48.984 Y135.465 E15.01160 ; brim
G1 X49.464 Y134.985 E15.05786 ; brim
G1 X50.372 Y134.985 E15.11975 ; brim
G1 X50.268 Y134.871 E15.13024 ; brim
G1 X50.698 Y133.892 E15.20313 ; brim
G1 X51.615 Y133.892 E15.26559 ; brim
G1 X51.501 Y133.762 E15.27737 ; brim
G1 X51.937 Y132.799 E15.34939 ; brim
G1 X52.621 Y132.799 E15.39598 ; brim
G1 X52.621 Y132.187 E15.43773 ; brim
G1 X52.742 Y132.066 E15.44937 ; brim
G1 X52.742 Y131.094 E15.51560 ; brim
G1 X53.164 Y130.672 E15.55628 ; brim
G1 F1800.000 E14.55628 ; retract
G92 E0 ; reset extrusion distance
G1 X59.256 Y150.336 F7800.000 ; move to first brim point
G1 F1800.000 E1.00000 ; compensate retraction
G1 X60.598 Y150.336 F810.000 E1.09142 ; brim
G1 X60.793 Y150.288 E1.10510 ; brim
G1 X63.880 Y148.651 E1.34322 ; brim
G1 X64.104 Y148.151 E1.38058 ; brim
G1 X65.316 Y148.151 E1.46317 ; brim
G1 X65.796 Y147.671 E1.50943 ; brim
G1 X65.796 Y147.058 E1.55118 ; brim
G1 X66.035 Y147.058 E1.56745 ; brim
G1 X66.035 Y147.562 E1.60180 ; brim
G1 X64.429 Y149.252 E1.76063 ; brim
G1 X64.351 Y149.279 E1.76626 ; brim
G1 X62.045 Y151.075 E1.96545 ; brim
G1 X61.955 Y151.375 E1.98680 ; brim
G1 X61.581 Y151.375 E2.01235 ; brim
G1 X61.418 Y151.409 E2.02367 ; brim
G1 X57.786 Y152.962 E2.29283 ; brim
G1 X57.515 Y153.479 E2.33261 ; brim
G1 X57.532 Y153.561 E2.33831 ; brim
G1 X50.659 Y153.561 E2.80665 ; brim
G1 X50.659 Y152.948 E2.84839 ; brim
G1 X50.179 Y152.468 E2.89466 ; brim
G1 X49.396 Y152.468 E2.94799 ; brim
G1 X49.848 Y151.429 E3.02520 ; brim
G1 X58.776 Y151.429 E3.63359 ; brim
G1 X59.256 Y150.949 E3.67986 ; brim
G1 X59.256 Y150.418 E3.71602 ; brim
G1 F1800.000 E2.71602 ; retract
G92 E0 ; reset extrusion distance
G1 X57.294 Y141.541 F7800.000 ; move to first brim point
G1 F1800.000 E1.00000 ; compensate retraction
G1 X53.209 Y141.541 F810.000 E1.27832 ; brim
G1 X52.729 Y142.021 E1.32458 ; brim
G1 X52.729 Y142.634 E1.36633 ; brim
G1 X48.427 Y142.634 E1.65950 ; brim
G1 X49.200 Y141.595 E1.74776 ; brim
G1 X49.720 Y141.595 E1.78316 ; brim
G1 X50.157 Y141.267 E1.82036 ; brim
G1 X50.365 Y140.554 E1.87098 ; brim
G1 X50.346 Y140.502 E1.87479 ; brim
G1 X51.733 Y140.502 E1.96936 ; brim
G1 X52.213 Y140.022 E2.01562 ; brim
G1 X52.213 Y139.409 E2.05737 ; brim
G1 X55.086 Y139.409 E2.25314 ; brim
G1 X55.566 Y138.929 E2.29940 ; brim
G1 X55.566 Y138.317 E2.34115 ; brim
G1 X57.905 Y138.317 E2.50050 ; brim
G1 X59.668 Y139.769 E2.65613 ; brim
G1 X57.464 Y141.109 E2.83190 ; brim
G1 X57.324 Y141.465 E2.85794 ; brim
G1 F1800.000 E1.85794 ; retract
G92 E0 ; reset extrusion distance
G1 X55.469 Y136.077 F7800.000 ; move to first brim point
G1 F1800.000 E1.00000 ; compensate retraction
G1 X55.302 Y136.077 F810.000 E1.01142 ; brim
G1 X55.384 Y135.897 E1.02496 ; brim
G1 X55.434 Y136.003 E1.03301 ; brim
G1 F1800.000 E0.03301 ; retract
G92 E0 ; reset extrusion distance
G1 X54.362 Y124.722 F7800.000 ; move to first brim point
G1 F1800.000 E1.00000 ; compensate retraction
G1 X52.744 Y124.722 F810.000 E1.11025 ; brim
G1 X52.264 Y124.242 E1.15651 ; brim
G1 X52.264 Y122.963 E1.24366 ; brim
G1 X52.624 Y122.603 E1.27839 ; brim
G1 X52.376 Y121.444 E1.35915 ; brim
G1 X52.041 Y121.444 E1.38194 ; brim
G1 X51.561 Y120.964 E1.42820 ; brim
G1 X51.561 Y119.685 E1.51535 ; brim
G1 X51.921 Y119.325 E1.55007 ; brim
G1 X50.268 Y111.610 E2.08774 ; brim
G1 X47.044 Y111.610 E2.30741 ; brim
G1 X47.053 Y111.648 E2.31008 ; brim
G1 X46.800 Y112.165 E2.34928 ; brim
G1 X43.431 Y113.756 E2.60316 ; brim
G1 X43.254 Y113.795 E2.61553 ; brim
G1 X43.161 Y113.795 E2.62187 ; brim
G1 X41.679 Y115.661 E2.78420 ; brim
G1 X40.998 Y117.503 E2.91804 ; brim
G1 X41.027 Y117.534 E2.92100 ; brim
G1 X40.912 Y119.522 E3.05669 ; brim
G1 X40.988 Y119.586 E3.06351 ; brim
G1 X41.316 Y121.391 E3.18848 ; brim
G1 X41.861 Y121.391 E3.22563 ; brim
G1 X42.341 Y121.871 E3.27189 ; brim
G1 X42.341 Y123.150 E3.35904 ; brim
G1 X41.861 Y123.630 E3.40531 ; brim
G1 X39.898 Y123.630 E3.53904 ; brim
G1 X39.723 Y123.591 E3.55130 ; brim
G1 X36.326 Y122.004 E3.80674 ; brim
G1 X36.072 Y121.487 E3.84600 ; brim
G1 X36.081 Y121.444 E3.84900 ; brim
G1 X35.183 Y121.444 E3.91023 ; brim
G1 X34.969 Y121.385 E3.92534 ; brim
G1 X32.144 Y119.701 E4.14949 ; brim
G1 X31.966 Y119.259 E4.18196 ; brim
G1 X31.788 Y119.259 E4.19406 ; brim
G1 X31.544 Y119.181 E4.21151 ; brim
G1 X29.079 Y117.421 E4.41792 ; brim
G1 X28.964 Y117.074 E4.44288 ; brim
G1 X28.877 Y117.074 E4.44875 ; brim
G1 X28.559 Y116.931 E4.47252 ; brim
G1 X24.604 Y112.528 E4.87587 ; brim
G1 X24.688 Y112.339 E4.88996 ; brim
G1 X22.477 Y107.966 E5.22386 ; brim
G1 X22.547 Y107.852 E5.23296 ; brim
G1 X21.831 Y103.473 E5.53536 ; brim
G1 X21.755 Y103.383 E5.54334 ; brim
G1 X22.457 Y99.092 E5.83965 ; brim
G1 X22.284 Y98.810 E5.86223 ; brim
G1 X24.430 Y94.563 E6.18649 ; brim
G1 X24.291 Y94.256 E6.20943 ; brim
G1 X26.243 Y92.034 E6.41102 ; brim
G1 X28.214 Y89.845 E6.61175 ; brim
G1 X28.408 Y89.758 E6.62617 ; brim
G1 X28.542 Y89.355 E6.65514 ; brim
G1 X31.007 Y87.595 E6.86155 ; brim
G1 X31.251 Y87.517 E6.87900 ; brim
G1 X31.484 Y87.517 E6.89491 ; brim
G1 X31.603 Y87.163 E6.92036 ; brim
G1 X34.091 Y85.408 E7.12780 ; brim
G1 X34.333 Y85.332 E7.14509 ; brim
G1 X35.737 Y85.332 E7.24075 ; brim
G1 X35.625 Y84.862 E7.27362 ; brim
G1 X36.117 Y84.239 E7.32775 ; brim
G1 X39.108 Y84.239 E7.53157 ; brim
G1 X39.588 Y84.719 E7.57783 ; brim
G1 X39.588 Y85.998 E7.66498 ; brim
G1 X39.108 Y86.478 E7.71125 ; brim
G1 X38.312 Y86.478 E7.76545 ; brim
G1 X38.424 Y86.947 E7.79831 ; brim
G1 X37.932 Y87.571 E7.85245 ; brim
