; generated by Slic3r 0.9.9 on 2014-01-30 at 09:51:27

; layer_height = 0.2
; perimeters = 3
; top_solid_layers = 3
; bottom_solid_layers = 3
; fill_density = 0.15
; perimeter_speed = 45
; infill_speed = 60
; travel_speed = 130
; nozzle_diameter = 0.35
; filament_diameter = 1.75
; extrusion_multiplier = 1
; perimeters extrusion width = 0.52mm
; infill extrusion width = 0.52mm
; solid infill extrusion width = 0.52mm
; top infill extrusion width = 0.52mm
; support material extrusion width = 0.52mm
; first layer extrusion width = 0.60mm

G21 ; set units to millimeters
M107 ; disable fan
M190 S94 ; wait for bed temperature to be reached
M104 S225 ; set temperature
G28 ; home all axes
G1 Z5 F5000 ; lift nozzle
M109 S225 ; wait for temperature to be reached
G90 ; use absolute coordinates
G92 E0 ; reset extrusion distance
M82 ; use absolute distances for extrusion
G1 F1800.000 E-1.00000 ; retract
G92 E0 ; reset extrusion distance
G1 Z0.300 F7800.000 ; move to next layer (0)
G1 X34.650 Y76.060 ; move to first skirt point
G1 F1800.000 E1.00000 ; compensate retraction
G1 X36.980 Y74.960 F810.000 E1.17558 ; skirt
G1 X39.760 Y73.730 E1.38273 ; skirt
G1 X40.030 Y73.650 E1.40192 ; skirt
G1 X45.040 Y72.540 E1.75160 ; skirt
G1 X45.350 Y72.480 E1.77312 ; skirt
G1 X45.810 Y72.450 E1.80453 ; skirt
G1 X152.180 Y72.450 E9.05298 ; skirt
G1 X152.640 Y72.480 E9.08439 ; skirt
G1 X152.950 Y72.540 E9.10591 ; skirt
G1 X157.960 Y73.650 E9.45559 ; skirt
G1 X158.360 Y73.780 E9.48425 ; skirt
G1 X161.010 Y74.960 E9.68192 ; skirt
G1 X163.460 Y76.120 E9.86664 ; skirt
G1 X163.910 Y76.400 E9.90276 ; skirt
G1 X166.920 Y78.570 E10.15562 ; skirt
G1 X168.430 Y79.800 E10.28833 ; skirt
G1 X168.820 Y80.170 E10.32496 ; skirt
G1 X171.920 Y83.620 E10.64102 ; skirt
G1 X172.290 Y84.180 E10.68676 ; skirt
G1 X172.470 Y84.590 E10.71728 ; skirt
G1 X172.600 Y85.020 E10.74789 ; skirt
G1 X172.640 Y85.240 E10.76312 ; skirt
G1 X172.780 Y86.570 E10.85426 ; skirt
G1 X172.800 Y86.920 E10.87815 ; skirt
G1 X172.800 Y115.330 E12.81411 ; skirt
G1 X172.740 Y115.970 E12.85791 ; skirt
G1 X172.640 Y116.390 E12.88733 ; skirt
G1 X172.300 Y117.480 E12.96514 ; skirt
G1 X172.140 Y117.880 E12.99450 ; skirt
G1 X171.940 Y118.270 E13.02436 ; skirt
G1 X171.820 Y118.450 E13.03910 ; skirt
G1 X171.550 Y118.790 E13.06869 ; skirt
G1 X168.500 Y122.180 E13.37943 ; skirt
G1 X168.070 Y122.550 E13.41809 ; skirt
G1 X166.570 Y123.670 E13.54565 ; skirt
G1 X165.060 Y124.760 E13.67256 ; skirt
G1 X163.300 Y125.970 E13.81810 ; skirt
G1 X162.830 Y126.220 E13.85438 ; skirt
G1 X160.220 Y127.380 E14.04901 ; skirt
G1 X157.410 Y128.470 E14.25439 ; skirt
G1 X157.130 Y128.560 E14.27443 ; skirt
G1 X156.830 Y128.640 E14.29559 ; skirt
G1 X149.800 Y129.750 E14.78058 ; skirt
G1 X149.250 Y129.800 E14.81821 ; skirt
G1 X48.740 Y129.800 E21.66734 ; skirt
G1 X48.190 Y129.750 E21.70497 ; skirt
G1 X41.160 Y128.640 E22.18995 ; skirt
G1 X40.720 Y128.520 E22.22103 ; skirt
G1 X37.770 Y127.380 E22.43655 ; skirt
G1 X35.160 Y126.220 E22.63118 ; skirt
G1 X34.810 Y126.040 E22.65799 ; skirt
G1 X34.580 Y125.900 E22.67634 ; skirt
G1 X32.930 Y124.760 E22.81301 ; skirt
G1 X31.420 Y123.670 E22.93991 ; skirt
G1 X29.700 Y122.370 E23.08683 ; skirt
G1 X29.490 Y122.180 E23.10613 ; skirt
G1 X26.440 Y118.790 E23.41687 ; skirt
G1 X26.170 Y118.440 E23.44699 ; skirt
G1 X25.940 Y118.060 E23.47726 ; skirt
G1 X25.760 Y117.660 E23.50715 ; skirt
G1 X25.300 Y116.160 E23.61407 ; skirt
G1 X25.230 Y115.750 E23.64241 ; skirt
G1 X25.200 Y115.330 E23.67110 ; skirt
G1 X25.200 Y86.920 E25.60707 ; skirt
G1 X25.330 Y85.470 E25.70627 ; skirt
G1 X25.400 Y85.020 E25.73730 ; skirt
G1 X25.530 Y84.590 E25.76792 ; skirt
G1 X25.710 Y84.180 E25.79843 ; skirt
G1 X25.940 Y83.800 E25.82870 ; skirt
G1 X26.220 Y83.450 E25.85924 ; skirt
G1 X29.160 Y80.180 E26.15889 ; skirt
G1 X29.560 Y79.800 E26.19649 ; skirt
G1 X30.910 Y78.700 E26.31515 ; skirt
G1 X34.190 Y76.320 E26.59131 ; skirt
G1 X34.577 Y76.097 E26.62174 ; skirt
G1 F1800.000 E25.62174 ; retract
G92 E0 ; reset extrusion distance
G1 X35.692 Y78.233 F7800.000 ; move to first brim point
G1 F1800.000 E1.00000 ; compensate retraction
G1 X35.939 Y78.153 F810.000 E1.01769 ; brim
G1 X36.855 Y78.153 E1.08015 ; brim
G1 X36.842 Y78.089 E1.08463 ; brim
G1 X37.105 Y77.571 E1.12418 ; brim
G1 X40.627 Y76.003 E1.38690 ; brim
G1 X40.796 Y75.967 E1.39864 ; brim
G1 X44.095 Y75.967 E1.62346 ; brim
G1 X44.095 Y75.355 E1.66520 ; brim
G1 X44.575 Y74.875 E1.71147 ; brim
G1 X152.264 Y74.875 E9.04977 ; brim
G1 X158.391 Y76.240 E9.47753 ; brim
G1 X158.755 Y76.750 E9.52022 ; brim
G1 X158.720 Y77.060 E9.54151 ; brim
G1 X159.666 Y77.060 E9.60592 ; brim
G1 X159.842 Y77.100 E9.61824 ; brim
G1 X163.223 Y78.688 E9.87282 ; brim
G1 X163.477 Y79.205 E9.91205 ; brim
G1 X163.468 Y79.246 E9.91487 ; brim
G1 X163.565 Y79.246 E9.92150 ; brim
G1 X163.812 Y79.326 E9.93919 ; brim
G1 X166.244 Y81.093 E10.14406 ; brim
G1 X166.354 Y81.431 E10.16827 ; brim
G1 X166.500 Y81.431 E10.17822 ; brim
G1 X166.818 Y81.573 E10.20196 ; brim
G1 X170.783 Y85.976 E10.60572 ; brim
G1 X170.378 Y86.885 E10.67358 ; brim
G1 X170.378 Y114.615 E12.56320 ; brim
G1 X170.573 Y114.880 E12.58561 ; brim
G1 X169.839 Y117.225 E12.75305 ; brim
G1 X169.433 Y117.524 E12.78737 ; brim
G1 X167.575 Y119.587 E12.97662 ; brim
G1 X167.505 Y119.618 E12.98181 ; brim
G1 X167.367 Y120.055 E13.01302 ; brim
G1 X164.976 Y121.832 E13.21601 ; brim
G1 X164.725 Y121.914 E13.23400 ; brim
G1 X164.521 Y121.914 E13.24792 ; brim
G1 X164.392 Y122.284 E13.27458 ; brim
G1 X161.849 Y124.026 E13.48467 ; brim
G1 X161.612 Y124.100 E13.50157 ; brim
G1 X160.582 Y124.100 E13.57172 ; brim
G1 X160.605 Y124.221 E13.58010 ; brim
G1 X160.318 Y124.738 E13.62039 ; brim
G1 X156.420 Y126.257 E13.90552 ; brim
G1 X156.270 Y126.285 E13.91593 ; brim
G1 X150.978 Y126.285 E14.27651 ; brim
G1 X150.978 Y126.898 E14.31825 ; brim
G1 X150.498 Y127.378 E14.36452 ; brim
G1 X47.502 Y127.378 E21.38305 ; brim
G1 X47.022 Y126.898 E21.42931 ; brim
G1 X47.022 Y126.285 E21.47106 ; brim
G1 X40.623 Y126.285 E21.90708 ; brim
G1 X40.143 Y125.805 E21.95334 ; brim
G1 X40.143 Y125.193 E21.99509 ; brim
G1 X38.909 Y125.193 E22.07918 ; brim
G1 X38.741 Y125.157 E22.09092 ; brim
G1 X35.219 Y123.589 E22.35364 ; brim
G1 X34.955 Y123.071 E22.39319 ; brim
G1 X34.969 Y123.007 E22.39767 ; brim
G1 X34.783 Y123.007 E22.41035 ; brim
G1 X34.536 Y122.927 E22.42804 ; brim
G1 X32.104 Y121.160 E22.63292 ; brim
G1 X31.994 Y120.822 E22.65714 ; brim
G1 X31.727 Y120.822 E22.67528 ; brim
G1 X31.409 Y120.680 E22.69902 ; brim
G1 X27.445 Y116.277 E23.10277 ; brim
G1 X27.622 Y115.878 E23.13250 ; brim
G1 X27.622 Y87.573 E25.06136 ; brim
G1 X27.555 Y87.499 E25.06814 ; brim
G1 X27.803 Y85.130 E25.23042 ; brim
G1 X28.271 Y84.709 E25.27331 ; brim
G1 X28.358 Y84.709 E25.27920 ; brim
G1 X30.074 Y82.803 E25.45397 ; brim
G1 X29.994 Y82.578 E25.47026 ; brim
G1 X32.646 Y80.432 E25.70271 ; brim
G1 X32.911 Y80.338 E25.72189 ; brim
G1 X33.150 Y80.338 E25.73815 ; brim
G1 X33.260 Y80.000 E25.76237 ; brim
G1 X35.626 Y78.281 E25.96166 ; brim
G1 X35.943 Y78.726 F7800.000 ; move to first brim point
G1 X36.025 Y78.699 F810.000 E25.96755 ; brim
G1 X37.600 Y78.699 E26.07484 ; brim
G1 X37.516 Y78.631 E26.08221 ; brim
G1 X37.416 Y78.164 E26.11474 ; brim
G1 X37.504 Y77.992 E26.12792 ; brim
G1 X40.797 Y76.526 E26.37355 ; brim
G1 X44.748 Y76.514 E26.64275 ; brim
G1 X44.641 Y76.407 E26.65301 ; brim
G1 X44.641 Y75.581 E26.70931 ; brim
G1 X44.801 Y75.421 E26.72473 ; brim
G1 X152.234 Y75.421 E34.04556 ; brim
G1 X158.067 Y76.727 E34.45294 ; brim
G1 X158.189 Y76.897 E34.46717 ; brim
G1 X158.120 Y77.521 E34.50994 ; brim
G1 X158.024 Y77.606 E34.51869 ; brim
G1 X159.605 Y77.606 E34.62646 ; brim
G1 X159.664 Y77.620 E34.63056 ; brim
G1 X162.817 Y79.101 E34.86796 ; brim
G1 X162.902 Y79.273 E34.88104 ; brim
G1 X162.801 Y79.726 E34.91261 ; brim
G1 X162.718 Y79.792 E34.91984 ; brim
G1 X163.478 Y79.792 E34.97166 ; brim
G1 X163.561 Y79.819 E34.97756 ; brim
G1 X165.779 Y81.431 E35.16443 ; brim
G1 X165.834 Y81.599 E35.17652 ; brim
G1 X165.728 Y81.927 E35.19997 ; brim
G1 X165.658 Y81.977 E35.20584 ; brim
G1 X166.384 Y81.977 E35.25529 ; brim
G1 X166.490 Y82.025 E35.26321 ; brim
G1 X168.172 Y83.892 E35.43447 ; brim
G1 X168.051 Y84.163 E35.45465 ; brim
G1 X168.352 Y84.163 E35.47512 ; brim
G1 X168.458 Y84.210 E35.48303 ; brim
G1 X170.140 Y86.078 E35.65430 ; brim
G1 X169.995 Y86.402 E35.67848 ; brim
G1 X169.725 Y86.402 E35.69688 ; brim
G1 X169.832 Y86.508 E35.70713 ; brim
G1 X169.832 Y88.427 E35.83790 ; brim
G1 X169.698 Y88.560 E35.85073 ; brim
G1 X169.832 Y88.694 E35.86357 ; brim
G1 X169.832 Y90.613 E35.99434 ; brim
G1 X169.698 Y90.746 E36.00717 ; brim
G1 X169.832 Y90.879 E36.02001 ; brim
G1 X169.832 Y92.798 E36.15078 ; brim
G1 X169.698 Y92.931 E36.16361 ; brim
G1 X169.832 Y93.064 E36.17645 ; brim
G1 X169.832 Y94.983 E36.30722 ; brim
G1 X169.698 Y95.117 E36.32005 ; brim
G1 X169.832 Y95.250 E36.33289 ; brim
G1 X169.832 Y97.169 E36.46366 ; brim
G1 X169.698 Y97.302 E36.47649 ; brim
G1 X169.832 Y97.435 E36.48933 ; brim
G1 X169.832 Y99.354 E36.62010 ; brim
G1 X169.698 Y99.487 E36.63294 ; brim
G1 X169.832 Y99.621 E36.64577 ; brim
G1 X169.832 Y101.540 E36.77654 ; brim
G1 X169.698 Y101.673 E36.78938 ; brim
G1 X169.832 Y101.806 E36.80221 ; brim
G1 X169.832 Y103.725 E36.93298 ; brim
G1 X169.698 Y103.858 E36.94582 ; brim
G1 X169.832 Y103.991 E36.95865 ; brim
G1 X169.832 Y105.910 E37.08942 ; brim
G1 X169.698 Y106.043 E37.10226 ; brim
G1 X169.832 Y106.177 E37.11509 ; brim
G1 X169.832 Y108.096 E37.24586 ; brim
G1 X169.698 Y108.229 E37.25870 ; brim
G1 X169.832 Y108.362 E37.27153 ; brim
G1 X169.832 Y110.281 E37.40230 ; brim
G1 X169.698 Y110.414 E37.41514 ; brim
G1 X169.832 Y110.547 E37.42797 ; brim
G1 X169.832 Y112.466 E37.55874 ; brim
G1 X169.698 Y112.600 E37.57158 ; brim
G1 X169.832 Y112.733 E37.58441 ; brim
G1 X169.832 Y114.652 E37.71518 ; brim
G1 X169.725 Y114.758 E37.72543 ; brim
G1 X169.805 Y114.758 E37.73086 ; brim
G1 X169.969 Y114.981 E37.74971 ; brim
G1 X169.371 Y116.891 E37.88610 ; brim
G1 X169.226 Y116.997 E37.89831 ; brim
G1 X168.808 Y116.997 E37.92685 ; brim
G1 X168.928 Y117.268 E37.94702 ; brim
G1 X167.246 Y119.135 E38.11829 ; brim
G1 X167.140 Y119.183 E38.12620 ; brim
G1 X166.777 Y119.183 E38.15092 ; brim
G1 X166.846 Y119.233 E38.15672 ; brim
G1 X166.953 Y119.553 E38.17975 ; brim
G1 X166.899 Y119.722 E38.19179 ; brim
G1 X164.721 Y121.340 E38.37674 ; brim
G1 X164.637 Y121.368 E38.38274 ; brim
G1 X163.816 Y121.368 E38.43869 ; brim
G1 X163.888 Y121.421 E38.44477 ; brim
G1 X163.994 Y121.765 E38.46931 ; brim
G1 X163.935 Y121.935 E38.48155 ; brim
G1 X161.608 Y123.529 E38.67377 ; brim
G1 X161.529 Y123.554 E38.67941 ; brim
G1 X159.850 Y123.554 E38.79381 ; brim
G1 X159.937 Y123.626 E38.80152 ; brim
G1 X160.032 Y124.128 E38.83633 ; brim
G1 X159.936 Y124.300 E38.84977 ; brim
G1 X156.269 Y125.730 E39.11799 ; brim
G1 X150.325 Y125.739 E39.52299 ; brim
G1 X150.432 Y125.845 E39.53324 ; brim
G1 X150.432 Y126.672 E39.58955 ; brim
G1 X150.272 Y126.832 E39.60497 ; brim
G1 X47.728 Y126.832 E46.59266 ; brim
G1 X47.568 Y126.672 E46.60808 ; brim
G1 X47.568 Y125.845 E46.66439 ; brim
G1 X47.675 Y125.739 E46.67464 ; brim
G1 X40.850 Y125.739 E47.13972 ; brim
G1 X40.690 Y125.579 E47.15514 ; brim
G1 X40.690 Y124.753 E47.21145 ; brim
G1 X40.796 Y124.646 E47.22170 ; brim
G1 X38.911 Y124.634 E47.35018 ; brim
G1 X35.618 Y123.168 E47.59581 ; brim
G1 X35.530 Y122.996 E47.60899 ; brim
G1 X35.629 Y122.529 E47.64152 ; brim
G1 X35.713 Y122.461 E47.64889 ; brim
G1 X34.869 Y122.461 E47.70640 ; brim
G1 X34.787 Y122.434 E47.71230 ; brim
G1 X32.568 Y120.822 E47.89917 ; brim
G1 X32.513 Y120.653 E47.91127 ; brim
G1 X32.620 Y120.326 E47.93471 ; brim
G1 X32.690 Y120.275 E47.94059 ; brim
G1 X31.844 Y120.275 E47.99824 ; brim
G1 X31.737 Y120.228 E48.00615 ; brim
G1 X30.056 Y118.360 E48.17741 ; brim
G1 X30.176 Y118.090 E48.19759 ; brim
G1 X29.876 Y118.090 E48.21806 ; brim
G1 X29.770 Y118.043 E48.22598 ; brim
G1 X28.088 Y116.175 E48.39724 ; brim
G1 X28.232 Y115.851 E48.42141 ; brim
G1 X28.275 Y115.851 E48.42431 ; brim
G1 X28.168 Y115.745 E48.43456 ; brim
G1 X28.168 Y113.826 E48.56533 ; brim
G1 X28.302 Y113.692 E48.57816 ; brim
G1 X28.168 Y113.559 E48.59100 ; brim
G1 X28.168 Y111.640 E48.72177 ; brim
G1 X28.302 Y111.507 E48.73460 ; brim
G1 X28.168 Y111.374 E48.74744 ; brim
G1 X28.168 Y109.455 E48.87821 ; brim
G1 X28.302 Y109.322 E48.89104 ; brim
G1 X28.168 Y109.188 E48.90388 ; brim
G1 X28.168 Y107.269 E49.03465 ; brim
G1 X28.302 Y107.136 E49.04748 ; brim
G1 X28.168 Y107.003 E49.06032 ; brim
G1 X28.168 Y105.084 E49.19109 ; brim
G1 X28.302 Y104.951 E49.20392 ; brim
G1 X28.168 Y104.818 E49.21676 ; brim
G1 X28.168 Y102.899 E49.34753 ; brim
G1 X28.302 Y102.765 E49.36036 ; brim
G1 X28.168 Y102.632 E49.37320 ; brim
G1 X28.168 Y100.713 E49.50397 ; brim
G1 X28.302 Y100.580 E49.51680 ; brim
G1 X28.168 Y100.447 E49.52964 ; brim
G1 X28.168 Y98.528 E49.66041 ; brim
G1 X28.302 Y98.395 E49.67324 ; brim
G1 X28.168 Y98.261 E49.68608 ; brim
G1 X28.168 Y96.342 E49.81685 ; brim
G1 X28.302 Y96.209 E49.82968 ; brim
G1 X28.168 Y96.076 E49.84252 ; brim
G1 X28.168 Y94.157 E49.97329 ; brim
G1 X28.302 Y94.024 E49.98613 ; brim
G1 X28.168 Y93.891 E49.99896 ; brim
G1 X28.168 Y91.972 E50.12973 ; brim
G1 X28.302 Y91.838 E50.14257 ; brim
G1 X28.168 Y91.705 E50.15540 ; brim
G1 X28.168 Y89.786 E50.28617 ; brim
G1 X28.302 Y89.653 E50.29901 ; brim
G1 X28.168 Y89.520 E50.31184 ; brim
G1 X28.168 Y87.601 E50.44261 ; brim
G1 X28.281 Y87.488 E50.45348 ; brim
G1 X28.124 Y87.314 E50.46946 ; brim
G1 X28.325 Y85.396 E50.60087 ; brim
G1 X28.481 Y85.255 E50.61517 ; brim
G1 X28.965 Y85.255 E50.64814 ; brim
G1 X28.844 Y84.985 E50.66832 ; brim
G1 X30.526 Y83.117 E50.83958 ; brim
G1 X30.632 Y83.070 E50.84749 ; brim
G1 X30.748 Y83.070 E50.85537 ; brim
G1 X30.638 Y82.760 E50.87781 ; brim
G1 X32.917 Y80.916 E51.07756 ; brim
G1 X33.005 Y80.885 E51.08395 ; brim
G1 X33.846 Y80.885 E51.14123 ; brim
G1 X33.776 Y80.834 E51.14710 ; brim
G1 X33.670 Y80.507 E51.17055 ; brim
G1 X33.724 Y80.338 E51.18264 ; brim
G1 X35.877 Y78.774 E51.36394 ; brim
G1 F1800.000 E50.36394 ; retract
G92 E0 ; reset extrusion distance
G1 X45.815 Y75.994 F7800.000 ; move to first support material point
G1 F1800.000 E1.00000 ; compensate retraction
G1 X152.185 Y75.994 F1080.000 E8.24849 ; support material
G1 X157.054 Y77.087 E8.58851 ; support material
G1 X40.946 Y77.087 E16.50054 ; support material
G1 X38.492 Y78.180 E16.68361 ; support material
G1 X159.508 Y78.180 E24.93014 ; support material
G1 X161.834 Y79.272 E25.10524 ; support material
G1 X36.166 Y79.272 E33.66870 ; support material
G1 X34.662 Y80.365 E33.79538 ; support material
G1 X163.338 Y80.365 E42.56382 ; support material
G1 X164.842 Y81.458 E42.69049 ; support material
G1 X33.158 Y81.458 E51.66389 ; support material
G1 X31.808 Y82.550 E51.78227 ; support material
G1 X166.192 Y82.550 E60.93974 ; support material
G1 X167.176 Y83.643 E61.03994 ; support material
G1 X30.824 Y83.643 E70.33150 ; support material
G1 X29.840 Y84.736 E70.43169 ; support material
G1 X168.160 Y84.736 E79.85734 ; support material
G1 X169.144 Y85.829 E79.95754 ; support material
G1 X28.856 Y85.829 E89.51729 ; support material
G1 X28.742 Y86.921 E89.59216 ; support material
G1 X169.258 Y86.921 E99.16750 ; support material
G1 X169.258 Y88.014 E99.24196 ; support material
G1 X28.742 Y88.014 E108.81730 ; support material
G1 X28.742 Y89.107 E108.89176 ; support material
G1 X169.258 Y89.107 E118.46711 ; support material
G1 X169.258 Y90.199 E118.54157 ; support material
G1 X28.742 Y90.199 E128.11691 ; support material
G1 X28.742 Y91.292 E128.19137 ; support material
G1 X169.258 Y91.292 E137.76671 ; support material
G1 X169.258 Y92.385 E137.84117 ; support material
G1 X28.742 Y92.385 E147.41651 ; support material
G1 X28.742 Y93.477 E147.49098 ; support material
G1 X169.258 Y93.477 E157.06632 ; support material
G1 X169.258 Y94.570 E157.14078 ; support material
G1 X28.742 Y94.570 E166.71612 ; support material
G1 X28.742 Y95.663 E166.79058 ; support material
G1 X169.258 Y95.663 E176.36592 ; support material
