; generated by Slic3r 0.9.9 on 2014-01-28 at 15:04:03

; layer_height = 0.2
; perimeters = 3
; top_solid_layers = 3
; bottom_solid_layers = 3
; fill_density = 0.15
; perimeter_speed = 45
; infill_speed = 60
; travel_speed = 130
; nozzle_diameter = 0.35
; filament_diameter = 1.75
; extrusion_multiplier = 1
; perimeters extrusion width = 0.52mm
; infill extrusion width = 0.52mm
; solid infill extrusion width = 0.52mm
; top infill extrusion width = 0.52mm
; support material extrusion width = 0.52mm
; first layer extrusion width = 0.60mm

G21 ; set units to millimeters
M107 ; disable fan
M190 S94 ; wait for bed temperature to be reached
M104 S225 ; set temperature
G28 ; home all axes
G1 Z5 F5000 ; lift nozzle
M109 S225 ; wait for temperature to be reached
G90 ; use absolute coordinates
G92 E0 ; reset extrusion distance
M82 ; use absolute distances for extrusion
G1 F1800.000 E-1.00000 ; retract
G92 E0 ; reset extrusion distance
G1 Z0.300 F7800.000 ; move to next layer (0)
G1 X52.690 Y75.320 ; move to first skirt point
G1 F1800.000 E1.00000 ; compensate retraction
G1 X52.910 Y75.180 F810.000 E1.01777 ; skirt
G1 X53.150 Y75.060 E1.03605 ; skirt
G1 X55.480 Y73.960 E1.21163 ; skirt
G1 X58.260 Y72.730 E1.41879 ; skirt
G1 X58.530 Y72.650 E1.43798 ; skirt
G1 X63.540 Y71.540 E1.78766 ; skirt
G1 X63.850 Y71.480 E1.80917 ; skirt
G1 X64.310 Y71.450 E1.84059 ; skirt
G1 X135.680 Y71.450 E6.70400 ; skirt
G1 X136.140 Y71.480 E6.73542 ; skirt
G1 X136.450 Y71.540 E6.75693 ; skirt
G1 X141.460 Y72.650 E7.10661 ; skirt
G1 X141.860 Y72.780 E7.13527 ; skirt
G1 X144.510 Y73.960 E7.33295 ; skirt
G1 X147.080 Y75.180 E7.52681 ; skirt
G1 X147.300 Y75.320 E7.54458 ; skirt
G1 X150.420 Y77.580 E7.80710 ; skirt
G1 X151.930 Y78.800 E7.93939 ; skirt
G1 X152.330 Y79.180 E7.97698 ; skirt
G1 X155.270 Y82.440 E8.27613 ; skirt
G1 X155.590 Y82.860 E8.31211 ; skirt
G1 X156.430 Y84.120 E8.41530 ; skirt
G1 X158.340 Y87.420 E8.67512 ; skirt
G1 X158.510 Y87.750 E8.70042 ; skirt
G1 X159.000 Y88.850 E8.78248 ; skirt
G1 X159.130 Y89.200 E8.80792 ; skirt
G1 X160.180 Y92.460 E9.04131 ; skirt
G1 X160.550 Y93.550 E9.11975 ; skirt
G1 X160.660 Y93.960 E9.14867 ; skirt
G1 X160.840 Y95.380 E9.24621 ; skirt
G1 X161.180 Y98.660 E9.47092 ; skirt
G1 X161.290 Y100.090 E9.56866 ; skirt
G1 X161.270 Y100.490 E9.59595 ; skirt
G1 X160.810 Y104.860 E9.89538 ; skirt
G1 X160.580 Y106.190 E9.98736 ; skirt
G1 X160.460 Y106.670 E10.02107 ; skirt
G1 X159.040 Y111.050 E10.33484 ; skirt
G1 X158.840 Y111.560 E10.37217 ; skirt
G1 X158.290 Y112.650 E10.45536 ; skirt
G1 X156.300 Y116.100 E10.72676 ; skirt
G1 X156.060 Y116.460 E10.75625 ; skirt
G1 X155.050 Y117.790 E10.87005 ; skirt
G1 X152.000 Y121.180 E11.18079 ; skirt
G1 X151.570 Y121.550 E11.21945 ; skirt
G1 X150.070 Y122.670 E11.34701 ; skirt
G1 X148.560 Y123.760 E11.47392 ; skirt
G1 X146.910 Y124.900 E11.61058 ; skirt
G1 X146.680 Y125.040 E11.62893 ; skirt
G1 X146.330 Y125.220 E11.65575 ; skirt
G1 X143.720 Y126.380 E11.85038 ; skirt
G1 X140.910 Y127.470 E12.05577 ; skirt
G1 X140.330 Y127.640 E12.09695 ; skirt
G1 X133.300 Y128.750 E12.58194 ; skirt
G1 X132.750 Y128.800 E12.61957 ; skirt
G1 X67.240 Y128.800 E17.08367 ; skirt
G1 X66.690 Y128.750 E17.12130 ; skirt
G1 X59.660 Y127.640 E17.60628 ; skirt
G1 X59.220 Y127.520 E17.63736 ; skirt
G1 X56.270 Y126.380 E17.85287 ; skirt
G1 X53.660 Y125.220 E18.04750 ; skirt
G1 X53.080 Y124.900 E18.09264 ; skirt
G1 X51.430 Y123.760 E18.22931 ; skirt
G1 X49.920 Y122.670 E18.35621 ; skirt
G1 X48.200 Y121.370 E18.50313 ; skirt
G1 X47.990 Y121.180 E18.52243 ; skirt
G1 X44.940 Y117.790 E18.83317 ; skirt
G1 X43.930 Y116.460 E18.94697 ; skirt
G1 X43.690 Y116.100 E18.97646 ; skirt
G1 X41.700 Y112.650 E19.24786 ; skirt
G1 X41.150 Y111.560 E19.33106 ; skirt
G1 X40.950 Y111.060 E19.36775 ; skirt
G1 X39.530 Y106.670 E19.68216 ; skirt
G1 X39.410 Y106.190 E19.71588 ; skirt
G1 X39.180 Y104.880 E19.80651 ; skirt
G1 X38.730 Y100.480 E20.10791 ; skirt
G1 X38.710 Y100.090 E20.13452 ; skirt
G1 X38.820 Y98.680 E20.23090 ; skirt
G1 X39.150 Y95.390 E20.45621 ; skirt
G1 X39.290 Y94.240 E20.53516 ; skirt
G1 X39.360 Y93.830 E20.56350 ; skirt
G1 X39.440 Y93.560 E20.58269 ; skirt
G1 X40.860 Y89.190 E20.89581 ; skirt
G1 X40.990 Y88.850 E20.92061 ; skirt
G1 X41.480 Y87.750 E21.00267 ; skirt
G1 X41.650 Y87.420 E21.02796 ; skirt
G1 X43.560 Y84.130 E21.28720 ; skirt
G1 X44.400 Y82.860 E21.39096 ; skirt
G1 X44.720 Y82.440 E21.42694 ; skirt
G1 X47.670 Y79.170 E21.72705 ; skirt
G1 X48.060 Y78.800 E21.76368 ; skirt
G1 X49.410 Y77.700 E21.88235 ; skirt
G1 X52.624 Y75.368 E22.15291 ; skirt
G1 F1800.000 E21.15291 ; retract
G92 E0 ; reset extrusion distance
G1 X54.192 Y77.233 F7800.000 ; move to first brim point
G1 F1800.000 E1.00000 ; compensate retraction
G1 X54.439 Y77.153 F810.000 E1.01769 ; brim
G1 X55.355 Y77.153 E1.08015 ; brim
G1 X55.342 Y77.089 E1.08463 ; brim
G1 X55.605 Y76.571 E1.12418 ; brim
G1 X59.127 Y75.003 E1.38690 ; brim
G1 X59.296 Y74.967 E1.39864 ; brim
G1 X62.595 Y74.967 E1.62346 ; brim
G1 X62.595 Y74.355 E1.66520 ; brim
G1 X63.075 Y73.875 E1.71147 ; brim
G1 X135.764 Y73.875 E6.66476 ; brim
G1 X141.891 Y75.240 E7.09253 ; brim
G1 X142.255 Y75.750 E7.13522 ; brim
G1 X142.221 Y76.060 E7.15651 ; brim
G1 X143.166 Y76.060 E7.22091 ; brim
G1 X143.342 Y76.100 E7.23322 ; brim
G1 X146.723 Y77.688 E7.48779 ; brim
G1 X146.977 Y78.205 E7.52702 ; brim
G1 X146.968 Y78.246 E7.52984 ; brim
G1 X147.065 Y78.246 E7.53647 ; brim
G1 X147.312 Y78.326 E7.55416 ; brim
G1 X149.744 Y80.093 E7.75903 ; brim
G1 X149.854 Y80.431 E7.78324 ; brim
G1 X150.000 Y80.431 E7.79319 ; brim
G1 X150.318 Y80.573 E7.81693 ; brim
G1 X154.283 Y84.976 E8.22067 ; brim
G1 X154.214 Y85.129 E8.23209 ; brim
G1 X156.738 Y89.499 E8.57601 ; brim
G1 X156.701 Y89.564 E8.58110 ; brim
G1 X158.090 Y93.838 E8.88734 ; brim
G1 X158.222 Y93.955 E8.89937 ; brim
G1 X158.511 Y96.322 E9.06189 ; brim
G1 X158.711 Y98.334 E9.19964 ; brim
G1 X158.726 Y98.348 E9.20109 ; brim
G1 X158.918 Y100.718 E9.36310 ; brim
G1 X158.796 Y100.850 E9.37528 ; brim
G1 X158.355 Y105.056 E9.66351 ; brim
G1 X158.420 Y105.146 E9.67107 ; brim
G1 X157.013 Y109.474 E9.98120 ; brim
G1 X157.104 Y109.621 E9.99296 ; brim
G1 X155.938 Y111.930 E10.16920 ; brim
G1 X155.899 Y111.954 E10.17229 ; brim
G1 X154.726 Y113.986 E10.33219 ; brim
G1 X154.792 Y114.117 E10.34221 ; brim
G1 X153.107 Y116.370 E10.53394 ; brim
G1 X153.041 Y116.403 E10.53890 ; brim
G1 X151.074 Y118.587 E10.73922 ; brim
G1 X151.005 Y118.618 E10.74440 ; brim
G1 X150.867 Y119.055 E10.77561 ; brim
G1 X148.476 Y120.832 E10.97860 ; brim
G1 X148.225 Y120.914 E10.99660 ; brim
G1 X148.021 Y120.914 E11.01052 ; brim
G1 X147.892 Y121.284 E11.03717 ; brim
G1 X145.349 Y123.026 E11.24726 ; brim
G1 X145.112 Y123.100 E11.26416 ; brim
G1 X144.083 Y123.100 E11.33430 ; brim
G1 X144.105 Y123.221 E11.34267 ; brim
G1 X143.818 Y123.738 E11.38297 ; brim
G1 X139.920 Y125.257 E11.66809 ; brim
G1 X139.770 Y125.285 E11.67849 ; brim
G1 X134.478 Y125.285 E12.03910 ; brim
G1 X134.478 Y125.898 E12.08085 ; brim
G1 X133.998 Y126.378 E12.12711 ; brim
G1 X66.002 Y126.378 E16.76061 ; brim
G1 X65.522 Y125.898 E16.80687 ; brim
G1 X65.522 Y125.285 E16.84862 ; brim
G1 X59.123 Y125.285 E17.28464 ; brim
G1 X58.643 Y124.805 E17.33091 ; brim
G1 X58.643 Y124.193 E17.37265 ; brim
G1 X57.409 Y124.193 E17.45675 ; brim
G1 X57.241 Y124.157 E17.46848 ; brim
G1 X53.719 Y122.589 E17.73121 ; brim
G1 X53.455 Y122.071 E17.77076 ; brim
G1 X53.469 Y122.007 E17.77524 ; brim
G1 X53.283 Y122.007 E17.78792 ; brim
G1 X53.036 Y121.927 E17.80561 ; brim
G1 X50.604 Y120.160 E18.01048 ; brim
G1 X50.494 Y119.822 E18.03470 ; brim
G1 X50.227 Y119.822 E18.05285 ; brim
G1 X49.909 Y119.680 E18.07659 ; brim
G1 X45.945 Y115.277 E18.48033 ; brim
G1 X45.977 Y115.204 E18.48580 ; brim
G1 X43.407 Y110.767 E18.83520 ; brim
G1 X41.990 Y106.406 E19.14768 ; brim
G1 X41.893 Y106.324 E19.15633 ; brim
G1 X41.484 Y103.961 E19.31975 ; brim
G1 X41.525 Y103.912 E19.32417 ; brim
G1 X41.067 Y99.549 E19.62308 ; brim
G1 X41.174 Y99.430 E19.63400 ; brim
G1 X41.612 Y95.263 E19.91949 ; brim
G1 X41.498 Y95.107 E19.93269 ; brim
G1 X42.910 Y90.761 E20.24404 ; brim
G1 X42.848 Y90.664 E20.25191 ; brim
G1 X43.884 Y88.344 E20.42510 ; brim
G1 X43.956 Y88.297 E20.43098 ; brim
G1 X45.141 Y86.245 E20.59245 ; brim
G1 X45.102 Y86.172 E20.59807 ; brim
G1 X46.631 Y83.901 E20.78459 ; brim
G1 X46.734 Y83.846 E20.79257 ; brim
G1 X48.574 Y81.803 E20.97992 ; brim
G1 X48.494 Y81.578 E20.99621 ; brim
G1 X51.146 Y79.432 E21.22866 ; brim
G1 X51.411 Y79.338 E21.24784 ; brim
G1 X51.650 Y79.338 E21.26410 ; brim
G1 X51.760 Y79.000 E21.28832 ; brim
G1 X54.126 Y77.281 E21.48760 ; brim
G1 X54.443 Y77.726 F7800.000 ; move to first brim point
G1 X54.525 Y77.699 F810.000 E21.49350 ; brim
G1 X56.100 Y77.699 E21.60078 ; brim
G1 X56.016 Y77.631 E21.60816 ; brim
G1 X55.916 Y77.164 E21.64068 ; brim
G1 X56.004 Y76.992 E21.65387 ; brim
G1 X59.297 Y75.526 E21.89949 ; brim
G1 X63.248 Y75.514 E22.16870 ; brim
G1 X63.141 Y75.407 E22.17895 ; brim
G1 X63.141 Y74.581 E22.23526 ; brim
G1 X63.301 Y74.421 E22.25068 ; brim
G1 X135.734 Y74.421 E27.18650 ; brim
G1 X141.568 Y75.727 E27.59389 ; brim
G1 X141.689 Y75.897 E27.60812 ; brim
G1 X141.620 Y76.521 E27.65089 ; brim
G1 X141.524 Y76.606 E27.65964 ; brim
G1 X143.106 Y76.606 E27.76739 ; brim
G1 X143.164 Y76.620 E27.77149 ; brim
G1 X146.317 Y78.101 E28.00888 ; brim
G1 X146.402 Y78.273 E28.02196 ; brim
G1 X146.301 Y78.726 E28.05352 ; brim
G1 X146.218 Y78.792 E28.06075 ; brim
G1 X146.978 Y78.792 E28.11258 ; brim
G1 X147.061 Y78.819 E28.11847 ; brim
G1 X149.279 Y80.431 E28.30535 ; brim
G1 X149.334 Y80.599 E28.31744 ; brim
G1 X149.228 Y80.927 E28.34088 ; brim
G1 X149.158 Y80.977 E28.34676 ; brim
G1 X149.884 Y80.977 E28.39621 ; brim
G1 X149.990 Y81.025 E28.40412 ; brim
G1 X151.671 Y82.892 E28.57538 ; brim
G1 X151.551 Y83.163 E28.59556 ; brim
G1 X151.851 Y83.163 E28.61603 ; brim
G1 X151.957 Y83.210 E28.62394 ; brim
G1 X153.639 Y85.078 E28.79520 ; brim
G1 X153.519 Y85.348 E28.81537 ; brim
G1 X153.626 Y85.348 E28.82266 ; brim
G1 X153.752 Y85.421 E28.83263 ; brim
G1 X154.845 Y87.314 E28.98157 ; brim
G1 X154.719 Y87.533 E28.99885 ; brim
G1 X154.888 Y87.533 E29.01036 ; brim
G1 X155.014 Y87.607 E29.02034 ; brim
G1 X156.108 Y89.499 E29.16928 ; brim
G1 X155.981 Y89.719 E29.18655 ; brim
G1 X156.067 Y89.719 E29.19243 ; brim
G1 X156.211 Y89.823 E29.20453 ; brim
G1 X156.831 Y91.733 E29.34135 ; brim
G1 X156.707 Y91.904 E29.35580 ; brim
G1 X156.777 Y91.904 E29.36061 ; brim
G1 X156.921 Y92.009 E29.37271 ; brim
G1 X157.541 Y93.918 E29.50953 ; brim
G1 X157.417 Y94.090 E29.52398 ; brim
G1 X157.550 Y94.090 E29.53305 ; brim
G1 X157.705 Y94.227 E29.54716 ; brim
G1 X157.939 Y96.145 E29.67880 ; brim
G1 X157.815 Y96.285 E29.69158 ; brim
G1 X157.960 Y96.415 E29.70487 ; brim
G1 X158.161 Y98.333 E29.83628 ; brim
G1 X158.045 Y98.463 E29.84816 ; brim
G1 X158.199 Y98.605 E29.86247 ; brim
G1 X158.354 Y100.524 E29.99362 ; brim
G1 X158.192 Y100.700 E30.00992 ; brim
G1 X158.135 Y100.700 E30.01378 ; brim
G1 X158.249 Y100.827 E30.02543 ; brim
G1 X158.048 Y102.745 E30.15685 ; brim
G1 X157.899 Y102.878 E30.17047 ; brim
G1 X158.020 Y103.012 E30.18273 ; brim
G1 X157.818 Y104.930 E30.31414 ; brim
G1 X157.679 Y105.056 E30.32694 ; brim
G1 X157.814 Y105.242 E30.34263 ; brim
G1 X157.194 Y107.151 E30.47944 ; brim
G1 X157.050 Y107.256 E30.49154 ; brim
G1 X156.979 Y107.256 E30.49636 ; brim
G1 X157.104 Y107.427 E30.51081 ; brim
G1 X156.484 Y109.337 E30.64762 ; brim
G1 X156.348 Y109.435 E30.65905 ; brim
G1 X156.479 Y109.648 E30.67603 ; brim
G1 X155.520 Y111.546 E30.82092 ; brim
G1 X155.388 Y111.627 E30.83146 ; brim
G1 X155.204 Y111.627 E30.84403 ; brim
G1 X155.331 Y111.846 E30.86131 ; brim
G1 X154.237 Y113.739 E31.01024 ; brim
G1 X154.111 Y113.812 E31.02022 ; brim
G1 X154.028 Y113.812 E31.02586 ; brim
G1 X154.152 Y114.060 E31.04477 ; brim
G1 X152.746 Y115.939 E31.20471 ; brim
G1 X152.631 Y115.997 E31.21351 ; brim
G1 X152.307 Y115.997 E31.23556 ; brim
G1 X152.428 Y116.268 E31.25573 ; brim
G1 X150.746 Y118.135 E31.42699 ; brim
G1 X150.640 Y118.183 E31.43490 ; brim
G1 X150.277 Y118.183 E31.45961 ; brim
G1 X150.346 Y118.233 E31.46541 ; brim
G1 X150.453 Y118.553 E31.48844 ; brim
G1 X150.399 Y118.722 E31.50048 ; brim
G1 X148.221 Y120.340 E31.68543 ; brim
G1 X148.137 Y120.368 E31.69143 ; brim
G1 X147.316 Y120.368 E31.74738 ; brim
G1 X147.388 Y120.421 E31.75346 ; brim
G1 X147.494 Y120.765 E31.77801 ; brim
G1 X147.435 Y120.935 E31.79025 ; brim
G1 X145.108 Y122.529 E31.98246 ; brim
G1 X145.029 Y122.554 E31.98810 ; brim
G1 X143.351 Y122.554 E32.10249 ; brim
G1 X143.438 Y122.626 E32.11019 ; brim
G1 X143.532 Y123.128 E32.14501 ; brim
G1 X143.436 Y123.300 E32.15844 ; brim
G1 X139.769 Y124.730 E32.42666 ; brim
G1 X133.825 Y124.739 E32.83168 ; brim
G1 X133.932 Y124.845 E32.84193 ; brim
G1 X133.932 Y125.672 E32.89824 ; brim
G1 X133.772 Y125.832 E32.91366 ; brim
G1 X66.228 Y125.832 E37.51632 ; brim
G1 X66.068 Y125.672 E37.53174 ; brim
G1 X66.068 Y124.845 E37.58805 ; brim
G1 X66.175 Y124.739 E37.59830 ; brim
G1 X59.350 Y124.739 E38.06338 ; brim
G1 X59.190 Y124.579 E38.07880 ; brim
G1 X59.190 Y123.753 E38.13511 ; brim
G1 X59.296 Y123.646 E38.14536 ; brim
G1 X57.411 Y123.634 E38.27385 ; brim
G1 X54.118 Y122.168 E38.51947 ; brim
G1 X54.030 Y121.996 E38.53265 ; brim
G1 X54.129 Y121.529 E38.56518 ; brim
G1 X54.213 Y121.461 E38.57255 ; brim
G1 X53.369 Y121.461 E38.63006 ; brim
G1 X53.287 Y121.434 E38.63596 ; brim
G1 X51.068 Y119.822 E38.82283 ; brim
G1 X51.013 Y119.653 E38.83493 ; brim
G1 X51.120 Y119.326 E38.85838 ; brim
G1 X51.190 Y119.275 E38.86425 ; brim
G1 X50.344 Y119.275 E38.92190 ; brim
G1 X50.237 Y119.228 E38.92982 ; brim
G1 X48.556 Y117.360 E39.10108 ; brim
G1 X48.676 Y117.090 E39.12125 ; brim
G1 X48.376 Y117.090 E39.14172 ; brim
G1 X48.270 Y117.043 E39.14964 ; brim
G1 X46.588 Y115.175 E39.32090 ; brim
G1 X46.708 Y114.905 E39.34107 ; brim
G1 X46.520 Y114.905 E39.35392 ; brim
G1 X46.393 Y114.831 E39.36389 ; brim
G1 X45.300 Y112.939 E39.51282 ; brim
G1 X45.427 Y112.719 E39.53009 ; brim
G1 X45.258 Y112.719 E39.54161 ; brim
G1 X45.131 Y112.646 E39.55158 ; brim
G1 X44.039 Y110.753 E39.70051 ; brim
G1 X44.165 Y110.534 E39.71778 ; brim
G1 X44.015 Y110.534 E39.72801 ; brim
G1 X43.872 Y110.429 E39.74011 ; brim
G1 X43.251 Y108.520 E39.87693 ; brim
G1 X43.376 Y108.348 E39.89138 ; brim
G1 X43.305 Y108.348 E39.89619 ; brim
G1 X43.162 Y108.244 E39.90829 ; brim
G1 X42.541 Y106.335 E40.04511 ; brim
G1 X42.666 Y106.163 E40.05956 ; brim
G1 X42.550 Y106.163 E40.06747 ; brim
G1 X42.397 Y106.035 E40.08106 ; brim
G1 X42.065 Y104.118 E40.21357 ; brim
G1 X42.201 Y103.958 E40.22789 ; brim
G1 X42.067 Y103.837 E40.24016 ; brim
G1 X41.865 Y101.919 E40.37157 ; brim
G1 X41.986 Y101.786 E40.38384 ; brim
G1 X41.837 Y101.652 E40.39745 ; brim
G1 X41.636 Y99.734 E40.52887 ; brim
G1 X41.799 Y99.553 E40.54545 ; brim
G1 X41.838 Y99.553 E40.54817 ; brim
G1 X41.724 Y99.426 E40.55983 ; brim
G1 X41.926 Y97.508 E40.69124 ; brim
G1 X42.074 Y97.374 E40.70486 ; brim
G1 X41.954 Y97.241 E40.71712 ; brim
G1 X42.155 Y95.323 E40.84854 ; brim
G1 X42.261 Y95.227 E40.85826 ; brim
G1 X42.104 Y95.011 E40.87649 ; brim
G1 X42.724 Y93.101 E41.01331 ; brim
G1 X42.868 Y92.997 E41.02540 ; brim
G1 X42.939 Y92.997 E41.03022 ; brim
G1 X42.814 Y92.825 E41.04467 ; brim
G1 X43.435 Y90.916 E41.18149 ; brim
G1 X43.594 Y90.812 E41.19448 ; brim
G1 X43.467 Y90.616 E41.21035 ; brim
G1 X44.317 Y88.714 E41.35230 ; brim
G1 X44.452 Y88.626 E41.36332 ; brim
G1 X44.650 Y88.626 E41.37681 ; brim
G1 X44.524 Y88.407 E41.39408 ; brim
G1 X45.616 Y86.514 E41.54301 ; brim
G1 X45.743 Y86.441 E41.55298 ; brim
G1 X45.864 Y86.441 E41.56124 ; brim
G1 X45.739 Y86.205 E41.57945 ; brim
G1 X47.008 Y84.319 E41.73432 ; brim
G1 X47.128 Y84.255 E41.74361 ; brim
G1 X47.465 Y84.255 E41.76655 ; brim
G1 X47.344 Y83.985 E41.78673 ; brim
G1 X49.026 Y82.117 E41.95799 ; brim
G1 X49.132 Y82.070 E41.96590 ; brim
G1 X49.248 Y82.070 E41.97378 ; brim
G1 X49.138 Y81.760 E41.99622 ; brim
G1 X51.417 Y79.916 E42.19597 ; brim
G1 X51.505 Y79.885 E42.20236 ; brim
G1 X52.346 Y79.885 E42.25964 ; brim
