; generated by Slic3r 0.9.9 on 2014-01-20 at 16:32:58

; layer_height = 0.2
; perimeters = 3
; top_solid_layers = 3
; bottom_solid_layers = 3
; fill_density = 0.15
; perimeter_speed = 45
; infill_speed = 60
; travel_speed = 130
; nozzle_diameter = 0.35
; filament_diameter = 1.75
; extrusion_multiplier = 1
; perimeters extrusion width = 0.52mm
; infill extrusion width = 0.52mm
; solid infill extrusion width = 0.52mm
; top infill extrusion width = 0.52mm
; support material extrusion width = 0.52mm
; first layer extrusion width = 0.60mm

G21 ; set units to millimeters
M107 ; disable fan
M190 S94 ; wait for bed temperature to be reached
M104 S225 ; set temperature
G28 ; home all axes
G1 Z5 F5000 ; lift nozzle
M109 S225 ; wait for temperature to be reached
G90 ; use absolute coordinates
G92 E0 ; reset extrusion distance
M82 ; use absolute distances for extrusion
G1 F1800.000 E-1.00000 ; retract
G92 E0 ; reset extrusion distance
G1 Z0.300 F7800.000 ; move to next layer (0)
G1 X23.220 Y44.420 ; move to first skirt point
G1 F1800.000 E1.00000 ; compensate retraction
G1 X25.280 Y43.330 F810.000 E1.15882 ; skirt
G1 X25.670 Y43.150 E1.18809 ; skirt
G1 X26.300 Y42.970 E1.23273 ; skirt
G1 X26.940 Y42.910 E1.27654 ; skirt
G1 X69.050 Y42.910 E4.14607 ; skirt
G1 X69.700 Y42.970 E4.19055 ; skirt
G1 X70.120 Y43.080 E4.22014 ; skirt
G1 X70.520 Y43.230 E4.24925 ; skirt
G1 X72.760 Y44.420 E4.42209 ; skirt
G1 X73.250 Y44.730 E4.46160 ; skirt
G1 X74.680 Y45.820 E4.58413 ; skirt
G1 X75.040 Y46.130 E4.61650 ; skirt
G1 X76.130 Y47.220 E4.72155 ; skirt
G1 X76.410 Y47.550 E4.75104 ; skirt
G1 X77.480 Y48.930 E4.87003 ; skirt
G1 X78.170 Y50.020 E4.95794 ; skirt
G1 X78.890 Y51.440 E5.06643 ; skirt
G1 X79.030 Y51.760 E5.09023 ; skirt
G1 X79.440 Y52.850 E5.16959 ; skirt
G1 X79.840 Y54.270 E5.27012 ; skirt
G1 X80.110 Y55.620 E5.36394 ; skirt
G1 X80.160 Y55.970 E5.38803 ; skirt
G1 X80.280 Y57.380 E5.48446 ; skirt
G1 X80.280 Y58.480 E5.55942 ; skirt
G1 X80.130 Y60.180 E5.67571 ; skirt
G1 X79.880 Y61.570 E5.77195 ; skirt
G1 X79.590 Y62.660 E5.84881 ; skirt
G1 X78.960 Y64.380 E5.97363 ; skirt
G1 X78.440 Y65.470 E6.05593 ; skirt
G1 X78.260 Y65.800 E6.08155 ; skirt
G1 X77.590 Y66.890 E6.16873 ; skirt
G1 X77.390 Y67.180 E6.19274 ; skirt
G1 X76.560 Y68.270 E6.28610 ; skirt
G1 X76.290 Y68.580 E6.31411 ; skirt
G1 X75.230 Y69.680 E6.41821 ; skirt
G1 X74.880 Y70.000 E6.45052 ; skirt
G1 X73.500 Y71.090 E6.57036 ; skirt
G1 X73.030 Y71.410 E6.60911 ; skirt
G1 X71.080 Y72.500 E6.76134 ; skirt
G1 X70.700 Y72.680 E6.78999 ; skirt
G1 X70.300 Y72.820 E6.81887 ; skirt
G1 X64.850 Y74.000 E7.19886 ; skirt
G1 X64.250 Y74.050 E7.23988 ; skirt
G1 X31.740 Y74.050 E9.45524 ; skirt
G1 X31.290 Y74.020 E9.48597 ; skirt
G1 X30.990 Y73.970 E9.50669 ; skirt
G1 X25.690 Y72.820 E9.87626 ; skirt
G1 X25.290 Y72.680 E9.90514 ; skirt
G1 X24.910 Y72.500 E9.93379 ; skirt
G1 X22.960 Y71.410 E10.08602 ; skirt
G1 X22.490 Y71.090 E10.12477 ; skirt
G1 X21.110 Y70.000 E10.24460 ; skirt
G1 X20.760 Y69.680 E10.27692 ; skirt
G1 X19.700 Y68.580 E10.38102 ; skirt
G1 X19.430 Y68.270 E10.40903 ; skirt
G1 X18.600 Y67.180 E10.50239 ; skirt
G1 X18.400 Y66.890 E10.52639 ; skirt
G1 X17.730 Y65.800 E10.61358 ; skirt
G1 X17.550 Y65.470 E10.63920 ; skirt
G1 X17.030 Y64.380 E10.72149 ; skirt
G1 X16.400 Y62.660 E10.84631 ; skirt
G1 X16.110 Y61.570 E10.92318 ; skirt
G1 X15.860 Y60.180 E11.01941 ; skirt
G1 X15.820 Y59.860 E11.04139 ; skirt
G1 X15.710 Y58.480 E11.13573 ; skirt
G1 X15.710 Y57.380 E11.21069 ; skirt
G1 X15.830 Y55.970 E11.30712 ; skirt
G1 X15.880 Y55.620 E11.33121 ; skirt
G1 X16.150 Y54.270 E11.42502 ; skirt
G1 X16.450 Y53.170 E11.50272 ; skirt
G1 X16.550 Y52.850 E11.52557 ; skirt
G1 X16.960 Y51.760 E11.60492 ; skirt
G1 X17.100 Y51.440 E11.62872 ; skirt
G1 X17.820 Y50.020 E11.73722 ; skirt
G1 X18.510 Y48.930 E11.82512 ; skirt
G1 X19.580 Y47.550 E11.94412 ; skirt
G1 X19.860 Y47.220 E11.97361 ; skirt
G1 X20.950 Y46.130 E12.07865 ; skirt
G1 X21.300 Y45.830 E12.11007 ; skirt
G1 X22.720 Y44.740 E12.23205 ; skirt
G1 X23.151 Y44.464 E12.26692 ; skirt
G1 F1800.000 E11.26692 ; retract
G92 E0 ; reset extrusion distance
G1 X23.494 Y47.027 F7800.000 ; move to first brim point
G1 F1800.000 E1.00000 ; compensate retraction
G1 X26.575 Y45.390 F810.000 E1.23778 ; brim
G1 X26.770 Y45.341 E1.25149 ; brim
G1 X63.651 Y45.341 E3.76466 ; brim
G1 X63.949 Y45.637 E3.79332 ; brim
G1 X64.246 Y45.341 E3.82188 ; brim
G1 X69.230 Y45.341 E4.16152 ; brim
G1 X69.425 Y45.390 E4.17524 ; brim
G1 X72.505 Y47.028 E4.41292 ; brim
G1 X72.727 Y47.526 E4.45013 ; brim
G1 X72.826 Y47.526 E4.45689 ; brim
G1 X73.128 Y47.652 E4.47915 ; brim
G1 X75.316 Y49.848 E4.69042 ; brim
G1 X75.266 Y49.968 E4.69932 ; brim
G1 X76.663 Y52.198 E4.87864 ; brim
G1 X76.624 Y52.269 E4.88417 ; brim
G1 X77.479 Y54.521 E5.04828 ; brim
G1 X77.450 Y54.563 E5.05180 ; brim
G1 X77.867 Y56.824 E5.20846 ; brim
G1 X77.853 Y56.840 E5.20992 ; brim
G1 X77.859 Y59.018 E5.35827 ; brim
G1 X77.875 Y59.036 E5.35995 ; brim
G1 X77.486 Y61.298 E5.51634 ; brim
G1 X77.515 Y61.339 E5.51976 ; brim
G1 X76.690 Y63.591 E5.68320 ; brim
G1 X76.729 Y63.661 E5.68863 ; brim
G1 X75.366 Y65.896 E5.86702 ; brim
G1 X75.413 Y66.008 E5.87531 ; brim
G1 X73.288 Y68.211 E6.08391 ; brim
G1 X72.981 Y68.341 E6.10665 ; brim
G1 X72.907 Y68.341 E6.11172 ; brim
G1 X72.704 Y68.816 E6.14686 ; brim
G1 X69.739 Y70.474 E6.37838 ; brim
G1 X69.536 Y70.527 E6.39269 ; brim
G1 X65.974 Y70.527 E6.63542 ; brim
G1 X65.974 Y71.139 E6.67716 ; brim
G1 X65.494 Y71.620 E6.72343 ; brim
G1 X30.506 Y71.620 E9.10758 ; brim
G1 X30.026 Y71.139 E9.15384 ; brim
G1 X30.026 Y70.527 E9.19559 ; brim
G1 X25.408 Y70.527 E9.51029 ; brim
G1 X24.928 Y70.047 E9.55655 ; brim
G1 X24.928 Y69.434 E9.59830 ; brim
G1 X24.450 Y69.434 E9.63085 ; brim
G1 X24.189 Y69.343 E9.64973 ; brim
G1 X21.912 Y67.540 E9.84765 ; brim
G1 X21.811 Y67.195 E9.87213 ; brim
G1 X21.577 Y67.080 E9.88993 ; brim
G1 X19.853 Y64.831 E10.08303 ; brim
G1 X19.896 Y64.743 E10.08974 ; brim
G1 X18.820 Y62.497 E10.25940 ; brim
G1 X18.854 Y62.443 E10.26377 ; brim
G1 X18.255 Y60.186 E10.42291 ; brim
G1 X18.278 Y60.156 E10.42546 ; brim
G1 X18.085 Y57.971 E10.57498 ; brim
G1 X18.301 Y55.705 E10.73004 ; brim
G1 X18.277 Y55.674 E10.73270 ; brim
G1 X18.905 Y53.418 E10.89229 ; brim
G1 X18.870 Y53.362 E10.89676 ; brim
G1 X19.979 Y51.118 E11.06733 ; brim
G1 X19.936 Y51.028 E11.07414 ; brim
G1 X21.699 Y48.784 E11.26865 ; brim
G1 X21.743 Y48.763 E11.27192 ; brim
G1 X21.743 Y48.007 E11.32347 ; brim
G1 X22.223 Y47.526 E11.36973 ; brim
G1 X23.271 Y47.526 E11.44120 ; brim
G1 X23.460 Y47.102 E11.47286 ; brim
G1 F1800.000 E10.47286 ; retract
G92 E0 ; reset extrusion distance
G1 X31.607 Y47.580 F7800.000 ; move to first brim point
G1 F1800.000 E1.00000 ; compensate retraction
G1 X31.893 Y47.580 F810.000 E1.01946 ; brim
G1 X31.807 Y48.619 E1.09051 ; brim
G1 X31.693 Y48.619 E1.09825 ; brim
G1 X31.614 Y47.662 E1.16371 ; brim
G1 F1800.000 E0.16371 ; retract
G92 E0 ; reset extrusion distance
G1 X26.837 Y45.887 F7800.000 ; move to first brim point
G1 F1800.000 E1.00000 ; compensate retraction
G1 X63.426 Y45.887 F810.000 E3.49326 ; brim
G1 X63.585 Y46.046 E3.50861 ; brim
G1 X63.598 Y47.965 E3.63938 ; brim
G1 X63.492 Y48.073 E3.64972 ; brim
G1 X64.411 Y48.073 E3.71236 ; brim
G1 X64.304 Y47.966 E3.72261 ; brim
G1 X64.304 Y47.140 E3.77892 ; brim
G1 X64.441 Y47.003 E3.79211 ; brim
G1 X64.312 Y46.874 E3.80459 ; brim
G1 X64.312 Y46.047 E3.86090 ; brim
G1 X64.472 Y45.887 E3.87632 ; brim
G1 X69.163 Y45.887 E4.19597 ; brim
G1 X69.228 Y45.904 E4.20055 ; brim
G1 X72.082 Y47.422 E4.42083 ; brim
G1 X72.158 Y47.593 E4.43365 ; brim
G1 X72.054 Y48.011 E4.46295 ; brim
G1 X71.975 Y48.073 E4.46983 ; brim
G1 X72.717 Y48.073 E4.52040 ; brim
G1 X72.817 Y48.115 E4.52782 ; brim
G1 X74.672 Y49.975 E4.70681 ; brim
G1 X74.554 Y50.258 E4.72771 ; brim
G1 X74.722 Y50.258 E4.73918 ; brim
G1 X74.846 Y50.327 E4.74879 ; brim
G1 X76.029 Y52.216 E4.90068 ; brim
G1 X75.903 Y52.444 E4.91845 ; brim
G1 X76.002 Y52.444 E4.92521 ; brim
G1 X76.142 Y52.540 E4.93681 ; brim
G1 X76.867 Y54.447 E5.07577 ; brim
G1 X76.741 Y54.629 E5.09088 ; brim
G1 X76.778 Y54.629 E5.09341 ; brim
G1 X76.930 Y54.755 E5.10688 ; brim
G1 X77.283 Y56.671 E5.23963 ; brim
G1 X77.156 Y56.824 E5.25313 ; brim
G1 X77.307 Y56.974 E5.26764 ; brim
G1 X77.313 Y58.893 E5.39841 ; brim
G1 X77.165 Y59.041 E5.41267 ; brim
G1 X77.294 Y59.194 E5.42631 ; brim
G1 X76.964 Y61.110 E5.55880 ; brim
G1 X76.811 Y61.239 E5.57240 ; brim
G1 X76.778 Y61.239 E5.57466 ; brim
G1 X76.904 Y61.419 E5.58961 ; brim
G1 X76.205 Y63.326 E5.72801 ; brim
G1 X76.064 Y63.424 E5.73973 ; brim
G1 X75.969 Y63.424 E5.74619 ; brim
G1 X76.096 Y63.649 E5.76379 ; brim
G1 X74.943 Y65.540 E5.91466 ; brim
G1 X74.819 Y65.610 E5.92439 ; brim
G1 X74.651 Y65.610 E5.93584 ; brim
G1 X74.769 Y65.889 E5.95650 ; brim
G1 X72.972 Y67.752 E6.13289 ; brim
G1 X72.870 Y67.795 E6.14047 ; brim
G1 X72.165 Y67.795 E6.18850 ; brim
G1 X72.243 Y67.855 E6.19523 ; brim
G1 X72.348 Y68.258 E6.22360 ; brim
G1 X72.275 Y68.430 E6.23631 ; brim
G1 X69.533 Y69.963 E6.45035 ; brim
G1 X69.465 Y69.980 E6.45512 ; brim
G1 X65.321 Y69.980 E6.73755 ; brim
G1 X65.427 Y70.087 E6.74780 ; brim
G1 X65.427 Y70.913 E6.80411 ; brim
G1 X65.267 Y71.073 E6.81953 ; brim
G1 X30.733 Y71.073 E9.17284 ; brim
G1 X30.573 Y70.913 E9.18826 ; brim
G1 X30.573 Y70.087 E9.24457 ; brim
G1 X30.679 Y69.980 E9.25482 ; brim
G1 X25.635 Y69.980 E9.59857 ; brim
G1 X25.475 Y69.820 E9.61400 ; brim
G1 X25.475 Y68.994 E9.67030 ; brim
G1 X25.581 Y68.888 E9.68055 ; brim
G1 X24.543 Y68.888 E9.75129 ; brim
G1 X24.456 Y68.857 E9.75759 ; brim
G1 X22.388 Y67.220 E9.93733 ; brim
G1 X22.339 Y67.053 E9.94922 ; brim
G1 X22.444 Y66.750 E9.97106 ; brim
G1 X22.511 Y66.702 E9.97664 ; brim
G1 X22.047 Y66.702 E10.00822 ; brim
G1 X21.933 Y66.646 E10.01690 ; brim
G1 X20.493 Y64.768 E10.17818 ; brim
G1 X20.617 Y64.517 E10.19725 ; brim
G1 X20.487 Y64.517 E10.20608 ; brim
G1 X20.354 Y64.433 E10.21682 ; brim
G1 X19.443 Y62.533 E10.36038 ; brim
G1 X19.570 Y62.332 E10.37661 ; brim
G1 X19.507 Y62.332 E10.38090 ; brim
G1 X19.360 Y62.218 E10.39357 ; brim
G1 X18.853 Y60.306 E10.52840 ; brim
G1 X18.975 Y60.146 E10.54212 ; brim
G1 X18.814 Y60.002 E10.55688 ; brim
G1 X18.653 Y58.084 E10.68806 ; brim
G1 X18.790 Y57.935 E10.70185 ; brim
G1 X18.651 Y57.782 E10.71592 ; brim
G1 X18.835 Y55.864 E10.84722 ; brim
G1 X19.000 Y55.722 E10.86205 ; brim
G1 X18.876 Y55.560 E10.87593 ; brim
G1 X19.408 Y53.648 E11.01116 ; brim
G1 X19.555 Y53.536 E11.02370 ; brim
G1 X19.622 Y53.536 E11.02827 ; brim
G1 X19.495 Y53.332 E11.04467 ; brim
G1 X20.433 Y51.433 E11.18899 ; brim
G1 X20.565 Y51.351 E11.19961 ; brim
G1 X20.700 Y51.351 E11.20877 ; brim
G1 X20.576 Y51.097 E11.22801 ; brim
G1 X22.051 Y49.220 E11.39065 ; brim
G1 X22.164 Y49.166 E11.39922 ; brim
G1 X22.395 Y49.166 E11.41495 ; brim
G1 X22.289 Y49.059 E11.42520 ; brim
G1 X22.289 Y48.233 E11.48151 ; brim
G1 X22.449 Y48.073 E11.49693 ; brim
G1 X24.023 Y48.073 E11.60422 ; brim
G1 X23.944 Y48.011 E11.61110 ; brim
G1 X23.840 Y47.593 E11.64042 ; brim
G1 X23.916 Y47.421 E11.65324 ; brim
G1 X26.759 Y45.911 E11.87262 ; brim
G1 F1800.000 E10.87262 ; retract
G92 E0 ; reset extrusion distance
G1 X31.750 Y67.709 F7800.000 ; move to first brim point
G1 F1800.000 E1.00000 ; compensate retraction
G1 X31.836 Y67.795 F810.000 E1.00830 ; brim
G1 X31.992 Y67.795 E1.01890 ; brim
G1 X31.885 Y67.901 E1.02915 ; brim
G1 X31.885 Y68.728 E1.08545 ; brim
G1 X31.992 Y68.834 E1.09570 ; brim
G1 X31.508 Y68.834 E1.12863 ; brim
G1 X31.615 Y68.728 E1.13888 ; brim
G1 X31.615 Y67.901 E1.19519 ; brim
G1 X31.508 Y67.795 E1.20544 ; brim
G1 X31.664 Y67.795 E1.21604 ; brim
G1 X31.692 Y67.767 E1.21875 ; brim
G1 F1800.000 E0.21875 ; retract
G92 E0 ; reset extrusion distance
G1 X64.008 Y67.795 F7800.000 ; move to first brim point
G1 F1800.000 E1.00000 ; compensate retraction
G1 X64.492 Y67.795 F810.000 E1.03293 ; brim
G1 X64.385 Y67.901 E1.04318 ; brim
G1 X64.385 Y68.728 E1.09949 ; brim
G1 X64.492 Y68.834 E1.10974 ; brim
G1 X64.008 Y68.834 E1.14266 ; brim
G1 X64.115 Y68.728 E1.15292 ; brim
G1 X64.115 Y67.901 E1.20922 ; brim
G1 X64.066 Y67.853 E1.21389 ; brim
G1 F1800.000 E0.21389 ; retract
G92 E0 ; reset extrusion distance
G1 X31.782 Y66.702 F7800.000 ; move to first brim point
G1 F1800.000 E1.00000 ; compensate retraction
G1 X31.750 Y66.735 F810.000 E1.00313 ; brim
G1 X31.729 Y66.714 E1.00511 ; brim
G1 F1800.000 E0.00511 ; retract
G92 E0 ; reset extrusion distance
G1 X31.067 Y49.166 F7800.000 ; move to first brim point
G1 F1800.000 E1.00000 ; compensate retraction
G1 X31.180 Y49.043 F810.000 E1.01136 ; brim
G1 X31.021 Y47.125 E1.14253 ; brim
G1 X30.923 Y47.034 E1.15166 ; brim
G1 X32.577 Y47.034 E1.26441 ; brim
G1 X32.479 Y47.125 E1.27354 ; brim
G1 X32.320 Y49.043 E1.40471 ; brim
G1 X32.433 Y49.166 E1.41607 ; brim
G1 X31.149 Y49.166 E1.50355 ; brim
G1 F1800.000 E0.50355 ; retract
G92 E0 ; reset extrusion distance
G1 X23.462 Y48.646 F7800.000 ; move to first support material point
G1 F1800.000 E1.00000 ; compensate retraction
G1 X30.572 Y48.646 F1080.000 E1.48450 ; support material
G1 X30.482 Y47.553 E1.55921 ; support material
G1 X24.889 Y47.553 E1.94029 ; support material
G1 X26.946 Y46.461 E2.09897 ; support material
G1 X63.015 Y46.461 E4.55687 ; support material
G1 X63.022 Y47.553 E4.63134 ; support material
G1 X33.018 Y47.553 E6.67593 ; support material
G1 X32.928 Y48.646 E6.75064 ; support material
G1 X72.538 Y48.646 E9.44981 ; support material
G1 X73.627 Y49.739 E9.55494 ; support material
G1 X22.373 Y49.739 E13.04757 ; support material
G1 X21.514 Y50.831 E13.14228 ; support material
G1 X74.486 Y50.831 E16.75195 ; support material
G1 X75.170 Y51.924 E16.83982 ; support material
G1 X20.830 Y51.924 E20.54278 ; support material
G1 X20.290 Y53.017 E20.62583 ; support material
G1 X75.710 Y53.017 E24.40237 ; support material
G1 X76.125 Y54.110 E24.48202 ; support material
G1 X19.875 Y54.110 E28.31515 ; support material
G1 X19.571 Y55.202 E28.39244 ; support material
G1 X76.429 Y55.202 E32.26699 ; support material
G1 X76.631 Y56.295 E32.34271 ; support material
G1 X19.369 Y56.295 E36.24472 ; support material
G1 X19.265 Y57.388 E36.31951 ; support material
G1 X76.735 Y57.388 E40.23574 ; support material
G1 X76.738 Y58.480 E40.31021 ; support material
G1 X19.262 Y58.480 E44.22688 ; support material
G1 X19.353 Y59.573 E44.30160 ; support material
G1 X76.647 Y59.573 E48.20582 ; support material
G1 X76.459 Y60.666 E48.28138 ; support material
G1 X19.541 Y60.666 E52.15997 ; support material
G1 X19.831 Y61.758 E52.23701 ; support material
G1 X76.169 Y61.758 E56.07609 ; support material
G1 X75.769 Y62.851 E56.15539 ; support material
G1 X20.231 Y62.851 E59.93991 ; support material
G1 X20.755 Y63.944 E60.02247 ; support material
G1 X75.245 Y63.944 E63.73563 ; support material
G1 X74.579 Y65.037 E63.82284 ; support material
G1 X21.421 Y65.037 E67.44519 ; support material
G1 X22.259 Y66.129 E67.53903 ; support material
G1 X73.741 Y66.129 E71.04718 ; support material
G1 X72.687 Y67.222 E71.15065 ; support material
G1 X32.849 Y67.222 E73.86531 ; support material
G1 X33.058 Y68.315 F7800.000 ; move to first support material point
G1 X62.942 Y68.315 F1080.000 E75.90167 ; support material
G1 F1800.000 E74.90167 ; retract
G92 E0 ; reset extrusion distance
G1 X64.254 Y70.500 F7800.000 ; move to first support material point
G1 F1800.000 E1.00000 ; compensate retraction
G1 X31.746 Y70.500 F1080.000 E3.21523 ; support material
G1 F1800.000 E2.21523 ; retract
G92 E0 ; reset extrusion distance
G1 X30.442 Y68.315 F7800.000 ; move to first support material point
G1 F1800.000 E1.00000 ; compensate retraction
G1 X24.693 Y68.315 F1080.000 E1.39171 ; support material
G1 X23.313 Y67.222 E1.51166 ; support material
G1 X30.651 Y67.222 E2.01165 ; support material
G1 F1800.000 E1.01165 ; retract
G92 E0 ; reset extrusion distance
G1 X26.648 Y69.407 F7800.000 ; move to first support material point
G1 F1800.000 E1.00000 ; compensate retraction
G1 X69.352 Y69.407 F1080.000 E3.91005 ; support material
G1 X71.307 Y68.315 E4.06263 ; support material
