; generated by Slic3r 0.9.9 on 2014-01-31 at 13:21:39

; layer_height = 0.2
; perimeters = 3
; top_solid_layers = 3
; bottom_solid_layers = 3
; fill_density = 0.15
; perimeter_speed = 45
; infill_speed = 60
; travel_speed = 130
; nozzle_diameter = 0.35
; filament_diameter = 1.75
; extrusion_multiplier = 1
; perimeters extrusion width = 0.52mm
; infill extrusion width = 0.52mm
; solid infill extrusion width = 0.52mm
; top infill extrusion width = 0.52mm
; support material extrusion width = 0.52mm
; first layer extrusion width = 0.60mm

G21 ; set units to millimeters
M107 ; disable fan
M190 S94 ; wait for bed temperature to be reached
M104 S225 ; set temperature
G28 ; home all axes
G1 Z5 F5000 ; lift nozzle
M109 S225 ; wait for temperature to be reached
G90 ; use absolute coordinates
G92 E0 ; reset extrusion distance
M82 ; use absolute distances for extrusion
G1 F1800.000 E-1.00000 ; retract
G92 E0 ; reset extrusion distance
G1 Z0.300 F7800.000 ; move to next layer (0)
G1 X54.570 Y77.580 ; move to first skirt point
G1 F1800.000 E1.00000 ; compensate retraction
G1 X57.690 Y75.320 F810.000 E1.26253 ; skirt
G1 X57.910 Y75.180 E1.28030 ; skirt
G1 X60.480 Y73.960 E1.47416 ; skirt
G1 X63.130 Y72.780 E1.67183 ; skirt
G1 X63.530 Y72.650 E1.70049 ; skirt
G1 X68.540 Y71.540 E2.05017 ; skirt
G1 X68.850 Y71.480 E2.07169 ; skirt
G1 X69.310 Y71.450 E2.10310 ; skirt
G1 X130.680 Y71.450 E6.28508 ; skirt
G1 X131.140 Y71.480 E6.31649 ; skirt
G1 X131.450 Y71.540 E6.33801 ; skirt
G1 X136.460 Y72.650 E6.68769 ; skirt
G1 X136.860 Y72.780 E6.71635 ; skirt
G1 X139.510 Y73.960 E6.91402 ; skirt
G1 X142.080 Y75.180 E7.10788 ; skirt
G1 X142.300 Y75.320 E7.12565 ; skirt
G1 X145.580 Y77.700 E7.40181 ; skirt
G1 X146.930 Y78.800 E7.52047 ; skirt
G1 X147.330 Y79.180 E7.55807 ; skirt
G1 X150.270 Y82.440 E7.85721 ; skirt
G1 X150.420 Y82.610 E7.87266 ; skirt
G1 X150.670 Y82.980 E7.90309 ; skirt
G1 X150.880 Y83.380 E7.93388 ; skirt
G1 X151.040 Y83.810 E7.96514 ; skirt
G1 X151.100 Y84.020 E7.98002 ; skirt
G1 X151.170 Y84.470 E8.01106 ; skirt
G1 X151.300 Y85.920 E8.11026 ; skirt
G1 X151.300 Y114.330 E10.04622 ; skirt
G1 X151.240 Y114.970 E10.09003 ; skirt
G1 X151.140 Y115.390 E10.11945 ; skirt
G1 X150.800 Y116.480 E10.19725 ; skirt
G1 X150.640 Y116.890 E10.22725 ; skirt
G1 X150.310 Y117.460 E10.27213 ; skirt
G1 X150.040 Y117.800 E10.30171 ; skirt
G1 X147.110 Y121.060 E10.60040 ; skirt
G1 X146.800 Y121.370 E10.63028 ; skirt
G1 X145.070 Y122.670 E10.77774 ; skirt
G1 X143.560 Y123.760 E10.90464 ; skirt
G1 X141.910 Y124.900 E11.04131 ; skirt
G1 X141.570 Y125.100 E11.06819 ; skirt
G1 X138.720 Y126.380 E11.28108 ; skirt
G1 X135.910 Y127.470 E11.48647 ; skirt
G1 X135.630 Y127.560 E11.50651 ; skirt
G1 X135.330 Y127.640 E11.52767 ; skirt
G1 X128.300 Y128.750 E12.01265 ; skirt
G1 X127.750 Y128.800 E12.05029 ; skirt
G1 X72.240 Y128.800 E15.83295 ; skirt
G1 X71.690 Y128.750 E15.87058 ; skirt
G1 X64.660 Y127.640 E16.35556 ; skirt
G1 X64.080 Y127.470 E16.39675 ; skirt
G1 X61.270 Y126.380 E16.60214 ; skirt
G1 X58.660 Y125.220 E16.79677 ; skirt
G1 X58.190 Y124.970 E16.83304 ; skirt
G1 X56.430 Y123.760 E16.97858 ; skirt
G1 X54.920 Y122.670 E17.10549 ; skirt
G1 X53.420 Y121.550 E17.23305 ; skirt
G1 X53.090 Y121.280 E17.26211 ; skirt
G1 X49.940 Y117.790 E17.58248 ; skirt
G1 X49.670 Y117.440 E17.61260 ; skirt
G1 X49.440 Y117.060 E17.64287 ; skirt
G1 X49.260 Y116.660 E17.67276 ; skirt
G1 X48.800 Y115.160 E17.77967 ; skirt
G1 X48.730 Y114.750 E17.80801 ; skirt
G1 X48.700 Y114.330 E17.83671 ; skirt
G1 X48.700 Y85.920 E19.77267 ; skirt
G1 X48.720 Y85.570 E19.79656 ; skirt
G1 X48.860 Y84.240 E19.88769 ; skirt
G1 X48.900 Y84.020 E19.90293 ; skirt
G1 X49.030 Y83.590 E19.93354 ; skirt
G1 X49.210 Y83.180 E19.96405 ; skirt
G1 X49.440 Y82.800 E19.99432 ; skirt
G1 X49.720 Y82.450 E20.02487 ; skirt
G1 X52.660 Y79.180 E20.32452 ; skirt
G1 X53.060 Y78.800 E20.36211 ; skirt
G1 X54.504 Y77.629 E20.48882 ; skirt
G1 F1800.000 E19.48882 ; retract
G92 E0 ; reset extrusion distance
G1 X56.146 Y79.432 F7800.000 ; move to first brim point
G1 F1800.000 E1.00000 ; compensate retraction
G1 X56.411 Y79.338 F810.000 E1.01918 ; brim
G1 X56.650 Y79.338 E1.03544 ; brim
G1 X56.760 Y79.000 E1.05966 ; brim
G1 X59.192 Y77.233 E1.26453 ; brim
G1 X59.439 Y77.153 E1.28222 ; brim
G1 X60.355 Y77.153 E1.34468 ; brim
G1 X60.342 Y77.089 E1.34916 ; brim
G1 X60.605 Y76.571 E1.38871 ; brim
G1 X64.127 Y75.003 E1.65143 ; brim
G1 X64.296 Y74.967 E1.66317 ; brim
G1 X67.595 Y74.967 E1.88798 ; brim
G1 X67.595 Y74.355 E1.92973 ; brim
G1 X68.075 Y73.875 E1.97599 ; brim
G1 X130.764 Y73.875 E6.24785 ; brim
G1 X136.891 Y75.240 E6.67562 ; brim
G1 X137.255 Y75.750 E6.71831 ; brim
G1 X137.221 Y76.060 E6.73960 ; brim
G1 X138.166 Y76.060 E6.80400 ; brim
G1 X138.342 Y76.100 E6.81631 ; brim
G1 X141.723 Y77.688 E7.07088 ; brim
G1 X141.977 Y78.205 E7.11012 ; brim
G1 X141.968 Y78.246 E7.11293 ; brim
G1 X142.065 Y78.246 E7.11957 ; brim
G1 X142.312 Y78.326 E7.13726 ; brim
G1 X144.744 Y80.093 E7.34213 ; brim
G1 X144.854 Y80.431 E7.36635 ; brim
G1 X145.000 Y80.431 E7.37630 ; brim
G1 X145.318 Y80.573 E7.40004 ; brim
G1 X149.283 Y84.976 E7.80378 ; brim
G1 X148.878 Y85.885 E7.87164 ; brim
G1 X148.878 Y113.615 E9.76127 ; brim
G1 X149.073 Y113.880 E9.78367 ; brim
G1 X148.339 Y116.225 E9.95111 ; brim
G1 X147.933 Y116.524 E9.98543 ; brim
G1 X146.075 Y118.587 E10.17467 ; brim
G1 X146.005 Y118.618 E10.17985 ; brim
G1 X145.867 Y119.055 E10.21107 ; brim
G1 X143.476 Y120.832 E10.41406 ; brim
G1 X143.225 Y120.914 E10.43206 ; brim
G1 X143.021 Y120.914 E10.44598 ; brim
G1 X142.892 Y121.284 E10.47264 ; brim
G1 X140.349 Y123.026 E10.68274 ; brim
G1 X140.112 Y123.100 E10.69964 ; brim
G1 X139.083 Y123.100 E10.76977 ; brim
G1 X139.105 Y123.221 E10.77815 ; brim
G1 X138.818 Y123.738 E10.81844 ; brim
G1 X134.920 Y125.257 E11.10356 ; brim
G1 X134.770 Y125.285 E11.11397 ; brim
G1 X129.478 Y125.285 E11.47457 ; brim
G1 X129.478 Y125.898 E11.51632 ; brim
G1 X128.998 Y126.378 E11.56258 ; brim
G1 X71.002 Y126.378 E15.51465 ; brim
G1 X70.522 Y125.898 E15.56091 ; brim
G1 X70.522 Y125.285 E15.60266 ; brim
G1 X64.123 Y125.285 E16.03868 ; brim
G1 X63.643 Y124.805 E16.08494 ; brim
G1 X63.643 Y124.193 E16.12669 ; brim
G1 X62.409 Y124.193 E16.21078 ; brim
G1 X62.241 Y124.157 E16.22252 ; brim
G1 X58.719 Y122.589 E16.48524 ; brim
G1 X58.455 Y122.071 E16.52479 ; brim
G1 X58.469 Y122.007 E16.52927 ; brim
G1 X58.283 Y122.007 E16.54195 ; brim
G1 X58.036 Y121.927 E16.55964 ; brim
G1 X55.604 Y120.160 E16.76451 ; brim
G1 X55.494 Y119.822 E16.78873 ; brim
G1 X55.227 Y119.822 E16.80688 ; brim
G1 X54.909 Y119.680 E16.83062 ; brim
G1 X50.945 Y115.277 E17.23437 ; brim
G1 X51.122 Y114.878 E17.26410 ; brim
G1 X51.122 Y86.573 E19.19296 ; brim
G1 X51.055 Y86.499 E19.19974 ; brim
G1 X51.303 Y84.130 E19.36202 ; brim
G1 X51.771 Y83.709 E19.40491 ; brim
G1 X51.858 Y83.709 E19.41080 ; brim
G1 X53.574 Y81.803 E19.58557 ; brim
G1 X53.494 Y81.578 E19.60186 ; brim
G1 X56.082 Y79.484 E19.82873 ; brim
G1 X56.417 Y79.916 F7800.000 ; move to first brim point
G1 X56.505 Y79.885 F810.000 E19.83512 ; brim
G1 X57.346 Y79.885 E19.89240 ; brim
G1 X57.276 Y79.834 E19.89828 ; brim
G1 X57.170 Y79.507 E19.92172 ; brim
G1 X57.224 Y79.338 E19.93382 ; brim
G1 X59.443 Y77.726 E20.12069 ; brim
G1 X59.525 Y77.699 E20.12659 ; brim
G1 X61.100 Y77.699 E20.23387 ; brim
G1 X61.016 Y77.631 E20.24125 ; brim
G1 X60.916 Y77.164 E20.27377 ; brim
G1 X61.004 Y76.992 E20.28696 ; brim
G1 X64.297 Y75.526 E20.53258 ; brim
G1 X68.248 Y75.514 E20.80179 ; brim
G1 X68.141 Y75.407 E20.81204 ; brim
G1 X68.141 Y74.581 E20.86835 ; brim
G1 X68.301 Y74.421 E20.88377 ; brim
G1 X130.734 Y74.421 E25.13815 ; brim
G1 X136.568 Y75.727 E25.54554 ; brim
G1 X136.689 Y75.897 E25.55977 ; brim
G1 X136.620 Y76.521 E25.60254 ; brim
G1 X136.524 Y76.606 E25.61129 ; brim
G1 X138.106 Y76.606 E25.71904 ; brim
G1 X138.164 Y76.620 E25.72315 ; brim
G1 X141.317 Y78.101 E25.96054 ; brim
G1 X141.402 Y78.273 E25.97361 ; brim
G1 X141.301 Y78.726 E26.00518 ; brim
G1 X141.218 Y78.792 E26.01241 ; brim
G1 X141.979 Y78.792 E26.06424 ; brim
G1 X142.061 Y78.819 E26.07013 ; brim
G1 X144.280 Y80.431 E26.25701 ; brim
G1 X144.334 Y80.599 E26.26911 ; brim
G1 X144.228 Y80.927 E26.29255 ; brim
G1 X144.158 Y80.977 E26.29843 ; brim
G1 X144.884 Y80.977 E26.34788 ; brim
G1 X144.990 Y81.025 E26.35580 ; brim
G1 X146.672 Y82.892 E26.52706 ; brim
G1 X146.551 Y83.163 E26.54723 ; brim
G1 X146.852 Y83.163 E26.56770 ; brim
G1 X146.958 Y83.210 E26.57562 ; brim
G1 X148.640 Y85.078 E26.74688 ; brim
G1 X148.495 Y85.402 E26.77105 ; brim
G1 X148.225 Y85.402 E26.78945 ; brim
G1 X148.332 Y85.508 E26.79970 ; brim
G1 X148.332 Y87.427 E26.93047 ; brim
G1 X148.198 Y87.560 E26.94331 ; brim
G1 X148.332 Y87.694 E26.95614 ; brim
G1 X148.332 Y89.613 E27.08691 ; brim
G1 X148.198 Y89.746 E27.09975 ; brim
G1 X148.332 Y89.879 E27.11258 ; brim
G1 X148.332 Y91.798 E27.24335 ; brim
G1 X148.198 Y91.931 E27.25619 ; brim
G1 X148.332 Y92.064 E27.26902 ; brim
G1 X148.332 Y93.983 E27.39979 ; brim
G1 X148.198 Y94.117 E27.41263 ; brim
G1 X148.332 Y94.250 E27.42546 ; brim
G1 X148.332 Y96.169 E27.55623 ; brim
G1 X148.198 Y96.302 E27.56907 ; brim
G1 X148.332 Y96.435 E27.58190 ; brim
G1 X148.332 Y98.354 E27.71267 ; brim
G1 X148.198 Y98.487 E27.72551 ; brim
G1 X148.332 Y98.621 E27.73834 ; brim
G1 X148.332 Y100.540 E27.86911 ; brim
G1 X148.198 Y100.673 E27.88195 ; brim
G1 X148.332 Y100.806 E27.89478 ; brim
G1 X148.332 Y102.725 E28.02555 ; brim
G1 X148.198 Y102.858 E28.03839 ; brim
G1 X148.332 Y102.991 E28.05122 ; brim
G1 X148.332 Y104.910 E28.18199 ; brim
G1 X148.198 Y105.043 E28.19483 ; brim
G1 X148.332 Y105.177 E28.20766 ; brim
G1 X148.332 Y107.096 E28.33843 ; brim
G1 X148.198 Y107.229 E28.35127 ; brim
G1 X148.332 Y107.362 E28.36411 ; brim
G1 X148.332 Y109.281 E28.49487 ; brim
G1 X148.198 Y109.414 E28.50771 ; brim
G1 X148.332 Y109.547 E28.52055 ; brim
G1 X148.332 Y111.466 E28.65131 ; brim
G1 X148.198 Y111.600 E28.66415 ; brim
G1 X148.332 Y111.733 E28.67699 ; brim
G1 X148.332 Y113.652 E28.80775 ; brim
G1 X148.225 Y113.758 E28.81801 ; brim
G1 X148.305 Y113.758 E28.82344 ; brim
G1 X148.469 Y113.981 E28.84228 ; brim
G1 X147.871 Y115.891 E28.97867 ; brim
G1 X147.727 Y115.997 E28.99088 ; brim
G1 X147.308 Y115.997 E29.01942 ; brim
G1 X147.428 Y116.268 E29.03959 ; brim
G1 X145.746 Y118.135 E29.21085 ; brim
G1 X145.640 Y118.183 E29.21876 ; brim
G1 X145.278 Y118.183 E29.24348 ; brim
G1 X145.347 Y118.233 E29.24928 ; brim
G1 X145.453 Y118.553 E29.27230 ; brim
G1 X145.400 Y118.722 E29.28435 ; brim
G1 X143.221 Y120.340 E29.46930 ; brim
G1 X143.137 Y120.368 E29.47530 ; brim
G1 X142.316 Y120.368 E29.53126 ; brim
G1 X142.388 Y120.421 E29.53734 ; brim
G1 X142.494 Y120.765 E29.56188 ; brim
G1 X142.435 Y120.935 E29.57412 ; brim
G1 X140.108 Y122.529 E29.76635 ; brim
G1 X140.029 Y122.554 E29.77198 ; brim
G1 X138.351 Y122.554 E29.88637 ; brim
G1 X138.438 Y122.626 E29.89408 ; brim
G1 X138.532 Y123.128 E29.92889 ; brim
G1 X138.436 Y123.300 E29.94232 ; brim
G1 X134.769 Y124.730 E30.21054 ; brim
G1 X128.825 Y124.739 E30.61557 ; brim
G1 X128.932 Y124.845 E30.62582 ; brim
G1 X128.932 Y125.672 E30.68212 ; brim
G1 X128.772 Y125.832 E30.69755 ; brim
G1 X71.228 Y125.832 E34.61877 ; brim
G1 X71.068 Y125.672 E34.63419 ; brim
G1 X71.068 Y124.845 E34.69049 ; brim
G1 X71.175 Y124.739 E34.70075 ; brim
G1 X64.350 Y124.739 E35.16582 ; brim
G1 X64.190 Y124.579 E35.18125 ; brim
G1 X64.190 Y123.753 E35.23755 ; brim
G1 X64.296 Y123.646 E35.24780 ; brim
G1 X62.411 Y123.634 E35.37629 ; brim
G1 X59.118 Y122.168 E35.62192 ; brim
G1 X59.030 Y121.996 E35.63510 ; brim
G1 X59.129 Y121.529 E35.66763 ; brim
G1 X59.213 Y121.461 E35.67500 ; brim
G1 X58.369 Y121.461 E35.73251 ; brim
G1 X58.287 Y121.434 E35.73840 ; brim
G1 X56.068 Y119.822 E35.92528 ; brim
G1 X56.013 Y119.653 E35.93738 ; brim
G1 X56.120 Y119.326 E35.96082 ; brim
G1 X56.190 Y119.275 E35.96670 ; brim
G1 X55.344 Y119.275 E36.02435 ; brim
G1 X55.237 Y119.228 E36.03226 ; brim
G1 X53.556 Y117.360 E36.20352 ; brim
G1 X53.676 Y117.090 E36.22370 ; brim
G1 X53.376 Y117.090 E36.24417 ; brim
G1 X53.270 Y117.043 E36.25208 ; brim
G1 X51.588 Y115.175 E36.42334 ; brim
G1 X51.732 Y114.851 E36.44752 ; brim
G1 X51.775 Y114.851 E36.45041 ; brim
G1 X51.668 Y114.745 E36.46066 ; brim
G1 X51.668 Y112.826 E36.59143 ; brim
G1 X51.802 Y112.692 E36.60427 ; brim
G1 X51.668 Y112.559 E36.61710 ; brim
G1 X51.668 Y110.640 E36.74787 ; brim
G1 X51.802 Y110.507 E36.76071 ; brim
G1 X51.668 Y110.374 E36.77354 ; brim
G1 X51.668 Y108.455 E36.90431 ; brim
G1 X51.802 Y108.322 E36.91715 ; brim
G1 X51.668 Y108.188 E36.92999 ; brim
G1 X51.668 Y106.269 E37.06075 ; brim
G1 X51.802 Y106.136 E37.07359 ; brim
G1 X51.668 Y106.003 E37.08643 ; brim
G1 X51.668 Y104.084 E37.21719 ; brim
G1 X51.802 Y103.951 E37.23003 ; brim
G1 X51.668 Y103.818 E37.24287 ; brim
G1 X51.668 Y101.899 E37.37363 ; brim
G1 X51.802 Y101.765 E37.38647 ; brim
G1 X51.668 Y101.632 E37.39931 ; brim
G1 X51.668 Y99.713 E37.53007 ; brim
G1 X51.802 Y99.580 E37.54291 ; brim
G1 X51.668 Y99.447 E37.55575 ; brim
G1 X51.668 Y97.528 E37.68652 ; brim
G1 X51.802 Y97.395 E37.69935 ; brim
G1 X51.668 Y97.261 E37.71219 ; brim
G1 X51.668 Y95.342 E37.84296 ; brim
G1 X51.802 Y95.209 E37.85579 ; brim
G1 X51.668 Y95.076 E37.86863 ; brim
G1 X51.668 Y93.157 E37.99940 ; brim
G1 X51.802 Y93.024 E38.01223 ; brim
G1 X51.668 Y92.891 E38.02507 ; brim
G1 X51.668 Y90.972 E38.15584 ; brim
G1 X51.802 Y90.838 E38.16867 ; brim
G1 X51.668 Y90.705 E38.18151 ; brim
G1 X51.668 Y88.786 E38.31228 ; brim
G1 X51.802 Y88.653 E38.32511 ; brim
G1 X51.668 Y88.520 E38.33795 ; brim
G1 X51.668 Y86.601 E38.46872 ; brim
G1 X51.781 Y86.488 E38.47958 ; brim
G1 X51.624 Y86.314 E38.49557 ; brim
G1 X51.825 Y84.396 E38.62698 ; brim
G1 X51.981 Y84.255 E38.64128 ; brim
G1 X52.465 Y84.255 E38.67425 ; brim
G1 X52.344 Y83.985 E38.69443 ; brim
G1 X54.026 Y82.117 E38.86569 ; brim
G1 X54.132 Y82.070 E38.87360 ; brim
G1 X54.248 Y82.070 E38.88148 ; brim
G1 X54.138 Y81.760 E38.90392 ; brim
G1 X56.353 Y79.967 E39.09808 ; brim
G1 F1800.000 E38.09808 ; retract
G92 E0 ; reset extrusion distance
G1 X69.315 Y74.994 F7800.000 ; move to first support material point
G1 F1800.000 E1.00000 ; compensate retraction
G1 X130.685 Y74.994 F1080.000 E5.18204 ; support material
G1 X135.554 Y76.087 E5.52207 ; support material
G1 X64.446 Y76.087 E10.36766 ; support material
G1 X61.992 Y77.180 E10.55073 ; support material
G1 X138.008 Y77.180 E15.73080 ; support material
G1 X140.334 Y78.272 E15.90589 ; support material
G1 X59.666 Y78.272 E21.40289 ; support material
G1 X58.162 Y79.365 E21.52957 ; support material
G1 X141.838 Y79.365 E27.23155 ; support material
G1 X143.342 Y80.458 E27.35823 ; support material
G1 X56.658 Y80.458 E33.26517 ; support material
G1 X55.308 Y81.550 E33.38356 ; support material
G1 X144.692 Y81.550 E39.47457 ; support material
G1 X145.676 Y82.643 E39.57477 ; support material
G1 X54.324 Y82.643 E45.79987 ; support material
G1 X53.340 Y83.736 E45.90007 ; support material
G1 X146.660 Y83.736 E52.25926 ; support material
G1 X147.644 Y84.829 E52.35945 ; support material
G1 X52.356 Y84.829 E58.85273 ; support material
G1 X52.242 Y85.921 E58.92760 ; support material
G1 X147.758 Y85.921 E65.43648 ; support material
G1 X147.758 Y87.014 E65.51094 ; support material
G1 X52.242 Y87.014 E72.01981 ; support material
G1 X52.242 Y88.107 E72.09427 ; support material
G1 X74.937 Y88.107 E73.64079 ; support material
G1 X75.167 Y88.107 F7800.000 ; move to first support material point
G1 X147.758 Y88.107 F1080.000 E78.58747 ; support material
G1 X147.758 Y89.199 E78.66193 ; support material
G1 X52.242 Y89.199 E85.17080 ; support material
G1 X52.242 Y90.292 E85.24526 ; support material
G1 X147.758 Y90.292 E91.75414 ; support material
G1 X147.758 Y91.385 E91.82860 ; support material
G1 X52.242 Y91.385 E98.33747 ; support material
G1 X52.242 Y92.477 E98.41193 ; support material
G1 X147.758 Y92.477 E104.92081 ; support material
G1 X147.758 Y93.570 E104.99527 ; support material
G1 X52.242 Y93.570 E111.50414 ; support material
G1 X52.242 Y94.663 E111.57861 ; support material
