; generated by Slic3r 0.9.9 on 2014-01-22 at 20:42:18

; layer_height = 0.2
; perimeters = 3
; top_solid_layers = 3
; bottom_solid_layers = 3
; fill_density = 0.15
; perimeter_speed = 45
; infill_speed = 60
; travel_speed = 130
; nozzle_diameter = 0.35
; filament_diameter = 1.75
; extrusion_multiplier = 1
; perimeters extrusion width = 0.52mm
; infill extrusion width = 0.52mm
; solid infill extrusion width = 0.52mm
; top infill extrusion width = 0.52mm
; support material extrusion width = 0.52mm
; first layer extrusion width = 0.60mm

G21 ; set units to millimeters
M107 ; disable fan
M190 S94 ; wait for bed temperature to be reached
M104 S225 ; set temperature
G28 ; home all axes
G1 Z5 F5000 ; lift nozzle
M109 S225 ; wait for temperature to be reached
G90 ; use absolute coordinates
G92 E0 ; reset extrusion distance
M82 ; use absolute distances for extrusion
G1 F1800.000 E-1.00000 ; retract
G92 E0 ; reset extrusion distance
G1 Z0.300 F7800.000 ; move to next layer (0)
G1 X27.100 Y20.020 ; move to first skirt point
G1 F1800.000 E1.00000 ; compensate retraction
G1 X28.250 Y18.620 F810.000 E1.12346 ; skirt
G1 X29.240 Y17.530 E1.22380 ; skirt
G1 X30.540 Y16.270 E1.34717 ; skirt
G1 X32.190 Y14.860 E1.49507 ; skirt
G1 X33.670 Y13.770 E1.62032 ; skirt
G1 X35.920 Y12.380 E1.80054 ; skirt
G1 X38.080 Y11.280 E1.96572 ; skirt
G1 X38.440 Y11.120 E1.99257 ; skirt
G1 X41.590 Y9.940 E2.22179 ; skirt
G1 X42.000 Y9.850 E2.25039 ; skirt
G1 X48.500 Y8.770 E2.69940 ; skirt
G1 X49.080 Y8.720 E2.73907 ; skirt
G1 X50.910 Y8.720 E2.86377 ; skirt
G1 X51.490 Y8.770 E2.90344 ; skirt
G1 X58.130 Y9.880 E3.36219 ; skirt
G1 X58.400 Y9.940 E3.38104 ; skirt
G1 X58.660 Y10.030 E3.39979 ; skirt
G1 X61.550 Y11.120 E3.61027 ; skirt
G1 X61.910 Y11.280 E3.63711 ; skirt
G1 X64.070 Y12.380 E3.80229 ; skirt
G1 X64.330 Y12.530 E3.82274 ; skirt
G1 X66.320 Y13.770 E3.98252 ; skirt
G1 X67.800 Y14.860 E4.10777 ; skirt
G1 X69.290 Y16.120 E4.24074 ; skirt
G1 X70.750 Y17.530 E4.37906 ; skirt
G1 X71.740 Y18.620 E4.47940 ; skirt
G1 X72.890 Y20.020 E4.60286 ; skirt
G1 X73.770 Y21.250 E4.70592 ; skirt
G1 X74.570 Y22.480 E4.80590 ; skirt
G1 X75.210 Y23.570 E4.89204 ; skirt
G1 X75.940 Y24.990 E5.00084 ; skirt
G1 X76.440 Y26.090 E5.08318 ; skirt
G1 X76.940 Y27.320 E5.17365 ; skirt
G1 X77.380 Y28.570 E5.26396 ; skirt
G1 X77.750 Y29.830 E5.35344 ; skirt
G1 X78.090 Y31.200 E5.44963 ; skirt
G1 X78.350 Y32.470 E5.53797 ; skirt
G1 X78.540 Y33.690 E5.62211 ; skirt
G1 X78.670 Y34.790 E5.69759 ; skirt
G1 X78.770 Y36.200 E5.79391 ; skirt
G1 X78.800 Y37.290 E5.86822 ; skirt
G1 X78.800 Y122.720 E11.68973 ; skirt
G1 X78.770 Y123.810 E11.76404 ; skirt
G1 X78.670 Y125.200 E11.85900 ; skirt
G1 X78.550 Y126.290 E11.93373 ; skirt
G1 X78.320 Y127.690 E12.03041 ; skirt
G1 X78.100 Y128.780 E12.10618 ; skirt
G1 X77.790 Y130.030 E12.19394 ; skirt
G1 X77.370 Y131.440 E12.29420 ; skirt
G1 X76.990 Y132.530 E12.37286 ; skirt
G1 X76.490 Y133.780 E12.46460 ; skirt
G1 X75.920 Y135.030 E12.55822 ; skirt
G1 X75.200 Y136.440 E12.66610 ; skirt
G1 X74.560 Y137.530 E12.75224 ; skirt
G1 X73.770 Y138.750 E12.85128 ; skirt
G1 X72.850 Y140.020 E12.95814 ; skirt
G1 X71.700 Y141.410 E13.08108 ; skirt
G1 X70.700 Y142.500 E13.18188 ; skirt
G1 X69.250 Y143.920 E13.32018 ; skirt
G1 X67.770 Y145.150 E13.45131 ; skirt
G1 X66.290 Y146.240 E13.57656 ; skirt
G1 X66.060 Y146.390 E13.59528 ; skirt
G1 X64.010 Y147.650 E13.75925 ; skirt
G1 X61.840 Y148.740 E13.92473 ; skirt
G1 X61.490 Y148.890 E13.95067 ; skirt
G1 X58.580 Y149.980 E14.16243 ; skirt
G1 X58.150 Y150.110 E14.19304 ; skirt
G1 X57.860 Y150.170 E14.21322 ; skirt
G1 X50.520 Y151.260 E14.71888 ; skirt
G1 X50.000 Y151.300 E14.75442 ; skirt
G1 X49.470 Y151.260 E14.79064 ; skirt
G1 X42.130 Y150.170 E15.29630 ; skirt
G1 X41.690 Y150.070 E15.32704 ; skirt
G1 X41.410 Y149.980 E15.34709 ; skirt
G1 X38.500 Y148.890 E15.55884 ; skirt
G1 X38.150 Y148.740 E15.58479 ; skirt
G1 X35.980 Y147.650 E15.75027 ; skirt
G1 X35.700 Y147.490 E15.77224 ; skirt
G1 X33.700 Y146.240 E15.93296 ; skirt
G1 X32.040 Y145.010 E16.07375 ; skirt
G1 X30.740 Y143.920 E16.18935 ; skirt
G1 X29.290 Y142.500 E16.32765 ; skirt
G1 X28.290 Y141.410 E16.42845 ; skirt
G1 X27.140 Y140.020 E16.55138 ; skirt
G1 X26.340 Y138.930 E16.64352 ; skirt
G1 X25.430 Y137.530 E16.75730 ; skirt
G1 X24.790 Y136.440 E16.84344 ; skirt
G1 X24.070 Y135.030 E16.95132 ; skirt
G1 X23.500 Y133.780 E17.04494 ; skirt
G1 X23.000 Y132.530 E17.13668 ; skirt
G1 X22.620 Y131.440 E17.21534 ; skirt
G1 X22.250 Y130.210 E17.30287 ; skirt
G1 X21.890 Y128.780 E17.40335 ; skirt
G1 X21.670 Y127.690 E17.47913 ; skirt
G1 X21.450 Y126.290 E17.57570 ; skirt
G1 X21.330 Y125.200 E17.65043 ; skirt
G1 X21.240 Y123.970 E17.73447 ; skirt
G1 X21.200 Y122.720 E17.81969 ; skirt
G1 X21.200 Y37.290 E23.64121 ; skirt
G1 X21.230 Y36.200 E23.71551 ; skirt
G1 X21.330 Y34.790 E23.81184 ; skirt
G1 X21.470 Y33.590 E23.89416 ; skirt
G1 X21.670 Y32.290 E23.98379 ; skirt
G1 X21.900 Y31.200 E24.05971 ; skirt
G1 X22.240 Y29.830 E24.15589 ; skirt
G1 X22.610 Y28.570 E24.24538 ; skirt
G1 X22.990 Y27.480 E24.32404 ; skirt
G1 X23.490 Y26.230 E24.41578 ; skirt
G1 X24.050 Y24.990 E24.50850 ; skirt
G1 X24.780 Y23.570 E24.61730 ; skirt
G1 X25.420 Y22.480 E24.70343 ; skirt
G1 X26.220 Y21.250 E24.80342 ; skirt
G1 X27.052 Y20.087 E24.90089 ; skirt
G1 F1800.000 E23.90089 ; retract
G92 E0 ; reset extrusion distance
G1 X29.235 Y21.147 F7800.000 ; move to first brim point
G1 F1800.000 E1.00000 ; compensate retraction
G1 X31.245 Y18.948 F810.000 E1.20302 ; brim
G1 X31.214 Y18.864 E1.20911 ; brim
G1 X33.765 Y16.708 E1.43675 ; brim
G1 X34.038 Y16.608 E1.45655 ; brim
G1 X34.210 Y16.608 E1.46826 ; brim
G1 X34.373 Y16.187 E1.49899 ; brim
G1 X37.111 Y14.485 E1.71869 ; brim
G1 X37.331 Y14.422 E1.73432 ; brim
G1 X38.047 Y14.422 E1.78310 ; brim
G1 X38.023 Y14.289 E1.79236 ; brim
G1 X38.315 Y13.772 E1.83282 ; brim
G1 X42.310 Y12.264 E2.12377 ; brim
G1 X42.456 Y12.237 E2.13388 ; brim
G1 X47.366 Y12.237 E2.46849 ; brim
G1 X47.366 Y11.624 E2.51024 ; brim
G1 X47.846 Y11.144 E2.55650 ; brim
G1 X52.154 Y11.144 E2.85007 ; brim
G1 X52.634 Y11.624 E2.89633 ; brim
G1 X52.634 Y12.237 E2.93808 ; brim
G1 X58.655 Y12.237 E3.34836 ; brim
G1 X59.135 Y12.717 E3.39463 ; brim
G1 X59.135 Y13.330 E3.43637 ; brim
G1 X60.477 Y13.330 E3.52785 ; brim
G1 X60.665 Y13.374 E3.54099 ; brim
G1 X63.862 Y14.992 E3.78513 ; brim
G1 X64.099 Y15.515 E3.82426 ; brim
G1 X64.457 Y15.515 E3.84862 ; brim
G1 X64.706 Y15.597 E3.86653 ; brim
G1 X67.109 Y17.371 E4.07005 ; brim
G1 X67.214 Y17.701 E4.09361 ; brim
G1 X67.282 Y17.701 E4.09825 ; brim
G1 X67.579 Y17.821 E4.12009 ; brim
G1 X69.825 Y20.011 E4.33383 ; brim
G1 X69.801 Y20.070 E4.33819 ; brim
G1 X71.605 Y22.282 E4.53267 ; brim
G1 X71.582 Y22.329 E4.53629 ; brim
G1 X73.025 Y24.545 E4.71647 ; brim
G1 X73.004 Y24.584 E4.71947 ; brim
G1 X74.149 Y26.802 E4.88957 ; brim
G1 X74.130 Y26.833 E4.89205 ; brim
G1 X75.018 Y29.054 E5.05501 ; brim
G1 X75.001 Y29.078 E5.05705 ; brim
G1 X75.662 Y31.300 E5.21500 ; brim
G1 X75.647 Y31.320 E5.21664 ; brim
G1 X76.100 Y33.543 E5.37124 ; brim
G1 X76.088 Y33.557 E5.37252 ; brim
G1 X76.333 Y35.650 E5.51608 ; brim
G1 X76.391 Y38.021 E5.67773 ; brim
G1 X76.378 Y38.035 E5.67902 ; brim
G1 X76.374 Y123.100 E11.47570 ; brim
G1 X76.395 Y123.123 E11.47779 ; brim
G1 X76.243 Y125.360 E11.63063 ; brim
G1 X75.888 Y127.584 E11.78408 ; brim
G1 X75.901 Y127.601 E11.78555 ; brim
G1 X75.344 Y129.824 E11.94169 ; brim
G1 X75.360 Y129.846 E11.94352 ; brim
G1 X74.586 Y132.066 E12.10379 ; brim
G1 X74.604 Y132.094 E12.10605 ; brim
G1 X73.589 Y134.314 E12.27235 ; brim
G1 X73.609 Y134.349 E12.27508 ; brim
G1 X72.319 Y136.566 E12.44991 ; brim
G1 X72.340 Y136.609 E12.45318 ; brim
G1 X70.723 Y138.822 E12.63999 ; brim
G1 X70.747 Y138.876 E12.64397 ; brim
G1 X68.734 Y141.074 E12.84707 ; brim
G1 X68.766 Y141.160 E12.85330 ; brim
G1 X66.204 Y143.315 E13.08142 ; brim
G1 X65.932 Y143.415 E13.10115 ; brim
G1 X65.760 Y143.415 E13.11287 ; brim
G1 X65.596 Y143.838 E13.14380 ; brim
G1 X62.848 Y145.537 E13.36399 ; brim
G1 X62.628 Y145.600 E13.37955 ; brim
G1 X61.903 Y145.600 E13.42898 ; brim
G1 X61.927 Y145.736 E13.43839 ; brim
G1 X61.634 Y146.253 E13.47888 ; brim
G1 X57.623 Y147.759 E13.77088 ; brim
G1 X57.477 Y147.785 E13.78093 ; brim
G1 X51.724 Y147.785 E14.17303 ; brim
G1 X51.724 Y148.398 E14.21477 ; brim
G1 X51.244 Y148.878 E14.26104 ; brim
G1 X48.756 Y148.878 E14.43052 ; brim
G1 X48.276 Y148.398 E14.47678 ; brim
G1 X48.276 Y147.785 E14.51853 ; brim
G1 X41.411 Y147.785 E14.98634 ; brim
G1 X40.931 Y147.305 E15.03260 ; brim
G1 X40.931 Y146.693 E15.07435 ; brim
G1 X39.573 Y146.693 E15.16688 ; brim
G1 X39.387 Y146.648 E15.17996 ; brim
G1 X36.178 Y145.032 E15.42475 ; brim
G1 X35.940 Y144.507 E15.46404 ; brim
G1 X35.575 Y144.507 E15.48892 ; brim
G1 X35.326 Y144.425 E15.50681 ; brim
G1 X32.920 Y142.652 E15.71047 ; brim
G1 X32.814 Y142.322 E15.73410 ; brim
G1 X32.741 Y142.322 E15.73907 ; brim
G1 X32.445 Y142.201 E15.76088 ; brim
G1 X30.195 Y140.012 E15.97479 ; brim
G1 X30.219 Y139.953 E15.97917 ; brim
G1 X28.412 Y137.741 E16.17378 ; brim
G1 X28.435 Y137.693 E16.17740 ; brim
G1 X26.988 Y135.478 E16.35770 ; brim
G1 X27.009 Y135.439 E16.36073 ; brim
G1 X25.862 Y133.221 E16.53091 ; brim
G1 X25.881 Y133.190 E16.53339 ; brim
G1 X24.990 Y130.969 E16.69641 ; brim
G1 X25.007 Y130.945 E16.69845 ; brim
G1 X24.344 Y128.723 E16.85645 ; brim
G1 X24.358 Y128.703 E16.85811 ; brim
G1 X23.904 Y126.480 E17.01273 ; brim
G1 X23.916 Y126.466 E17.01401 ; brim
G1 X23.667 Y124.373 E17.15763 ; brim
G1 X23.609 Y122.001 E17.31928 ; brim
G1 X23.622 Y121.988 E17.32052 ; brim
G1 X23.625 Y36.922 E23.11726 ; brim
G1 X23.605 Y36.900 E23.11926 ; brim
G1 X23.755 Y34.663 E23.27209 ; brim
G1 X24.108 Y32.439 E23.42552 ; brim
G1 X24.094 Y32.422 E23.42699 ; brim
G1 X24.649 Y30.199 E23.58308 ; brim
G1 X24.633 Y30.177 E23.58491 ; brim
G1 X25.405 Y27.956 E23.74513 ; brim
G1 X25.387 Y27.929 E23.74739 ; brim
G1 X26.399 Y25.709 E23.91361 ; brim
G1 X26.379 Y25.674 E23.91634 ; brim
G1 X27.666 Y23.457 E24.09105 ; brim
G1 X27.645 Y23.414 E24.09434 ; brim
G1 X29.244 Y21.220 E24.27942 ; brim
G1 X29.655 Y21.584 F7800.000 ; move to first brim point
G1 X29.771 Y21.525 F810.000 E24.28834 ; brim
G1 X29.999 Y21.525 E24.30382 ; brim
G1 X29.878 Y21.253 E24.32410 ; brim
G1 X31.584 Y19.386 E24.49641 ; brim
G1 X31.689 Y19.340 E24.50425 ; brim
G1 X31.970 Y19.340 E24.52335 ; brim
G1 X31.858 Y19.035 E24.54548 ; brim
G1 X34.044 Y17.187 E24.74050 ; brim
G1 X34.135 Y17.154 E24.74710 ; brim
G1 X34.932 Y17.154 E24.80138 ; brim
G1 X34.857 Y17.098 E24.80778 ; brim
G1 X34.750 Y16.725 E24.83417 ; brim
G1 X34.816 Y16.555 E24.84664 ; brim
G1 X37.334 Y14.990 E25.04866 ; brim
G1 X37.408 Y14.969 E25.05387 ; brim
G1 X38.777 Y14.969 E25.14715 ; brim
G1 X38.689 Y14.896 E25.15493 ; brim
G1 X38.596 Y14.385 E25.19027 ; brim
G1 X38.693 Y14.213 E25.20376 ; brim
G1 X42.456 Y12.792 E25.47785 ; brim
G1 X48.019 Y12.783 E25.85688 ; brim
G1 X47.912 Y12.677 E25.86714 ; brim
G1 X47.912 Y11.851 E25.92344 ; brim
G1 X48.072 Y11.691 E25.93886 ; brim
G1 X51.928 Y11.691 E26.20159 ; brim
G1 X52.088 Y11.851 E26.21701 ; brim
G1 X52.088 Y12.677 E26.27332 ; brim
G1 X51.981 Y12.783 E26.28357 ; brim
G1 X58.429 Y12.783 E26.72291 ; brim
G1 X58.589 Y12.943 E26.73833 ; brim
G1 X58.589 Y13.770 E26.79464 ; brim
G1 X58.482 Y13.876 E26.80489 ; brim
G1 X60.413 Y13.876 E26.93646 ; brim
G1 X60.476 Y13.891 E26.94084 ; brim
G1 X63.446 Y15.394 E27.16768 ; brim
G1 X63.525 Y15.566 E27.18060 ; brim
G1 X63.422 Y15.998 E27.21082 ; brim
G1 X63.342 Y16.061 E27.21784 ; brim
G1 X64.369 Y16.061 E27.28787 ; brim
G1 X64.452 Y16.089 E27.29384 ; brim
G1 X66.642 Y17.706 E27.47933 ; brim
G1 X66.696 Y17.874 E27.49139 ; brim
G1 X66.590 Y18.197 E27.51453 ; brim
G1 X66.521 Y18.247 E27.52035 ; brim
G1 X67.175 Y18.247 E27.56497 ; brim
G1 X67.274 Y18.287 E27.57225 ; brim
G1 X69.180 Y20.145 E27.75365 ; brim
G1 X69.064 Y20.432 E27.77476 ; brim
G1 X69.323 Y20.432 E27.79243 ; brim
G1 X69.434 Y20.485 E27.80082 ; brim
G1 X70.963 Y22.359 E27.96564 ; brim
G1 X70.841 Y22.618 E27.98513 ; brim
G1 X71.039 Y22.618 E27.99866 ; brim
G1 X71.161 Y22.684 E28.00810 ; brim
G1 X72.390 Y24.571 E28.16155 ; brim
G1 X72.264 Y24.803 E28.17956 ; brim
G1 X72.413 Y24.803 E28.18970 ; brim
G1 X72.544 Y24.883 E28.20015 ; brim
G1 X73.522 Y26.780 E28.34562 ; brim
G1 X73.395 Y26.988 E28.36225 ; brim
G1 X73.502 Y26.988 E28.36952 ; brim
G1 X73.641 Y27.082 E28.38094 ; brim
G1 X74.403 Y28.987 E28.52076 ; brim
G1 X74.277 Y29.174 E28.53610 ; brim
G1 X74.346 Y29.174 E28.54084 ; brim
G1 X74.492 Y29.282 E28.55320 ; brim
G1 X75.060 Y31.193 E28.68905 ; brim
G1 X74.936 Y31.359 E28.70317 ; brim
G1 X74.972 Y31.359 E28.70562 ; brim
G1 X75.123 Y31.483 E28.71889 ; brim
G1 X75.513 Y33.398 E28.85207 ; brim
G1 X75.392 Y33.545 E28.86501 ; brim
G1 X75.552 Y33.683 E28.87942 ; brim
G1 X75.773 Y35.601 E29.01096 ; brim
G1 X75.646 Y35.743 E29.02390 ; brim
G1 X75.792 Y35.885 E29.03782 ; brim
G1 X75.839 Y37.804 E29.16863 ; brim
G1 X75.702 Y37.946 E29.18207 ; brim
G1 X75.832 Y38.075 E29.19459 ; brim
G1 X75.832 Y39.994 E29.32536 ; brim
G1 X75.698 Y40.128 E29.33820 ; brim
G1 X75.832 Y40.261 E29.35103 ; brim
G1 X75.832 Y42.180 E29.48180 ; brim
G1 X75.698 Y42.313 E29.49464 ; brim
G1 X75.832 Y42.446 E29.50747 ; brim
G1 X75.832 Y44.365 E29.63824 ; brim
G1 X75.698 Y44.498 E29.65108 ; brim
G1 X75.832 Y44.632 E29.66391 ; brim
G1 X75.832 Y46.551 E29.79468 ; brim
G1 X75.698 Y46.684 E29.80752 ; brim
G1 X75.832 Y46.817 E29.82036 ; brim
G1 X75.832 Y48.736 E29.95112 ; brim
G1 X75.698 Y48.869 E29.96396 ; brim
G1 X75.832 Y49.002 E29.97680 ; brim
G1 X75.832 Y50.921 E30.10756 ; brim
G1 X75.698 Y51.055 E30.12040 ; brim
G1 X75.832 Y51.188 E30.13324 ; brim
G1 X75.832 Y53.107 E30.26400 ; brim
G1 X75.698 Y53.240 E30.27684 ; brim
G1 X75.832 Y53.373 E30.28968 ; brim
G1 X75.832 Y55.292 E30.42044 ; brim
G1 X75.698 Y55.425 E30.43328 ; brim
G1 X75.832 Y55.559 E30.44612 ; brim
G1 X75.832 Y57.478 E30.57688 ; brim
G1 X75.698 Y57.611 E30.58972 ; brim
G1 X75.832 Y57.744 E30.60256 ; brim
G1 X75.832 Y59.663 E30.73333 ; brim
G1 X75.698 Y59.796 E30.74616 ; brim
G1 X75.832 Y59.929 E30.75900 ; brim
G1 X75.832 Y61.848 E30.88977 ; brim
G1 X75.698 Y61.982 E30.90260 ; brim
G1 X75.832 Y62.115 E30.91544 ; brim
G1 X75.832 Y64.034 E31.04621 ; brim
G1 X75.698 Y64.167 E31.05904 ; brim
G1 X75.832 Y64.300 E31.07188 ; brim
G1 X75.832 Y66.219 E31.20265 ; brim
G1 X75.698 Y66.352 E31.21548 ; brim
G1 X75.832 Y66.486 E31.22832 ; brim
G1 X75.832 Y68.405 E31.35909 ; brim
G1 X75.698 Y68.538 E31.37192 ; brim
G1 X75.832 Y68.671 E31.38476 ; brim
G1 X75.832 Y70.590 E31.51553 ; brim
G1 X75.698 Y70.723 E31.52836 ; brim
G1 X75.832 Y70.856 E31.54120 ; brim
G1 X75.832 Y72.775 E31.67197 ; brim
G1 X75.698 Y72.909 E31.68480 ; brim
G1 X75.832 Y73.042 E31.69764 ; brim
G1 X75.832 Y74.961 E31.82841 ; brim
G1 X75.698 Y75.094 E31.84124 ; brim
G1 X75.832 Y75.227 E31.85408 ; brim
G1 X75.832 Y77.146 E31.98485 ; brim
G1 X75.698 Y77.279 E31.99769 ; brim
G1 X75.832 Y77.413 E32.01052 ; brim
G1 X75.832 Y79.332 E32.14129 ; brim
G1 X75.698 Y79.465 E32.15413 ; brim
G1 X75.832 Y79.598 E32.16696 ; brim
G1 X75.832 Y81.517 E32.29773 ; brim
G1 X75.698 Y81.650 E32.31057 ; brim
G1 X75.832 Y81.783 E32.32340 ; brim
G1 X75.832 Y83.702 E32.45417 ; brim
G1 X75.698 Y83.836 E32.46701 ; brim
G1 X75.832 Y83.969 E32.47984 ; brim
G1 X75.832 Y85.888 E32.61061 ; brim
G1 X75.698 Y86.021 E32.62345 ; brim
G1 X75.832 Y86.154 E32.63628 ; brim
G1 X75.832 Y88.073 E32.76705 ; brim
G1 X75.698 Y88.206 E32.77989 ; brim
G1 X75.832 Y88.340 E32.79272 ; brim
G1 X75.832 Y90.259 E32.92349 ; brim
G1 X75.698 Y90.392 E32.93633 ; brim
G1 X75.832 Y90.525 E32.94916 ; brim
G1 X75.832 Y92.444 E33.07993 ; brim
G1 X75.698 Y92.577 E33.09277 ; brim
G1 X75.832 Y92.710 E33.10560 ; brim
G1 X75.832 Y94.629 E33.23637 ; brim
G1 X75.698 Y94.763 E33.24921 ; brim
G1 X75.832 Y94.896 E33.26204 ; brim
G1 X75.832 Y96.815 E33.39281 ; brim
G1 X75.698 Y96.948 E33.40565 ; brim
G1 X75.832 Y97.081 E33.41849 ; brim
G1 X75.832 Y99.000 E33.54925 ; brim
G1 X75.698 Y99.133 E33.56209 ; brim
G1 X75.832 Y99.267 E33.57493 ; brim
