; generated by Slic3r 0.9.9 on 2014-01-20 at 16:35:59

; layer_height = 0.2
; perimeters = 3
; top_solid_layers = 3
; bottom_solid_layers = 3
; fill_density = 0.15
; perimeter_speed = 45
; infill_speed = 60
; travel_speed = 130
; nozzle_diameter = 0.35
; filament_diameter = 1.75
; extrusion_multiplier = 1
; perimeters extrusion width = 0.52mm
; infill extrusion width = 0.52mm
; solid infill extrusion width = 0.52mm
; top infill extrusion width = 0.52mm
; support material extrusion width = 0.52mm
; first layer extrusion width = 0.60mm

G21 ; set units to millimeters
M107 ; disable fan
M190 S94 ; wait for bed temperature to be reached
M104 S225 ; set temperature
G28 ; home all axes
G1 Z5 F5000 ; lift nozzle
M109 S225 ; wait for temperature to be reached
G90 ; use absolute coordinates
G92 E0 ; reset extrusion distance
M82 ; use absolute distances for extrusion
G1 F1800.000 E-1.00000 ; retract
G92 E0 ; reset extrusion distance
G1 Z0.300 F7800.000 ; move to next layer (0)
G1 X28.300 Y31.300 ; move to first skirt point
G1 F1800.000 E1.00000 ; compensate retraction
G1 X28.650 Y31.000 F810.000 E1.03141 ; skirt
G1 X30.100 Y29.910 E1.15503 ; skirt
G1 X30.600 Y29.590 E1.19548 ; skirt
G1 X32.910 Y28.400 E1.37255 ; skirt
G1 X33.300 Y28.250 E1.40102 ; skirt
G1 X33.720 Y28.150 E1.43044 ; skirt
G1 X34.350 Y28.090 E1.47357 ; skirt
G1 X43.640 Y28.090 E2.10662 ; skirt
G1 X44.270 Y28.150 E2.14975 ; skirt
G1 X44.480 Y28.190 E2.16432 ; skirt
G1 X44.890 Y28.320 E2.19363 ; skirt
G1 X45.270 Y28.490 E2.22199 ; skirt
G1 X47.390 Y29.590 E2.38475 ; skirt
G1 X47.890 Y29.910 E2.42520 ; skirt
G1 X49.340 Y31.000 E2.54881 ; skirt
G1 X49.690 Y31.300 E2.58022 ; skirt
G1 X50.800 Y32.390 E2.68624 ; skirt
G1 X51.090 Y32.710 E2.71566 ; skirt
G1 X51.960 Y33.800 E2.81070 ; skirt
G1 X52.190 Y34.130 E2.83811 ; skirt
G1 X53.050 Y35.510 E2.94891 ; skirt
G1 X53.600 Y36.600 E3.03211 ; skirt
G1 X53.740 Y36.920 E3.05591 ; skirt
G1 X54.160 Y38.010 E3.13551 ; skirt
G1 X54.570 Y39.430 E3.23623 ; skirt
G1 X54.640 Y39.720 E3.25656 ; skirt
G1 X54.900 Y41.120 E3.35359 ; skirt
G1 X55.030 Y42.500 E3.44805 ; skirt
G1 X55.050 Y43.590 E3.52234 ; skirt
G1 X55.050 Y108.190 E7.92442 ; skirt
G1 X55.030 Y109.290 E7.99939 ; skirt
G1 X54.920 Y110.610 E8.08965 ; skirt
G1 X54.690 Y112.020 E8.18700 ; skirt
G1 X54.630 Y112.320 E8.20785 ; skirt
G1 X54.340 Y113.410 E8.28471 ; skirt
G1 X53.840 Y114.810 E8.38602 ; skirt
G1 X53.710 Y115.130 E8.40955 ; skirt
G1 X53.190 Y116.220 E8.49185 ; skirt
G1 X53.010 Y116.550 E8.51746 ; skirt
G1 X52.340 Y117.640 E8.60465 ; skirt
G1 X52.140 Y117.930 E8.62866 ; skirt
G1 X51.310 Y119.020 E8.72201 ; skirt
G1 X51.040 Y119.330 E8.75003 ; skirt
G1 X49.980 Y120.430 E8.85413 ; skirt
G1 X49.630 Y120.750 E8.88644 ; skirt
G1 X48.250 Y121.840 E9.00628 ; skirt
G1 X47.780 Y122.160 E9.04502 ; skirt
G1 X45.830 Y123.250 E9.19725 ; skirt
G1 X45.450 Y123.430 E9.22591 ; skirt
G1 X45.050 Y123.570 E9.25478 ; skirt
G1 X44.840 Y123.620 E9.26949 ; skirt
G1 X39.450 Y124.760 E9.64491 ; skirt
G1 X38.990 Y124.790 E9.67633 ; skirt
G1 X38.400 Y124.740 E9.71668 ; skirt
G1 X33.150 Y123.620 E10.08248 ; skirt
G1 X32.940 Y123.570 E10.09719 ; skirt
G1 X32.540 Y123.430 E10.12607 ; skirt
G1 X32.160 Y123.250 E10.15472 ; skirt
G1 X30.210 Y122.160 E10.30695 ; skirt
G1 X29.740 Y121.840 E10.34570 ; skirt
G1 X28.360 Y120.750 E10.46553 ; skirt
G1 X28.010 Y120.430 E10.49785 ; skirt
G1 X26.950 Y119.330 E10.60195 ; skirt
G1 X26.680 Y119.020 E10.62996 ; skirt
G1 X25.850 Y117.930 E10.72332 ; skirt
G1 X25.650 Y117.640 E10.74733 ; skirt
G1 X24.980 Y116.550 E10.83451 ; skirt
G1 X24.800 Y116.220 E10.86013 ; skirt
G1 X24.280 Y115.130 E10.94242 ; skirt
G1 X23.650 Y113.410 E11.06725 ; skirt
G1 X23.360 Y112.320 E11.14411 ; skirt
G1 X23.110 Y110.930 E11.24035 ; skirt
G1 X23.070 Y110.610 E11.26232 ; skirt
G1 X22.960 Y109.260 E11.35462 ; skirt
G1 X22.950 Y108.160 E11.42958 ; skirt
G1 X22.950 Y43.630 E15.82690 ; skirt
G1 X22.960 Y42.540 E15.90118 ; skirt
G1 X22.980 Y42.210 E15.92370 ; skirt
G1 X23.090 Y41.120 E15.99836 ; skirt
G1 X23.350 Y39.720 E16.09539 ; skirt
G1 X23.420 Y39.430 E16.11572 ; skirt
G1 X23.830 Y38.010 E16.21644 ; skirt
G1 X24.390 Y36.600 E16.31982 ; skirt
G1 X24.940 Y35.510 E16.40302 ; skirt
G1 X25.800 Y34.130 E16.51382 ; skirt
G1 X26.030 Y33.800 E16.54123 ; skirt
G1 X26.900 Y32.710 E16.63627 ; skirt
G1 X27.190 Y32.390 E16.66570 ; skirt
G1 X28.242 Y31.357 E16.76612 ; skirt
G1 F1800.000 E15.76612 ; retract
G92 E0 ; reset extrusion distance
G1 X29.382 Y33.488 F7800.000 ; move to first brim point
G1 F1800.000 E1.00000 ; compensate retraction
G1 X31.751 Y31.706 F810.000 E1.20200 ; brim
G1 X32.004 Y31.622 E1.22016 ; brim
G1 X32.633 Y31.622 E1.26308 ; brim
G1 X32.633 Y31.009 E1.30483 ; brim
G1 X33.114 Y30.529 E1.35109 ; brim
G1 X43.818 Y30.529 E2.08053 ; brim
G1 X44.009 Y30.575 E2.09391 ; brim
G1 X47.157 Y32.201 E2.33537 ; brim
G1 X47.391 Y32.715 E2.37380 ; brim
G1 X47.501 Y32.715 E2.38127 ; brim
G1 X47.800 Y32.837 E2.40329 ; brim
G1 X50.021 Y35.029 E2.61598 ; brim
G1 X49.970 Y35.156 E2.62528 ; brim
G1 X51.382 Y37.382 E2.80498 ; brim
G1 X51.343 Y37.454 E2.81057 ; brim
G1 X52.212 Y39.705 E2.97499 ; brim
G1 X52.183 Y39.748 E2.97854 ; brim
G1 X52.508 Y41.456 E3.09703 ; brim
G1 X52.720 Y41.456 E3.11151 ; brim
G1 X53.200 Y41.936 E3.15777 ; brim
G1 X53.200 Y43.215 E3.24492 ; brim
G1 X52.720 Y43.695 E3.29119 ; brim
G1 X52.620 Y43.695 E3.29803 ; brim
G1 X52.620 Y44.734 E3.36884 ; brim
G1 X52.739 Y44.734 E3.37701 ; brim
G1 X53.220 Y45.214 E3.42327 ; brim
G1 X53.220 Y46.493 E3.51042 ; brim
G1 X52.739 Y46.973 E3.55669 ; brim
G1 X52.620 Y46.973 E3.56486 ; brim
G1 X52.626 Y107.504 E7.68967 ; brim
G1 X52.602 Y109.759 E7.84332 ; brim
G1 X52.625 Y109.786 E7.84577 ; brim
G1 X52.236 Y112.048 E8.00215 ; brim
G1 X52.265 Y112.089 E8.00557 ; brim
G1 X51.440 Y114.341 E8.16899 ; brim
G1 X51.479 Y114.411 E8.17449 ; brim
G1 X50.115 Y116.645 E8.35281 ; brim
G1 X50.163 Y116.758 E8.36120 ; brim
G1 X48.038 Y118.961 E8.56980 ; brim
G1 X47.731 Y119.091 E8.59253 ; brim
G1 X47.657 Y119.091 E8.59760 ; brim
G1 X47.454 Y119.566 E8.63274 ; brim
G1 X44.489 Y121.224 E8.86427 ; brim
G1 X44.285 Y121.277 E8.87858 ; brim
G1 X40.724 Y121.277 E9.12130 ; brim
G1 X40.724 Y121.889 E9.16305 ; brim
G1 X40.244 Y122.370 E9.20931 ; brim
G1 X38.835 Y122.360 E9.30532 ; brim
G1 X32.564 Y121.016 E9.74233 ; brim
G1 X32.195 Y120.507 E9.78518 ; brim
G1 X32.229 Y120.184 E9.80732 ; brim
G1 X31.700 Y120.184 E9.84336 ; brim
G1 X31.439 Y120.093 E9.86223 ; brim
G1 X29.162 Y118.290 E10.06016 ; brim
G1 X29.061 Y117.945 E10.08464 ; brim
G1 X28.827 Y117.830 E10.10244 ; brim
G1 X27.103 Y115.581 E10.29554 ; brim
G1 X27.146 Y115.493 E10.30225 ; brim
G1 X26.070 Y113.247 E10.47191 ; brim
G1 X26.104 Y113.193 E10.47627 ; brim
G1 X25.505 Y110.936 E10.63541 ; brim
G1 X25.528 Y110.906 E10.63796 ; brim
G1 X25.339 Y108.640 E10.79292 ; brim
G1 X25.380 Y108.595 E10.79710 ; brim
G1 X25.380 Y43.205 E15.25305 ; brim
G1 X25.337 Y43.157 E15.25743 ; brim
G1 X25.560 Y40.889 E15.41272 ; brim
G1 X25.538 Y40.859 E15.41531 ; brim
G1 X26.179 Y38.603 E15.57512 ; brim
G1 X26.144 Y38.546 E15.57963 ; brim
G1 X27.268 Y36.303 E15.75065 ; brim
G1 X27.225 Y36.212 E15.75748 ; brim
G1 X29.007 Y33.970 E15.95265 ; brim
G1 X29.271 Y33.843 E15.97266 ; brim
G1 X29.357 Y33.566 E15.99240 ; brim
G1 F1800.000 E14.99240 ; retract
G92 E0 ; reset extrusion distance
G1 X49.000 Y110.184 F7800.000 ; move to first brim point
G1 F1800.000 E1.00000 ; compensate retraction
G1 X49.051 Y110.296 F810.000 E1.00842 ; brim
G1 X48.949 Y110.296 E1.01538 ; brim
G1 X48.966 Y110.258 E1.01821 ; brim
G1 F1800.000 E0.01821 ; retract
G92 E0 ; reset extrusion distance
G1 X48.976 Y45.827 F7800.000 ; move to first brim point
G1 F1800.000 E1.00000 ; compensate retraction
G1 X48.919 Y44.788 F810.000 E1.07091 ; brim
G1 X49.081 Y44.788 E1.08194 ; brim
G1 X49.026 Y45.794 E1.15058 ; brim
G1 F1800.000 E0.15058 ; retract
G92 E0 ; reset extrusion distance
G1 X51.967 Y45.281 F7800.000 ; move to first brim point
G1 F1800.000 E1.00000 ; compensate retraction
G1 X52.513 Y45.281 F810.000 E1.03723 ; brim
G1 X52.673 Y45.441 E1.05265 ; brim
G1 X52.673 Y46.267 E1.10896 ; brim
G1 X52.513 Y46.427 E1.12438 ; brim
G1 X51.967 Y46.427 E1.16161 ; brim
G1 X52.073 Y46.533 E1.17186 ; brim
G1 X52.073 Y48.452 E1.30263 ; brim
G1 X51.940 Y48.586 E1.31547 ; brim
G1 X52.073 Y48.719 E1.32830 ; brim
G1 X52.073 Y50.638 E1.45907 ; brim
G1 X51.940 Y50.771 E1.47191 ; brim
G1 X52.073 Y50.904 E1.48474 ; brim
G1 X52.073 Y52.823 E1.61551 ; brim
G1 X51.940 Y52.956 E1.62835 ; brim
G1 X52.073 Y53.090 E1.64118 ; brim
G1 X52.073 Y55.009 E1.77195 ; brim
G1 X51.940 Y55.142 E1.78479 ; brim
G1 X52.073 Y55.275 E1.79762 ; brim
G1 X52.073 Y57.194 E1.92839 ; brim
G1 X51.940 Y57.327 E1.94123 ; brim
G1 X52.073 Y57.460 E1.95406 ; brim
G1 X52.073 Y59.379 E2.08483 ; brim
G1 X51.940 Y59.513 E2.09767 ; brim
G1 X52.073 Y59.646 E2.11050 ; brim
G1 X52.073 Y61.565 E2.24127 ; brim
G1 X51.940 Y61.698 E2.25411 ; brim
G1 X52.073 Y61.831 E2.26694 ; brim
G1 X52.073 Y63.750 E2.39771 ; brim
G1 X51.940 Y63.883 E2.41055 ; brim
G1 X52.073 Y64.016 E2.42339 ; brim
G1 X52.073 Y65.935 E2.55415 ; brim
G1 X51.940 Y66.069 E2.56699 ; brim
G1 X52.073 Y66.202 E2.57983 ; brim
G1 X52.073 Y68.121 E2.71059 ; brim
G1 X51.940 Y68.254 E2.72343 ; brim
G1 X52.073 Y68.387 E2.73627 ; brim
G1 X52.073 Y70.306 E2.86703 ; brim
G1 X51.940 Y70.439 E2.87987 ; brim
G1 X52.073 Y70.573 E2.89271 ; brim
G1 X52.073 Y72.492 E3.02347 ; brim
G1 X51.940 Y72.625 E3.03631 ; brim
G1 X52.073 Y72.758 E3.04915 ; brim
G1 X52.073 Y74.677 E3.17991 ; brim
G1 X51.940 Y74.810 E3.19275 ; brim
G1 X52.073 Y74.943 E3.20559 ; brim
G1 X52.073 Y76.862 E3.33636 ; brim
G1 X51.940 Y76.996 E3.34919 ; brim
G1 X52.073 Y77.129 E3.36203 ; brim
G1 X52.073 Y79.048 E3.49280 ; brim
G1 X51.940 Y79.181 E3.50563 ; brim
G1 X52.073 Y79.314 E3.51847 ; brim
G1 X52.073 Y81.233 E3.64924 ; brim
G1 X51.940 Y81.366 E3.66207 ; brim
G1 X52.073 Y81.500 E3.67491 ; brim
G1 X52.073 Y83.419 E3.80568 ; brim
G1 X51.940 Y83.552 E3.81851 ; brim
G1 X52.073 Y83.685 E3.83135 ; brim
G1 X52.073 Y85.604 E3.96212 ; brim
G1 X51.940 Y85.737 E3.97495 ; brim
G1 X52.073 Y85.870 E3.98779 ; brim
G1 X52.073 Y87.789 E4.11856 ; brim
G1 X51.940 Y87.923 E4.13139 ; brim
G1 X52.073 Y88.056 E4.14423 ; brim
G1 X52.073 Y89.975 E4.27500 ; brim
G1 X51.940 Y90.108 E4.28783 ; brim
G1 X52.073 Y90.241 E4.30067 ; brim
G1 X52.073 Y92.160 E4.43144 ; brim
G1 X51.940 Y92.293 E4.44427 ; brim
G1 X52.073 Y92.427 E4.45711 ; brim
G1 X52.073 Y94.346 E4.58788 ; brim
G1 X51.940 Y94.479 E4.60072 ; brim
G1 X52.073 Y94.612 E4.61355 ; brim
G1 X52.073 Y96.531 E4.74432 ; brim
G1 X51.940 Y96.664 E4.75716 ; brim
G1 X52.073 Y96.797 E4.76999 ; brim
G1 X52.073 Y98.716 E4.90076 ; brim
G1 X51.940 Y98.850 E4.91360 ; brim
G1 X52.073 Y98.983 E4.92643 ; brim
G1 X52.073 Y100.902 E5.05720 ; brim
G1 X51.940 Y101.035 E5.07004 ; brim
G1 X52.073 Y101.168 E5.08287 ; brim
G1 X52.073 Y103.087 E5.21364 ; brim
G1 X51.940 Y103.220 E5.22648 ; brim
G1 X52.073 Y103.354 E5.23931 ; brim
G1 X52.073 Y105.273 E5.37008 ; brim
G1 X51.940 Y105.406 E5.38292 ; brim
G1 X52.073 Y105.539 E5.39575 ; brim
G1 X52.073 Y107.458 E5.52652 ; brim
G1 X51.942 Y107.589 E5.53917 ; brim
G1 X52.078 Y107.727 E5.55232 ; brim
G1 X52.057 Y109.646 E5.68310 ; brim
G1 X51.913 Y109.788 E5.69695 ; brim
G1 X52.044 Y109.944 E5.71082 ; brim
G1 X51.714 Y111.860 E5.84332 ; brim
G1 X51.561 Y111.989 E5.85691 ; brim
G1 X51.528 Y111.989 E5.85917 ; brim
G1 X51.654 Y112.169 E5.87412 ; brim
G1 X50.955 Y114.076 E6.01252 ; brim
G1 X50.814 Y114.174 E6.02424 ; brim
G1 X50.720 Y114.174 E6.03067 ; brim
G1 X50.846 Y114.400 E6.04828 ; brim
G1 X49.692 Y116.290 E6.19921 ; brim
G1 X49.567 Y116.360 E6.20894 ; brim
G1 X49.401 Y116.360 E6.22029 ; brim
G1 X49.519 Y116.639 E6.24096 ; brim
G1 X47.722 Y118.502 E6.41734 ; brim
G1 X47.620 Y118.545 E6.42492 ; brim
G1 X46.915 Y118.545 E6.47295 ; brim
G1 X46.993 Y118.605 E6.47968 ; brim
G1 X47.098 Y119.008 E6.50805 ; brim
G1 X47.025 Y119.180 E6.52076 ; brim
G1 X44.283 Y120.713 E6.73481 ; brim
G1 X44.215 Y120.730 E6.73958 ; brim
G1 X40.071 Y120.730 E7.02201 ; brim
G1 X40.177 Y120.837 E7.03226 ; brim
G1 X40.177 Y121.663 E7.08856 ; brim
G1 X40.017 Y121.823 E7.10399 ; brim
G1 X38.921 Y121.820 E7.17869 ; brim
G1 X32.883 Y120.526 E7.59945 ; brim
G1 X32.760 Y120.356 E7.61374 ; brim
G1 X32.827 Y119.724 E7.65705 ; brim
G1 X32.924 Y119.638 E7.66587 ; brim
G1 X31.793 Y119.638 E7.74292 ; brim
G1 X31.706 Y119.607 E7.74921 ; brim
G1 X29.638 Y117.970 E7.92896 ; brim
G1 X29.589 Y117.803 E7.94085 ; brim
G1 X29.694 Y117.500 E7.96269 ; brim
G1 X29.761 Y117.452 E7.96826 ; brim
G1 X29.297 Y117.452 E7.99985 ; brim
G1 X29.183 Y117.396 E8.00853 ; brim
G1 X27.743 Y115.518 E8.16980 ; brim
G1 X27.867 Y115.267 E8.18888 ; brim
G1 X27.737 Y115.267 E8.19771 ; brim
G1 X27.604 Y115.183 E8.20845 ; brim
G1 X26.693 Y113.283 E8.35201 ; brim
G1 X26.820 Y113.082 E8.36824 ; brim
G1 X26.757 Y113.082 E8.37253 ; brim
G1 X26.610 Y112.968 E8.38519 ; brim
G1 X26.103 Y111.056 E8.52003 ; brim
G1 X26.225 Y110.896 E8.53375 ; brim
G1 X26.064 Y110.752 E8.54851 ; brim
G1 X25.903 Y108.834 E8.67969 ; brim
G1 X26.050 Y108.674 E8.69446 ; brim
G1 X25.927 Y108.551 E8.70635 ; brim
G1 X25.927 Y106.632 E8.83711 ; brim
G1 X26.060 Y106.499 E8.84995 ; brim
G1 X25.927 Y106.365 E8.86279 ; brim
G1 X25.927 Y104.446 E8.99355 ; brim
G1 X26.060 Y104.313 E9.00639 ; brim
G1 X25.927 Y104.180 E9.01923 ; brim
G1 X25.927 Y102.261 E9.14999 ; brim
G1 X26.060 Y102.128 E9.16283 ; brim
G1 X25.927 Y101.995 E9.17567 ; brim
G1 X25.927 Y100.076 E9.30643 ; brim
G1 X26.060 Y99.942 E9.31927 ; brim
G1 X25.927 Y99.809 E9.33211 ; brim
G1 X25.927 Y97.890 E9.46288 ; brim
G1 X26.060 Y97.757 E9.47571 ; brim
G1 X25.927 Y97.624 E9.48855 ; brim
G1 X25.927 Y95.705 E9.61932 ; brim
G1 X26.060 Y95.572 E9.63215 ; brim
G1 X25.927 Y95.438 E9.64499 ; brim
G1 X25.927 Y93.519 E9.77576 ; brim
G1 X26.060 Y93.386 E9.78859 ; brim
G1 X25.927 Y93.253 E9.80143 ; brim
G1 X25.927 Y91.334 E9.93220 ; brim
G1 X26.060 Y91.201 E9.94503 ; brim
G1 X25.927 Y91.068 E9.95787 ; brim
G1 X25.927 Y89.149 E10.08864 ; brim
G1 X26.060 Y89.015 E10.10147 ; brim
G1 X25.927 Y88.882 E10.11431 ; brim
G1 X25.927 Y86.963 E10.24508 ; brim
G1 X26.060 Y86.830 E10.25791 ; brim
G1 X25.927 Y86.697 E10.27075 ; brim
G1 X25.927 Y84.778 E10.40152 ; brim
G1 X26.060 Y84.645 E10.41435 ; brim
G1 X25.927 Y84.511 E10.42719 ; brim
G1 X25.927 Y82.592 E10.55796 ; brim
G1 X26.060 Y82.459 E10.57079 ; brim
G1 X25.927 Y82.326 E10.58363 ; brim
G1 X25.927 Y80.407 E10.71440 ; brim
G1 X26.060 Y80.274 E10.72723 ; brim
G1 X25.927 Y80.141 E10.74007 ; brim
G1 X25.927 Y78.222 E10.87084 ; brim
G1 X26.060 Y78.088 E10.88367 ; brim
G1 X25.927 Y77.955 E10.89651 ; brim
G1 X25.927 Y76.036 E11.02728 ; brim
G1 X26.060 Y75.903 E11.04012 ; brim
G1 X25.927 Y75.770 E11.05295 ; brim
G1 X25.927 Y73.851 E11.18372 ; brim
G1 X26.060 Y73.718 E11.19656 ; brim
G1 X25.927 Y73.584 E11.20939 ; brim
G1 X25.927 Y71.665 E11.34016 ; brim
G1 X26.060 Y71.532 E11.35300 ; brim
G1 X25.927 Y71.399 E11.36583 ; brim
G1 X25.927 Y69.480 E11.49660 ; brim
G1 X26.060 Y69.347 E11.50944 ; brim
G1 X25.927 Y69.214 E11.52227 ; brim
G1 X25.927 Y67.295 E11.65304 ; brim
G1 X26.060 Y67.161 E11.66588 ; brim
G1 X25.927 Y67.028 E11.67871 ; brim
G1 X25.927 Y65.109 E11.80948 ; brim
G1 X26.060 Y64.976 E11.82232 ; brim
G1 X25.927 Y64.843 E11.83515 ; brim
G1 X25.927 Y62.924 E11.96592 ; brim
G1 X26.060 Y62.791 E11.97876 ; brim
G1 X25.927 Y62.657 E11.99159 ; brim
G1 X25.927 Y60.738 E12.12236 ; brim
G1 X26.060 Y60.605 E12.13520 ; brim
G1 X25.927 Y60.472 E12.14803 ; brim
G1 X25.927 Y58.553 E12.27880 ; brim
G1 X26.060 Y58.420 E12.29164 ; brim
G1 X25.927 Y58.287 E12.30448 ; brim
G1 X25.927 Y56.368 E12.43524 ; brim
G1 X26.060 Y56.234 E12.44808 ; brim
G1 X25.927 Y56.101 E12.46092 ; brim
G1 X25.927 Y54.182 E12.59168 ; brim
G1 X26.060 Y54.049 E12.60452 ; brim
G1 X25.927 Y53.916 E12.61736 ; brim
G1 X25.927 Y51.997 E12.74812 ; brim
G1 X26.060 Y51.864 E12.76096 ; brim
G1 X25.927 Y51.730 E12.77380 ; brim
G1 X25.927 Y49.811 E12.90456 ; brim
G1 X26.060 Y49.678 E12.91740 ; brim
G1 X25.927 Y49.545 E12.93024 ; brim
