; generated by Slic3r 0.9.9 on 2014-03-04 at 12:42:02

; layer_height = 0.2
; perimeters = 3
; top_solid_layers = 3
; bottom_solid_layers = 3
; fill_density = 0.2
; perimeter_speed = 36
; infill_speed = 60
; travel_speed = 130
; nozzle_diameter = 0.35
; filament_diameter = 1.75
; extrusion_multiplier = 1
; perimeters extrusion width = 0.52mm
; infill extrusion width = 0.52mm
; solid infill extrusion width = 0.52mm
; top infill extrusion width = 0.52mm
; support material extrusion width = 0.52mm
; first layer extrusion width = 0.60mm

G21 ; set units to millimeters
M107 ; disable fan
M190 S95 ; wait for bed temperature to be reached
M104 S225 ; set temperature
G28 ; home all axes
G1 Z5 F5000 ; lift nozzle
M109 S225 ; wait for temperature to be reached
G90 ; use absolute coordinates
G92 E0 ; reset extrusion distance
M82 ; use absolute distances for extrusion
G1 F1800.000 E-1.00000 ; retract
G92 E0 ; reset extrusion distance
G1 Z0.300 F7800.000 ; move to next layer (0)
G1 X26.496 Y30.040 ; move to first skirt point
G1 F1800.000 E1.00000 ; compensate retraction
G1 X26.666 Y29.900 F756.000 E1.01501 ; skirt
G1 X28.436 Y28.700 E1.16073 ; skirt
G1 X28.796 Y28.480 E1.18948 ; skirt
G1 X29.186 Y28.310 E1.21847 ; skirt
G1 X29.586 Y28.180 E1.24713 ; skirt
G1 X30.216 Y28.090 E1.29050 ; skirt
G1 X47.336 Y28.080 E2.45712 ; skirt
G1 X47.756 Y28.110 E2.48581 ; skirt
G1 X48.166 Y28.180 E2.51415 ; skirt
G1 X48.576 Y28.310 E2.54346 ; skirt
G1 X49.146 Y28.580 E2.58644 ; skirt
G1 X50.916 Y29.770 E2.73178 ; skirt
G1 X51.266 Y30.040 E2.76190 ; skirt
G1 X51.726 Y30.510 E2.80672 ; skirt
G1 X51.856 Y30.690 E2.82185 ; skirt
G1 X52.076 Y31.070 E2.85177 ; skirt
G1 X52.806 Y32.490 E2.96057 ; skirt
G1 X52.966 Y33.020 E2.99830 ; skirt
G1 X68.576 Y102.100 E7.82435 ; skirt
G1 X68.646 Y102.490 E7.85136 ; skirt
G1 X68.766 Y103.580 E7.92608 ; skirt
G1 X68.786 Y103.970 E7.95269 ; skirt
G1 X68.786 Y136.760 E10.18712 ; skirt
G1 X68.736 Y137.310 E10.22476 ; skirt
G1 X68.566 Y138.400 E10.29993 ; skirt
G1 X68.476 Y138.830 E10.32987 ; skirt
G1 X68.326 Y139.250 E10.36026 ; skirt
G1 X68.126 Y139.650 E10.39074 ; skirt
G1 X67.486 Y140.740 E10.47687 ; skirt
G1 X67.106 Y141.270 E10.52131 ; skirt
G1 X66.796 Y141.580 E10.55118 ; skirt
G1 X66.456 Y141.850 E10.58077 ; skirt
G1 X66.076 Y142.080 E10.61104 ; skirt
G1 X65.886 Y142.170 E10.62536 ; skirt
G1 X63.466 Y143.260 E10.80623 ; skirt
G1 X38.846 Y154.130 E12.64017 ; skirt
G1 X38.376 Y154.260 E12.67340 ; skirt
G1 X37.896 Y154.330 E12.70645 ; skirt
G1 X17.346 Y154.340 E14.10681 ; skirt
G1 X16.756 Y154.290 E14.14716 ; skirt
G1 X16.566 Y154.250 E14.16039 ; skirt
G1 X16.186 Y154.140 E14.18735 ; skirt
G1 X15.816 Y153.990 E14.21455 ; skirt
G1 X15.466 Y153.800 E14.24169 ; skirt
G1 X15.306 Y153.690 E14.25492 ; skirt
G1 X14.846 Y153.310 E14.29558 ; skirt
G1 X14.586 Y153.020 E14.32212 ; skirt
G1 X14.356 Y152.690 E14.34953 ; skirt
G1 X14.156 Y152.350 E14.37641 ; skirt
G1 X14.076 Y152.170 E14.38983 ; skirt
G1 X13.616 Y151.080 E14.47045 ; skirt
G1 X13.476 Y150.690 E14.49869 ; skirt
G1 X13.356 Y150.080 E14.54105 ; skirt
G1 X13.236 Y148.980 E14.61646 ; skirt
G1 X13.216 Y148.600 E14.64239 ; skirt
G1 X13.216 Y103.800 E17.69523 ; skirt
G1 X13.256 Y103.280 E17.73077 ; skirt
G1 X13.416 Y102.190 E17.80584 ; skirt
G1 X24.766 Y33.220 E22.56893 ; skirt
G1 X24.866 Y32.780 E22.59967 ; skirt
G1 X25.026 Y32.360 E22.63030 ; skirt
G1 X25.796 Y30.880 E22.74399 ; skirt
G1 X26.046 Y30.520 E22.77385 ; skirt
G1 X26.437 Y30.096 E22.81312 ; skirt
G1 F1800.000 E21.81312 ; retract
G92 E0 ; reset extrusion distance
G1 X18.667 Y99.410 F7800.000 ; move to first brim point
G1 F1800.000 E1.00000 ; compensate retraction
G1 X35.249 Y99.410 F756.000 E2.12995 ; brim
G1 X35.424 Y99.449 E2.14217 ; brim
G1 X38.829 Y101.034 E2.39809 ; brim
G1 X39.084 Y101.551 E2.43737 ; brim
G1 X39.004 Y101.912 E2.46254 ; brim
G1 X39.097 Y101.991 E2.47084 ; brim
G1 X39.458 Y104.356 E2.63387 ; brim
G1 X39.362 Y104.469 E2.64401 ; brim
G1 X39.362 Y147.636 E5.58557 ; brim
G1 X39.588 Y147.800 E5.60465 ; brim
G1 X39.805 Y148.458 E5.65188 ; brim
G1 X39.644 Y148.964 E5.68804 ; brim
G1 X39.390 Y149.152 E5.70957 ; brim
G1 X39.500 Y149.318 E5.72311 ; brim
G1 X39.211 Y149.994 E5.77321 ; brim
G1 X39.372 Y150.154 E5.78869 ; brim
G1 X39.372 Y151.433 E5.87584 ; brim
G1 X38.892 Y151.913 E5.92211 ; brim
G1 X36.757 Y151.913 E6.06759 ; brim
G1 X36.271 Y151.178 E6.12768 ; brim
G1 X36.423 Y150.821 E6.15412 ; brim
G1 X35.847 Y150.821 E6.19336 ; brim
G1 X35.417 Y150.510 E6.22952 ; brim
G1 X35.201 Y149.851 E6.27675 ; brim
G1 X35.240 Y149.728 E6.28558 ; brim
G1 X19.956 Y149.728 E7.32709 ; brim
G1 X19.956 Y150.341 E7.36883 ; brim
G1 X19.476 Y150.821 E7.41510 ; brim
G1 X19.067 Y150.821 E7.44291 ; brim
G1 X19.067 Y151.433 E7.48466 ; brim
G1 X18.587 Y151.913 E7.53092 ; brim
G1 X16.903 Y151.913 E7.64568 ; brim
G1 X16.493 Y151.642 E7.67923 ; brim
G1 X15.500 Y149.317 E7.85147 ; brim
G1 X15.638 Y149.108 E7.86856 ; brim
G1 X15.638 Y103.328 E10.98817 ; brim
G1 X15.457 Y103.013 E11.01294 ; brim
G1 X16.789 Y100.721 E11.19357 ; brim
G1 X17.168 Y100.503 E11.22341 ; brim
G1 X18.187 Y100.503 E11.29284 ; brim
G1 X18.187 Y99.890 E11.33459 ; brim
G1 X18.609 Y99.468 E11.37526 ; brim
G1 F1800.000 E10.37526 ; retract
G92 E0 ; reset extrusion distance
G1 X42.445 Y103.222 F7800.000 ; move to first brim point
G1 F1800.000 E1.00000 ; compensate retraction
G1 X43.628 Y100.915 F756.000 E1.17665 ; brim
G1 X44.022 Y100.674 E1.20808 ; brim
G1 X44.264 Y100.674 E1.22461 ; brim
G1 X44.264 Y100.062 E1.26636 ; brim
G1 X44.744 Y99.582 E1.31262 ; brim
G1 X63.238 Y99.582 E2.57288 ; brim
G1 X63.480 Y99.658 E2.59018 ; brim
G1 X65.967 Y101.413 E2.79758 ; brim
G1 X66.138 Y101.921 E2.83408 ; brim
G1 X66.081 Y102.101 E2.84698 ; brim
G1 X66.175 Y102.187 E2.85567 ; brim
G1 X66.430 Y104.555 E3.01799 ; brim
G1 X66.362 Y104.631 E3.02495 ; brim
G1 X66.362 Y137.245 E5.24737 ; brim
G1 X66.540 Y137.556 E5.27183 ; brim
G1 X65.204 Y139.847 E5.45258 ; brim
G1 X64.825 Y140.065 E5.48238 ; brim
G1 X63.734 Y140.065 E5.55671 ; brim
G1 X63.734 Y140.678 E5.59845 ; brim
G1 X63.254 Y141.158 E5.64472 ; brim
G1 X46.834 Y141.158 E6.76366 ; brim
G1 X46.663 Y141.121 E6.77555 ; brim
G1 X43.179 Y139.548 E7.03606 ; brim
G1 X42.918 Y139.030 E7.07553 ; brim
G1 X42.999 Y138.655 E7.10167 ; brim
G1 X42.909 Y138.579 E7.10971 ; brim
G1 X42.539 Y136.214 E7.27281 ; brim
G1 X42.638 Y136.098 E7.28318 ; brim
G1 X42.638 Y103.538 E9.50200 ; brim
G1 X42.488 Y103.292 E9.52163 ; brim
G1 F1800.000 E8.52163 ; retract
G92 E0 ; reset extrusion distance
G1 X47.643 Y84.098 F7800.000 ; move to first brim point
G1 F1800.000 E1.00000 ; compensate retraction
G1 X31.223 Y84.098 F756.000 E2.11894 ; brim
G1 X31.052 Y84.061 E2.13083 ; brim
G1 X27.568 Y82.488 E2.39134 ; brim
G1 X27.308 Y81.971 E2.43081 ; brim
G1 X27.388 Y81.596 E2.45695 ; brim
G1 X27.299 Y81.519 E2.46499 ; brim
G1 X26.929 Y79.154 E2.62809 ; brim
G1 X27.028 Y79.039 E2.63846 ; brim
G1 X27.028 Y35.552 E5.60178 ; brim
G1 X26.957 Y35.473 E5.60900 ; brim
G1 X27.221 Y33.105 E5.77137 ; brim
G1 X27.319 Y33.017 E5.78035 ; brim
G1 X27.260 Y32.827 E5.79392 ; brim
G1 X27.437 Y32.318 E5.83064 ; brim
G1 X29.980 Y30.576 E6.04071 ; brim
G1 X30.217 Y30.502 E6.05761 ; brim
G1 X48.585 Y30.502 E7.30926 ; brim
G1 X49.065 Y30.982 E7.35552 ; brim
G1 X49.065 Y31.595 E7.39727 ; brim
G1 X49.350 Y31.595 E7.41675 ; brim
G1 X49.742 Y31.832 E7.44795 ; brim
G1 X50.945 Y34.137 E7.62512 ; brim
G1 X50.751 Y34.457 E7.65062 ; brim
G1 X50.751 Y80.185 E10.76669 ; brim
G1 X50.930 Y80.496 E10.79115 ; brim
G1 X49.593 Y82.788 E10.97190 ; brim
G1 X49.214 Y83.005 E11.00169 ; brim
G1 X48.124 Y83.005 E11.07603 ; brim
G1 X48.124 Y83.618 E11.11777 ; brim
G1 X47.701 Y84.040 E11.15845 ; brim
G1 F1800.000 E10.15845 ; retract
G92 E0 ; reset extrusion distance
G1 X38.424 Y101.448 F7800.000 ; move to first brim point
G1 F1800.000 E1.00000 ; compensate retraction
G1 X38.509 Y101.621 F756.000 E1.01310 ; brim
G1 X38.408 Y102.075 E1.04482 ; brim
G1 X38.325 Y102.142 E1.05208 ; brim
G1 X38.434 Y102.142 E1.05945 ; brim
G1 X38.587 Y102.274 E1.07325 ; brim
G1 X38.880 Y104.191 E1.20538 ; brim
G1 X38.709 Y104.381 E1.22285 ; brim
G1 X38.815 Y104.487 E1.23310 ; brim
G1 X38.815 Y106.406 E1.36387 ; brim
G1 X38.682 Y106.540 E1.37670 ; brim
G1 X38.815 Y106.673 E1.38954 ; brim
G1 X38.815 Y108.592 E1.52031 ; brim
G1 X38.682 Y108.725 E1.53314 ; brim
G1 X38.815 Y108.858 E1.54598 ; brim
G1 X38.815 Y110.777 E1.67675 ; brim
G1 X38.682 Y110.910 E1.68959 ; brim
G1 X38.815 Y111.044 E1.70242 ; brim
G1 X38.815 Y112.963 E1.83319 ; brim
G1 X38.682 Y113.096 E1.84603 ; brim
G1 X38.815 Y113.229 E1.85886 ; brim
G1 X38.815 Y115.148 E1.98963 ; brim
G1 X38.682 Y115.281 E2.00247 ; brim
G1 X38.815 Y115.414 E2.01530 ; brim
G1 X38.815 Y117.333 E2.14607 ; brim
G1 X38.682 Y117.467 E2.15891 ; brim
G1 X38.815 Y117.600 E2.17174 ; brim
G1 X38.815 Y119.519 E2.30251 ; brim
G1 X38.682 Y119.652 E2.31535 ; brim
G1 X38.815 Y119.785 E2.32818 ; brim
G1 X38.815 Y121.704 E2.45895 ; brim
G1 X38.682 Y121.837 E2.47179 ; brim
G1 X38.815 Y121.971 E2.48462 ; brim
G1 X38.815 Y123.890 E2.61539 ; brim
G1 X38.682 Y124.023 E2.62823 ; brim
G1 X38.815 Y124.156 E2.64106 ; brim
G1 X38.815 Y126.075 E2.77183 ; brim
G1 X38.682 Y126.208 E2.78467 ; brim
G1 X38.815 Y126.341 E2.79750 ; brim
G1 X38.815 Y128.260 E2.92827 ; brim
G1 X38.682 Y128.394 E2.94111 ; brim
G1 X38.815 Y128.527 E2.95394 ; brim
G1 X38.815 Y130.446 E3.08471 ; brim
G1 X38.682 Y130.579 E3.09755 ; brim
G1 X38.815 Y130.712 E3.11039 ; brim
G1 X38.815 Y132.631 E3.24115 ; brim
G1 X38.682 Y132.764 E3.25399 ; brim
G1 X38.815 Y132.898 E3.26683 ; brim
G1 X38.815 Y134.817 E3.39759 ; brim
G1 X38.682 Y134.950 E3.41043 ; brim
G1 X38.815 Y135.083 E3.42327 ; brim
G1 X38.815 Y137.002 E3.55403 ; brim
G1 X38.682 Y137.135 E3.56687 ; brim
G1 X38.815 Y137.268 E3.57971 ; brim
G1 X38.815 Y139.187 E3.71047 ; brim
G1 X38.682 Y139.321 E3.72331 ; brim
G1 X38.815 Y139.454 E3.73615 ; brim
G1 X38.815 Y141.373 E3.86692 ; brim
G1 X38.682 Y141.506 E3.87975 ; brim
G1 X38.815 Y141.639 E3.89259 ; brim
G1 X38.815 Y143.558 E4.02336 ; brim
G1 X38.682 Y143.691 E4.03619 ; brim
G1 X38.815 Y143.825 E4.04903 ; brim
G1 X38.815 Y145.744 E4.17980 ; brim
G1 X38.682 Y145.877 E4.19263 ; brim
G1 X38.815 Y146.010 E4.20547 ; brim
G1 X38.815 Y147.929 E4.33624 ; brim
G1 X38.709 Y148.035 E4.34649 ; brim
G1 X38.982 Y148.035 E4.36507 ; brim
G1 X39.125 Y148.139 E4.37713 ; brim
G1 X39.231 Y148.461 E4.40025 ; brim
G1 X39.177 Y148.630 E4.41230 ; brim
G1 X38.503 Y149.128 E4.46941 ; brim
G1 X38.720 Y149.128 E4.48417 ; brim
G1 X38.882 Y149.373 E4.50420 ; brim
G1 X38.520 Y150.221 E4.56699 ; brim
G1 X38.665 Y150.221 E4.57690 ; brim
G1 X38.825 Y150.381 E4.59232 ; brim
G1 X38.825 Y151.207 E4.64862 ; brim
G1 X38.665 Y151.367 E4.66405 ; brim
G1 X37.051 Y151.367 E4.77408 ; brim
G1 X36.889 Y151.122 E4.79411 ; brim
G1 X37.251 Y150.274 E4.85690 ; brim
G1 X36.024 Y150.274 E4.94047 ; brim
G1 X35.881 Y150.171 E4.95252 ; brim
G1 X35.775 Y149.848 E4.97564 ; brim
G1 X35.828 Y149.680 E4.98770 ; brim
G1 X36.502 Y149.182 E5.04481 ; brim
G1 X19.303 Y149.182 E6.21684 ; brim
G1 X19.409 Y149.288 E6.22709 ; brim
G1 X19.409 Y150.114 E6.28339 ; brim
G1 X19.249 Y150.274 E6.29882 ; brim
G1 X18.415 Y150.274 E6.35569 ; brim
G1 X18.521 Y150.381 E6.36594 ; brim
G1 X18.521 Y151.207 E6.42225 ; brim
G1 X18.361 Y151.367 E6.43767 ; brim
G1 X17.068 Y151.367 E6.52582 ; brim
G1 X16.931 Y151.277 E6.53700 ; brim
G1 X16.118 Y149.373 E6.67802 ; brim
G1 X16.291 Y149.128 E6.69848 ; brim
G1 X16.185 Y149.022 E6.70873 ; brim
G1 X16.185 Y147.103 E6.83950 ; brim
G1 X16.318 Y146.969 E6.85233 ; brim
G1 X16.185 Y146.836 E6.86517 ; brim
G1 X16.185 Y144.917 E6.99594 ; brim
G1 X16.318 Y144.784 E7.00878 ; brim
G1 X16.185 Y144.651 E7.02161 ; brim
G1 X16.185 Y142.732 E7.15238 ; brim
G1 X16.318 Y142.599 E7.16522 ; brim
G1 X16.185 Y142.465 E7.17805 ; brim
G1 X16.185 Y140.546 E7.30882 ; brim
G1 X16.318 Y140.413 E7.32166 ; brim
G1 X16.185 Y140.280 E7.33449 ; brim
G1 X16.185 Y138.361 E7.46526 ; brim
G1 X16.318 Y138.228 E7.47810 ; brim
G1 X16.185 Y138.095 E7.49093 ; brim
G1 X16.185 Y136.176 E7.62170 ; brim
G1 X16.318 Y136.042 E7.63454 ; brim
G1 X16.185 Y135.909 E7.64737 ; brim
G1 X16.185 Y133.990 E7.77814 ; brim
G1 X16.318 Y133.857 E7.79098 ; brim
G1 X16.185 Y133.724 E7.80381 ; brim
G1 X16.185 Y131.805 E7.93458 ; brim
G1 X16.318 Y131.672 E7.94742 ; brim
G1 X16.185 Y131.538 E7.96025 ; brim
G1 X16.185 Y129.619 E8.09102 ; brim
G1 X16.318 Y129.486 E8.10386 ; brim
G1 X16.185 Y129.353 E8.11669 ; brim
G1 X16.185 Y127.434 E8.24746 ; brim
G1 X16.318 Y127.301 E8.26030 ; brim
G1 X16.185 Y127.168 E8.27314 ; brim
G1 X16.185 Y125.249 E8.40390 ; brim
G1 X16.318 Y125.115 E8.41674 ; brim
G1 X16.185 Y124.982 E8.42958 ; brim
G1 X16.185 Y123.063 E8.56034 ; brim
G1 X16.318 Y122.930 E8.57318 ; brim
G1 X16.185 Y122.797 E8.58602 ; brim
G1 X16.185 Y120.878 E8.71678 ; brim
G1 X16.318 Y120.745 E8.72962 ; brim
G1 X16.185 Y120.611 E8.74246 ; brim
G1 X16.185 Y118.692 E8.87322 ; brim
G1 X16.318 Y118.559 E8.88606 ; brim
G1 X16.185 Y118.426 E8.89890 ; brim
G1 X16.185 Y116.507 E9.02966 ; brim
G1 X16.318 Y116.374 E9.04250 ; brim
G1 X16.185 Y116.241 E9.05534 ; brim
G1 X16.185 Y114.322 E9.18611 ; brim
G1 X16.318 Y114.188 E9.19894 ; brim
G1 X16.185 Y114.055 E9.21178 ; brim
G1 X16.185 Y112.136 E9.34255 ; brim
G1 X16.318 Y112.003 E9.35538 ; brim
G1 X16.185 Y111.870 E9.36822 ; brim
G1 X16.185 Y109.951 E9.49899 ; brim
G1 X16.318 Y109.818 E9.51182 ; brim
G1 X16.185 Y109.684 E9.52466 ; brim
G1 X16.185 Y107.765 E9.65543 ; brim
G1 X16.318 Y107.632 E9.66826 ; brim
G1 X16.185 Y107.499 E9.68110 ; brim
G1 X16.185 Y105.580 E9.81187 ; brim
G1 X16.318 Y105.447 E9.82470 ; brim
G1 X16.185 Y105.314 E9.83754 ; brim
G1 X16.185 Y103.395 E9.96831 ; brim
G1 X16.291 Y103.288 E9.97856 ; brim
G1 X16.246 Y103.288 E9.98165 ; brim
G1 X16.088 Y103.014 E10.00318 ; brim
G1 X17.188 Y101.122 E10.15232 ; brim
G1 X17.314 Y101.049 E10.16227 ; brim
G1 X18.840 Y101.049 E10.26623 ; brim
G1 X18.734 Y100.943 E10.27648 ; brim
G1 X18.734 Y100.117 E10.33279 ; brim
G1 X18.894 Y99.957 E10.34821 ; brim
G1 X35.190 Y99.957 E11.45867 ; brim
G1 X35.248 Y99.969 E11.46274 ; brim
G1 X38.350 Y101.414 E11.69590 ; brim
G1 F1800.000 E10.69590 ; retract
G92 E0 ; reset extrusion distance
G1 X43.071 Y103.198 F7800.000 ; move to first brim point
G1 F1800.000 E1.00000 ; compensate retraction
G1 X44.044 Y101.301 F756.000 E1.14530 ; brim
G1 X44.175 Y101.221 E1.15577 ; brim
G1 X44.917 Y101.221 E1.20631 ; brim
G1 X44.811 Y101.114 E1.21656 ; brim
G1 X44.811 Y100.288 E1.27287 ; brim
G1 X44.971 Y100.128 E1.28829 ; brim
G1 X63.154 Y100.128 E2.52736 ; brim
G1 X63.234 Y100.154 E2.53313 ; brim
G1 X65.506 Y101.757 E2.72259 ; brim
G1 X65.563 Y101.926 E2.73476 ; brim
G1 X65.456 Y102.262 E2.75875 ; brim
G1 X65.386 Y102.313 E2.76473 ; brim
G1 X65.499 Y102.313 E2.77243 ; brim
G1 X65.655 Y102.453 E2.78670 ; brim
G1 X65.861 Y104.371 E2.91815 ; brim
G1 X65.703 Y104.547 E2.93421 ; brim
G1 X65.815 Y104.659 E2.94503 ; brim
G1 X65.815 Y106.578 E3.07579 ; brim
G1 X65.682 Y106.711 E3.08863 ; brim
G1 X65.815 Y106.844 E3.10147 ; brim
G1 X65.815 Y108.763 E3.23223 ; brim
G1 X65.682 Y108.896 E3.24507 ; brim
G1 X65.815 Y109.030 E3.25791 ; brim
G1 X65.815 Y110.949 E3.38867 ; brim
G1 X65.682 Y111.082 E3.40151 ; brim
G1 X65.815 Y111.215 E3.41435 ; brim
G1 X65.815 Y113.134 E3.54512 ; brim
G1 X65.682 Y113.267 E3.55795 ; brim
G1 X65.815 Y113.400 E3.57079 ; brim
G1 X65.815 Y115.319 E3.70156 ; brim
G1 X65.682 Y115.453 E3.71439 ; brim
G1 X65.815 Y115.586 E3.72723 ; brim
G1 X65.815 Y117.505 E3.85800 ; brim
G1 X65.682 Y117.638 E3.87083 ; brim
G1 X65.815 Y117.771 E3.88367 ; brim
G1 X65.815 Y119.690 E4.01444 ; brim
G1 X65.682 Y119.823 E4.02727 ; brim
G1 X65.815 Y119.957 E4.04011 ; brim
G1 X65.815 Y121.876 E4.17088 ; brim
G1 X65.682 Y122.009 E4.18371 ; brim
G1 X65.815 Y122.142 E4.19655 ; brim
G1 X65.815 Y124.061 E4.32732 ; brim
G1 X65.682 Y124.194 E4.34015 ; brim
G1 X65.815 Y124.327 E4.35299 ; brim
G1 X65.815 Y126.246 E4.48376 ; brim
G1 X65.682 Y126.380 E4.49659 ; brim
G1 X65.815 Y126.513 E4.50943 ; brim
G1 X65.815 Y128.432 E4.64020 ; brim
